; generated by Slic3r Prusa Edition 1.41.0+win64 on 2018-11-01 at 16:03:02

; 

; external perimeters extrusion width = 0.45mm
; perimeters extrusion width = 0.45mm
; infill extrusion width = 0.45mm
; solid infill extrusion width = 0.45mm
; top infill extrusion width = 0.40mm
; first layer extrusion width = 0.42mm

M201 X1000 Y1000 Z1000 E5000 ; sets maximum accelerations, mm/sec^2
M203 X200 Y200 Z12 E120 ; sets maximum feedrates, mm/sec
M204 P1250 R1250 T1250 ; sets acceleration (P, T) and retract acceleration (R), mm/sec^2
M205 X8.00 Y8.00 Z0.40 E1.50 ; sets the jerk limits, mm/sec
M205 S0 T0 ; sets the minimum extruding and travel feed rate, mm/sec
M107
M115 U3.4.1 ; tell printer latest fw version
M83  ; extruder relative mode
M104 S215 ; set extruder temp
M140 S60 ; set bed temp
M190 S60 ; wait for bed temp
M109 S215 ; wait for extruder temp
G28 W ; home all without mesh bed level
G80 ; mesh bed leveling
G1 Y-3.0 F1000.0 ; go outside print area
G92 E0.0
G1 X60.0 E9.0  F1000.0 ; intro line
M73 Q0 S118
M73 P0 R118
G1 X100.0 E12.5  F1000.0 ; intro line
G92 E0.0
M221 S95
M900 K30; Filament gcode
G21 ; set units to millimeters
G90 ; use absolute coordinates
M83 ; use relative distances for extrusion
;BEFORE_LAYER_CHANGE
G92 E0.0
;0.2


G1 Z0.200 F10800.000
;AFTER_LAYER_CHANGE
;0.2
G1 E-0.80000 F2100.00000
G1 Z0.800 F10800.000
G1 X99.794 Y61.879
G1 Z0.200
G1 E0.80000 F2100.00000
M204 S1000
G1 F1500
G1 X101.554 Y59.105 E0.10302
G1 X102.245 Y58.181 E0.03619
G1 X104.513 Y55.615 E0.10737
G1 X105.284 Y54.877 E0.03344
G1 X107.813 Y52.786 E0.10291
G1 X108.626 Y52.209 E0.03127
G1 X111.596 Y50.446 E0.10829
G1 X112.607 Y49.952 E0.03527
G1 X115.821 Y48.687 E0.10829
G1 X116.771 Y48.399 E0.03114
G1 X119.978 Y47.682 E0.10302
G1 X121.120 Y47.517 E0.03619
G1 X124.545 Y47.306 E0.10760
G1 X125.604 Y47.329 E0.03321
G1 X128.872 Y47.639 E0.10291
G1 X129.855 Y47.807 E0.03126
G1 X133.201 Y48.660 E0.10829
G1 X134.265 Y49.025 E0.03527
G1 X137.433 Y50.403 E0.10829
G1 X138.305 Y50.870 E0.03103
G1 X141.082 Y52.632 E0.10314
G1 X142.007 Y53.323 E0.03619
G1 X144.573 Y55.591 E0.10737
G1 X145.310 Y56.361 E0.03344
G1 X147.402 Y58.891 E0.10291
G1 X147.978 Y59.704 E0.03127
G1 X149.741 Y62.674 E0.10829
G1 X150.236 Y63.685 E0.03527
G1 X151.501 Y66.898 E0.10829
G1 X151.789 Y67.849 E0.03114
G1 X152.505 Y71.056 E0.10302
G1 X152.671 Y72.198 E0.03619
G1 X152.881 Y75.616 E0.10737
G1 X152.858 Y76.682 E0.03344
G1 X152.548 Y79.950 E0.10291
G1 X152.381 Y80.933 E0.03126
G1 X151.527 Y84.279 E0.10829
G1 X151.163 Y85.343 E0.03527
G1 X149.785 Y88.510 E0.10829
G1 X149.316 Y89.386 E0.03114
G1 X147.555 Y92.160 E0.10302
G1 X146.864 Y93.085 E0.03619
G1 X144.596 Y95.651 E0.10737
G1 X143.826 Y96.388 E0.03344
G1 X141.297 Y98.480 E0.10291
G1 X140.483 Y99.056 E0.03126
G1 X137.513 Y100.819 E0.10829
G1 X136.503 Y101.314 E0.03527
G1 X133.289 Y102.579 E0.10829
G1 X132.342 Y102.866 E0.03103
G1 X129.132 Y103.583 E0.10314
G1 X127.989 Y103.748 E0.03619
G1 X124.571 Y103.959 E0.10737
G1 X123.505 Y103.936 E0.03344
G1 X120.238 Y103.626 E0.10291
G1 X119.255 Y103.459 E0.03126
G1 X115.908 Y102.605 E0.10829
G1 X114.844 Y102.241 E0.03527
G1 X111.677 Y100.863 E0.10829
G1 X110.801 Y100.394 E0.03114
G1 X108.027 Y98.633 E0.10302
G1 X107.103 Y97.942 E0.03619
G1 X104.537 Y95.674 E0.10737
G1 X103.799 Y94.904 E0.03344
G1 X101.708 Y92.375 E0.10291
G1 X101.131 Y91.561 E0.03127
G1 X99.368 Y88.591 E0.10829
G1 X98.874 Y87.581 E0.03527
G1 X97.609 Y84.367 E0.10829
G1 X97.322 Y83.420 E0.03103
G1 X96.604 Y80.210 E0.10314
G1 X96.439 Y79.067 E0.03619
G1 X96.228 Y75.649 E0.10737
G1 X96.252 Y74.583 E0.03344
G1 X96.561 Y71.316 E0.10291
G1 X96.729 Y70.333 E0.03126
G1 X97.582 Y66.986 E0.10829
G1 X97.947 Y65.922 E0.03527
G1 X99.325 Y62.755 E0.10829
G1 X99.765 Y61.932 E0.02926
; PURGING FINISHED
G1 F8640
G1 X101.525 Y59.151 E-0.76000
G1 E-0.04000 F2100.00000
G1 Z0.800 F10800.000
G1 X101.749 Y63.302
G1 Z0.200
G1 E0.80000 F2100.00000
G1 F1500
G1 X106.215 Y65.577 E0.15713
G1 X106.789 Y64.604 E0.03544
G1 X107.746 Y63.179 E0.05381
G1 X103.696 Y60.237 E0.15694
G1 X103.959 Y59.886 E0.01374
G1 X108.013 Y62.832 E0.15713
G1 X108.733 Y61.960 E0.03544
G1 X109.901 Y60.703 E0.05381
G1 X106.361 Y57.163 E0.15694
G1 X106.676 Y56.858 E0.01374
G1 X110.220 Y60.402 E0.15713
G1 X111.067 Y59.654 E0.03544
G1 X112.417 Y58.594 E0.05381
G1 X109.475 Y54.544 E0.15694
G1 X109.833 Y54.293 E0.01374
G1 X112.779 Y58.347 E0.15713
G1 X113.733 Y57.740 E0.03544
G1 X115.232 Y56.905 E0.05381
G1 X112.959 Y52.445 E0.15695
G1 X113.353 Y52.252 E0.01374
G1 X115.628 Y56.718 E0.15713
G1 X116.665 Y56.268 E0.03544
G1 X118.276 Y55.677 E0.05381
G1 X116.729 Y50.916 E0.15694
G1 X117.148 Y50.788 E0.01374
G1 X118.697 Y55.554 E0.15713
G1 X119.791 Y55.272 E0.03544
G1 X121.475 Y54.941 E0.05381
G1 X120.692 Y49.997 E0.15694
G1 X121.126 Y49.935 E0.01374
G1 X121.910 Y54.885 E0.15713
G1 X123.035 Y54.777 E0.03544
G1 X124.750 Y54.714 E0.05381
G1 X124.750 Y49.708 E0.15694
G1 X125.188 Y49.715 E0.01374
G1 X125.188 Y54.726 E0.15712
G1 X126.316 Y54.797 E0.03544
G1 X128.020 Y55.002 E0.05381
G1 X128.803 Y50.058 E0.15694
G1 X129.235 Y50.133 E0.01374
G1 X128.451 Y55.083 E0.15713
G1 X129.554 Y55.329 E0.03544
G1 X131.205 Y55.798 E0.05381
G1 X132.752 Y51.037 E0.15694
G1 X133.166 Y51.179 E0.01374
G1 X131.618 Y55.945 E0.15713
G1 X132.669 Y56.361 E0.03544
G1 X134.226 Y57.082 E0.05381
G1 X136.498 Y52.622 E0.15694
G1 X136.885 Y52.827 E0.01374
G1 X134.610 Y57.293 E0.15713
G1 X135.584 Y57.867 E0.03544
G1 X137.009 Y58.824 E0.05381
G1 X139.951 Y54.774 E0.15694
G1 X140.301 Y55.037 E0.01374
G1 X137.356 Y59.091 E0.15713
G1 X138.227 Y59.811 E0.03544
G1 X139.485 Y60.979 E0.05381
G1 X143.024 Y57.439 E0.15694
G1 X143.329 Y57.754 E0.01374
G1 X139.786 Y61.298 E0.15713
G1 X140.534 Y62.145 E0.03544
G1 X141.594 Y63.495 E0.05381
G1 X145.643 Y60.553 E0.15694
G1 X145.895 Y60.911 E0.01374
G1 X141.841 Y63.857 E0.15713
G1 X142.447 Y64.811 E0.03544
G1 X143.283 Y66.310 E0.05381
G1 X147.743 Y64.037 E0.15695
G1 X147.935 Y64.431 E0.01374
G1 X143.470 Y66.706 E0.15713
G1 X143.920 Y67.743 E0.03544
G1 X144.510 Y69.354 E0.05381
G1 X149.271 Y67.807 E0.15695
G1 X149.400 Y68.226 E0.01374
G1 X144.634 Y69.775 E0.15713
G1 X144.915 Y70.869 E0.03544
G1 X145.247 Y72.553 E0.05381
G1 X150.191 Y71.770 E0.15694
G1 X150.252 Y72.204 E0.01374
G1 X145.303 Y72.988 E0.15713
G1 X145.410 Y74.113 E0.03544
G1 X145.474 Y75.828 E0.05381
G1 X150.479 Y75.828 E0.15695
G1 X150.473 Y76.266 E0.01374
G1 X145.461 Y76.266 E0.15713
G1 X145.391 Y77.394 E0.03544
G1 X145.186 Y79.098 E0.05381
G1 X150.130 Y79.881 E0.15694
G1 X150.054 Y80.313 E0.01374
G1 X145.105 Y79.529 E0.15713
G1 X144.859 Y80.632 E0.03544
G1 X144.390 Y82.283 E0.05381
G1 X149.150 Y83.830 E0.15694
G1 X149.008 Y84.244 E0.01374
G1 X144.242 Y82.695 E0.15713
G1 X143.827 Y83.747 E0.03544
G1 X143.105 Y85.304 E0.05381
G1 X147.565 Y87.576 E0.15694
G1 X147.360 Y87.963 E0.01374
G1 X142.895 Y85.688 E0.15713
G1 X142.320 Y86.662 E0.03544
G1 X141.364 Y88.087 E0.05381
G1 X145.413 Y91.029 E0.15695
G1 X145.150 Y91.379 E0.01374
G1 X141.096 Y88.433 E0.15713
G1 X140.376 Y89.305 E0.03544
G1 X139.209 Y90.563 E0.05381
G1 X142.748 Y94.102 E0.15695
G1 X142.434 Y94.407 E0.01374
G1 X138.890 Y90.864 E0.15713
G1 X138.043 Y91.612 E0.03544
G1 X136.693 Y92.671 E0.05381
G1 X139.635 Y96.721 E0.15694
G1 X139.276 Y96.973 E0.01374
G1 X136.331 Y92.919 E0.15713
G1 X135.377 Y93.525 E0.03544
G1 X133.878 Y94.360 E0.05381
G1 X136.150 Y98.820 E0.15695
G1 X135.757 Y99.013 E0.01374
G1 X133.482 Y94.548 E0.15713
G1 X132.445 Y94.998 E0.03544
G1 X130.833 Y95.588 E0.05381
G1 X132.380 Y100.349 E0.15694
G1 X131.961 Y100.478 E0.01374
G1 X130.413 Y95.711 E0.15713
G1 X129.318 Y95.993 E0.03544
G1 X127.634 Y96.325 E0.05381
G1 X128.417 Y101.269 E0.15694
G1 X127.984 Y101.330 E0.01374
G1 X127.200 Y96.381 E0.15713
G1 X126.074 Y96.488 E0.03544
G1 X124.359 Y96.552 E0.05381
G1 X124.359 Y101.557 E0.15694
G1 X123.921 Y101.550 E0.01374
G1 X123.921 Y96.539 E0.15713
G1 X122.793 Y96.469 E0.03544
G1 X121.089 Y96.264 E0.05381
G1 X120.306 Y101.208 E0.15694
G1 X119.875 Y101.132 E0.01374
G1 X120.659 Y96.183 E0.15713
G1 X119.555 Y95.937 E0.03544
G1 X117.905 Y95.468 E0.05381
G1 X116.358 Y100.228 E0.15694
G1 X115.943 Y100.086 E0.01374
G1 X117.492 Y95.320 E0.15713
G1 X116.441 Y94.905 E0.03544
G1 X114.884 Y94.183 E0.05381
G1 X112.611 Y98.643 E0.15695
G1 X112.224 Y98.438 E0.01374
G1 X114.499 Y93.973 E0.15713
G1 X113.526 Y93.398 E0.03544
G1 X112.101 Y92.442 E0.05381
G1 X109.159 Y96.491 E0.15694
G1 X108.808 Y96.228 E0.01374
G1 X111.754 Y92.174 E0.15713
G1 X110.882 Y91.454 E0.03544
G1 X109.625 Y90.287 E0.05381
G1 X106.085 Y93.826 E0.15695
G1 X105.780 Y93.511 E0.01374
G1 X109.324 Y89.968 E0.15713
G1 X108.576 Y89.120 E0.03544
G1 X107.516 Y87.771 E0.05381
G1 X103.466 Y90.713 E0.15694
G1 X103.215 Y90.354 E0.01374
G1 X107.269 Y87.409 E0.15713
G1 X106.663 Y86.455 E0.03544
G1 X105.827 Y84.956 E0.05381
G1 X101.367 Y87.228 E0.15694
G1 X101.174 Y86.835 E0.01374
G1 X105.640 Y84.560 E0.15713
G1 X105.190 Y83.523 E0.03544
G1 X104.599 Y81.911 E0.05381
G1 X99.839 Y83.458 E0.15695
G1 X99.710 Y83.039 E0.01374
G1 X104.476 Y81.491 E0.15713
G1 X104.194 Y80.396 E0.03544
G1 X103.863 Y78.712 E0.05381
G1 X98.919 Y79.495 E0.15694
G1 X98.857 Y79.062 E0.01374
G1 X103.807 Y78.278 E0.15713
G1 X103.700 Y77.152 E0.03544
G1 X103.636 Y75.437 E0.05381
G1 X98.630 Y75.437 E0.15695
G1 X98.637 Y74.999 E0.01374
G1 X103.648 Y74.999 E0.15713
G1 X103.719 Y73.871 E0.03544
G1 X103.924 Y72.167 E0.05381
G1 X98.980 Y71.384 E0.15694
G1 X99.055 Y70.953 E0.01374
G1 X104.005 Y71.737 E0.15713
G1 X104.251 Y70.633 E0.03544
G1 X104.720 Y68.983 E0.05381
G1 X99.959 Y67.436 E0.15694
G1 X100.101 Y67.021 E0.01374
G1 X104.867 Y68.570 E0.15713
G1 X105.283 Y67.519 E0.03544
G1 X106.004 Y65.962 E0.05381
G1 X101.544 Y63.689 E0.15695
G1 X101.721 Y63.355 E0.01185
G1 F8640
G1 X104.672 Y64.814 E-0.76000
G1 E-0.04000 F2100.00000
G1 Z0.800 F10800.000
G1 X106.309 Y85.589
G1 Z0.200
G1 E0.80000 F2100.00000
G1 F1500
G1 X114.806 Y94.086 E0.37953
G1 X115.690 Y94.432 F10800.000
G1 F1500
G1 X106.072 Y84.814 E0.42961
G1 X105.636 Y83.841 E0.03365
G1 X116.342 Y94.548 E0.47820
G1 X117.254 Y94.922 E0.03113
G1 X105.281 Y82.948 E0.53481
G1 X104.970 Y82.100 E0.02853
G1 X118.098 Y95.229 E0.58639
G1 X118.848 Y95.442 E0.02464
G1 X104.723 Y81.317 E0.63091
G1 X104.537 Y80.593 E0.02360
G1 X119.599 Y95.655 E0.67275
G1 X120.292 Y95.811 E0.02244
G1 X104.386 Y79.905 E0.71047
G1 X104.254 Y79.236 E0.02153
G1 X120.984 Y95.966 E0.74728
G1 X121.595 Y96.040 E0.01943
G1 X104.122 Y78.567 E0.78043
G1 X104.061 Y77.969 E0.01898
G1 X122.206 Y96.113 E0.81042
G1 X122.816 Y96.187 E0.01943
G1 X104.005 Y77.375 E0.84023
G1 X103.969 Y76.803 E0.01812
G1 X123.389 Y96.223 E0.86740
G1 X123.962 Y96.258 E0.01812
G1 X103.949 Y76.245 E0.89391
G1 X103.928 Y75.687 E0.01764
G1 X124.504 Y96.263 E0.91907
G1 X125.022 Y96.244 E0.01637
G1 X103.923 Y75.145 E0.94243
G1 X103.954 Y74.639 E0.01600
G1 X125.540 Y96.225 E0.96416
G1 X126.058 Y96.205 E0.01636
G1 X103.986 Y74.133 E0.98588
G1 X104.031 Y73.641 E0.01560
G1 X126.548 Y96.159 E1.00575
G1 X127.039 Y96.112 E0.01556
G1 X104.089 Y73.162 E1.02508
G1 X104.146 Y72.683 E0.01525
G1 X127.523 Y96.059 E1.04412
G1 X127.971 Y95.970 E0.01445
G1 X104.204 Y72.203 E1.06159
G1 X104.291 Y71.753 E0.01448
G1 X128.420 Y95.882 E1.07775
G1 X128.869 Y95.794 E0.01445
G1 X104.389 Y71.313 E1.09343
M73 Q0 S117
G1 X104.487 Y70.874 E0.01422
G1 X129.315 Y95.702 E1.10897
M73 P0 R117
G1 X129.742 Y95.592 E0.01393
G1 X104.597 Y70.448 E1.12311
G1 X104.716 Y70.029 E0.01373
G1 X130.169 Y95.482 E1.13688
G1 X130.596 Y95.372 E0.01393
G1 X104.835 Y69.611 E1.15065
G1 X104.954 Y69.193 E0.01373
G1 X130.991 Y95.229 E1.16295
G1 X131.384 Y95.085 E0.01322
G1 X105.086 Y68.787 E1.17463
G1 X105.238 Y68.402 E0.01308
G1 X131.777 Y94.941 E1.18539
G1 X132.170 Y94.797 E0.01322
G1 X105.390 Y68.017 E1.19616
G1 X105.542 Y67.632 E0.01308
G1 X132.553 Y94.643 E1.20645
G1 X132.927 Y94.480 E0.01290
G1 X105.712 Y67.265 E1.21559
G1 X105.882 Y66.898 E0.01278
G1 X133.302 Y94.318 E1.22473
G1 X133.673 Y94.151 E0.01283
G1 X106.052 Y66.531 E1.23369
G1 X106.222 Y66.164 E0.01278
G1 X134.018 Y93.959 E1.24150
G1 X134.362 Y93.767 E0.01247
G1 X106.406 Y65.810 E1.24872
G1 X106.605 Y65.472 E0.01239
G1 X134.707 Y93.574 E1.25522
G1 X135.052 Y93.382 E0.01247
G1 X106.804 Y65.134 E1.26171
G1 X107.004 Y64.797 E0.01239
G1 X135.389 Y93.182 E1.26786
G1 X135.718 Y92.973 E0.01229
G1 X107.218 Y64.473 E1.27298
G1 X107.433 Y64.152 E0.01223
G1 X136.046 Y92.764 E1.27802
G1 X136.375 Y92.556 E0.01229
G1 X107.649 Y63.830 E1.28305
G1 X107.865 Y63.509 E0.01223
G1 X136.679 Y92.323 E1.28701
G1 X136.980 Y92.087 E0.01208
G1 X108.084 Y63.191 E1.29066
G1 X108.327 Y62.896 E0.01205
G1 X137.281 Y91.850 E1.29325
G1 X137.582 Y91.614 E0.01208
G1 X108.570 Y62.602 E1.29584
G1 X108.813 Y62.308 E0.01205
G1 X137.881 Y91.377 E1.29837
G1 X138.167 Y91.125 E0.01202
G1 X109.063 Y62.021 E1.29995
G1 X109.321 Y61.742 E0.01200
G1 X138.452 Y90.873 E1.30114
G1 X138.737 Y90.621 E0.01202
G1 X109.580 Y61.464 E1.30234
G1 X109.839 Y61.185 E0.01200
G1 X139.012 Y90.359 E1.30307
G1 X139.271 Y90.080 E0.01200
G1 X110.097 Y60.907 E1.30307
G1 X110.207 Y60.789 E0.00508
G1 X110.372 Y60.644 E0.00694
G1 X139.529 Y89.802 E1.30234
G1 X139.788 Y89.523 E0.01200
G1 X110.657 Y60.393 E1.30114
G1 X110.943 Y60.141 E0.01202
G1 X140.047 Y89.244 E1.29995
G1 X140.297 Y88.957 E0.01203
G1 X111.228 Y59.889 E1.29837
G1 X111.528 Y59.651 E0.01208
G1 X140.540 Y88.663 E1.29584
G1 X140.783 Y88.369 E0.01205
G1 X111.829 Y59.415 E1.29325
G1 X112.130 Y59.179 E0.01208
G1 X141.026 Y88.075 E1.29066
G1 X141.245 Y87.757 E0.01220
G1 X112.431 Y58.943 E1.28701
M73 Q1 S116
M73 P1 R116
G1 X112.735 Y58.710 E0.01210
G1 X141.460 Y87.435 E1.28305
G1 X141.676 Y87.114 E0.01223
G1 X113.063 Y58.501 E1.27802
G1 X113.392 Y58.292 E0.01229
G1 X141.892 Y86.792 E1.27299
G1 X142.106 Y86.469 E0.01224
G1 X113.720 Y58.084 E1.26786
G1 X114.057 Y57.883 E0.01238
G1 X142.305 Y86.131 E1.26172
G1 X142.504 Y85.793 E0.01239
G1 X114.402 Y57.691 E1.25522
G1 X114.747 Y57.499 E0.01247
G1 X142.704 Y85.456 E1.24872
G1 X142.887 Y85.102 E0.01259
G1 X115.092 Y57.307 E1.24150
G1 X115.437 Y57.114 E0.01247
G1 X143.057 Y84.735 E1.23369
G1 X143.227 Y84.368 E0.01278
G1 X115.808 Y56.948 E1.22473
G1 X116.182 Y56.785 E0.01290
G1 X143.397 Y84.001 E1.21560
G1 X143.567 Y83.633 E0.01278
G1 X116.557 Y56.623 E1.20645
G1 X116.940 Y56.468 E0.01303
G1 X143.720 Y83.248 E1.19616
G1 X143.872 Y82.863 E0.01308
G1 X117.333 Y56.324 E1.18540
G1 X117.726 Y56.180 E0.01322
G1 X144.024 Y82.478 E1.17463
G1 X144.155 Y82.073 E0.01347
G1 X118.119 Y56.036 E1.16296
G1 X118.513 Y55.893 E0.01325
G1 X144.274 Y81.654 E1.15065
G1 X144.393 Y81.236 E0.01373
G1 X118.940 Y55.783 E1.13688
G1 X119.367 Y55.673 E0.01393
G1 X144.512 Y80.818 E1.12311
G1 X144.623 Y80.391 E0.01392
G1 X119.795 Y55.563 E1.10897
G1 X120.240 Y55.472 E0.01437
G1 X144.721 Y79.952 E1.09343
G1 X144.818 Y79.513 E0.01422
G1 X120.689 Y55.383 E1.07776
G1 X121.138 Y55.295 E0.01445
G1 X144.905 Y79.062 E1.06159
G1 X144.963 Y78.583 E0.01525
G1 X121.587 Y55.207 E1.04412
G1 X122.071 Y55.153 E0.01537
G1 X145.021 Y78.103 E1.02508
G1 X145.078 Y77.624 E0.01525
G1 X122.561 Y55.107 E1.00576
G1 X123.052 Y55.060 E0.01556
G1 X145.124 Y77.132 E0.98588
G1 X145.155 Y76.627 E0.01600
G1 X123.569 Y55.041 E0.96416
G1 X124.087 Y55.021 E0.01637
G1 X145.187 Y76.121 E0.94243
G1 X145.182 Y75.579 E0.01713
G1 X124.605 Y55.002 E0.91907
G1 X124.905 Y54.991 E0.00949
G1 X125.147 Y55.007 E0.00767
G1 X145.161 Y75.021 E0.89391
G1 X145.140 Y74.463 E0.01764
G1 X125.720 Y55.043 E0.86740
G1 X126.293 Y55.079 E0.01813
G1 X145.105 Y73.890 E0.84023
G1 X145.048 Y73.296 E0.01884
G1 X126.904 Y55.152 E0.81043
G1 X127.515 Y55.226 E0.01943
G1 X144.987 Y72.698 E0.78044
G1 X144.856 Y72.030 E0.02153
G1 X128.125 Y55.299 E0.74728
G1 X128.818 Y55.454 E0.02241
G1 X144.724 Y71.361 E0.71047
G1 X144.573 Y70.672 E0.02226
G1 X129.511 Y55.610 E0.67276
G1 X130.261 Y55.824 E0.02464
G1 X144.386 Y69.949 E0.63091
G1 X144.295 Y69.587 E0.01177
G1 X144.140 Y69.165 E0.01420
G1 X131.012 Y56.037 E0.58639
G1 X131.267 Y56.109 E0.00838
G1 X131.855 Y56.343 E0.02000
G1 X143.829 Y68.317 E0.53481
