; generated by Slic3r Prusa Edition 1.41.0+win64 on 2018-11-04 at 01:42:17

; 

; external perimeters extrusion width = 0.45mm
; perimeters extrusion width = 0.45mm
; infill extrusion width = 0.45mm
; solid infill extrusion width = 0.45mm
; top infill extrusion width = 0.40mm
; first layer extrusion width = 0.42mm

M201 X1000 Y1000 Z1000 E5000 ; sets maximum accelerations, mm/sec^2
M203 X200 Y200 Z12 E120 ; sets maximum feedrates, mm/sec
M204 P1250 R1250 T1250 ; sets acceleration (P, T) and retract acceleration (R), mm/sec^2
M205 X8.00 Y8.00 Z0.40 E1.50 ; sets the jerk limits, mm/sec
M205 S0 T0 ; sets the minimum extruding and travel feed rate, mm/sec
M107
M115 U3.4.1 ; tell printer latest fw version
M83  ; extruder relative mode
M104 S215 ; set extruder temp
M140 S60 ; set bed temp
M190 S60 ; wait for bed temp
M109 S215 ; wait for extruder temp
G28 W ; home all without mesh bed level
G80 ; mesh bed leveling
G1 Y-3.0 F1000.0 ; go outside print area
G92 E0.0
G1 X60.0 E9.0  F1000.0 ; intro line
M73 Q0 S98
M73 P0 R96
G1 X100.0 E12.5  F1000.0 ; intro line
G92 E0.0
M221 S95
M900 K30; Filament gcode
G21 ; set units to millimeters
G90 ; use absolute coordinates
M83 ; use relative distances for extrusion
;BEFORE_LAYER_CHANGE
G92 E0.0
;0.2


G1 E-0.80000 F2100.00000
G1 Z0.600 F10800.000
;AFTER_LAYER_CHANGE
;0.2
G1 X66.223 Y18.586
G1 Z0.200
G1 E0.80000 F2100.00000
M204 S1000
G1 F1800
G1 X66.465 Y17.737 E0.02769
G1 X67.085 Y16.460 E0.04450
G1 X69.758 Y12.649 E0.14596
G1 X70.835 Y11.440 E0.05076
G1 X71.903 Y10.608 E0.04245
G1 X73.053 Y9.988 E0.04095
G1 X74.413 Y9.527 E0.04503
G1 X75.102 Y9.385 E0.02205
G1 X76.348 Y9.282 E0.03921
G1 X126.375 Y9.282 E1.56857
G1 X127.913 Y9.430 E0.04842
G1 X129.368 Y9.854 E0.04752
G1 X130.744 Y10.555 E0.04841
G1 X131.851 Y11.404 E0.04376
G1 X132.960 Y12.634 E0.05191
G1 X135.512 Y16.257 E0.13896
G1 X136.279 Y17.829 E0.05483
G1 X136.536 Y18.767 E0.03049
G1 X140.334 Y44.115 E0.80366
G1 X142.520 Y104.333 E1.88934
G1 X142.469 Y105.040 E0.02221
G1 X142.197 Y106.402 E0.04355
G1 X141.742 Y107.601 E0.04021
G1 X141.143 Y108.642 E0.03766
G1 X139.963 Y110.045 E0.05748
G1 X138.561 Y111.103 E0.05507
G1 X133.645 Y113.594 E0.17281
G1 X132.528 Y113.936 E0.03661
G1 X131.700 Y114.044 E0.02620
G1 X70.976 Y114.043 E1.90396
G1 X70.173 Y113.930 E0.02540
G1 X69.066 Y113.586 E0.03637
G1 X64.059 Y111.040 E0.17612
G1 X63.034 Y110.280 E0.03999
G1 X62.552 Y109.826 E0.02078
G1 X61.760 Y108.902 E0.03816
G1 X61.047 Y107.725 E0.04314
G1 X60.409 Y105.921 E0.05999
G1 X60.221 Y104.708 E0.03848
G1 X60.226 Y103.523 E0.03718
G1 X66.112 Y19.495 E2.64107
G1 X66.215 Y18.646 E0.02684
G1 X66.589 Y18.691 F10800.000
G1 F1800
G1 X66.826 Y17.846 E0.02750
G1 X67.410 Y16.650 E0.04174
G1 X70.057 Y12.878 E0.14449
G1 X71.075 Y11.732 E0.04806
G1 X72.108 Y10.925 E0.04109
G1 X73.208 Y10.332 E0.03921
G1 X74.520 Y9.889 E0.04340
G1 X75.159 Y9.758 E0.02044
G1 X76.352 Y9.659 E0.03754
G1 X126.375 Y9.659 E1.56845
G1 X127.844 Y9.800 E0.04627
G1 X129.236 Y10.208 E0.04548
G1 X130.552 Y10.880 E0.04633
G1 X131.618 Y11.701 E0.04218
G1 X132.663 Y12.866 E0.04909
G1 X135.205 Y16.476 E0.13845
G1 X135.938 Y17.992 E0.05277
G1 X136.163 Y18.827 E0.02713
G1 X139.962 Y44.180 E0.80381
G1 X142.143 Y104.334 E1.88732
G1 X142.096 Y104.990 E0.02060
G1 X141.834 Y106.298 E0.04184
G1 X141.400 Y107.441 E0.03834
G1 X140.818 Y108.450 E0.03653
G1 X139.699 Y109.776 E0.05438
G1 X138.369 Y110.779 E0.05222
G1 X133.508 Y113.242 E0.17089
G1 X132.446 Y113.567 E0.03480
G1 X131.680 Y113.667 E0.02425
G1 X70.994 Y113.666 E1.90276
G1 X70.252 Y113.561 E0.02349
G1 X69.205 Y113.235 E0.03440
G1 X64.251 Y110.716 E0.17424
G1 X62.828 Y109.570 E0.05728
G1 X62.066 Y108.682 E0.03669
G1 X61.379 Y107.546 E0.04162
G1 X60.778 Y105.844 E0.05661
G1 X60.597 Y104.678 E0.03700
G1 X60.603 Y103.528 E0.03606
G1 X66.488 Y19.523 E2.64035
G1 X66.582 Y18.751 E0.02441
; PURGING FINISHED
G1 F8640
G1 X66.826 Y17.846 E-0.21625
G1 X67.410 Y16.650 E-0.30736
G1 X67.998 Y15.812 E-0.23639
G1 E-0.04000 F2100.00000
G1 Z0.800 F10800.000
G1 X68.364 Y100.991
G1 Z0.200
G1 E0.80000 F2100.00000
G1 F1800
G1 X69.056 Y101.069 E0.02183
G1 X69.714 Y101.299 E0.02184
G1 X70.304 Y101.670 E0.02186
G1 X70.797 Y102.162 E0.02183
G1 X71.168 Y102.752 E0.02186
G1 X71.397 Y103.409 E0.02181
G1 X71.476 Y104.102 E0.02187
G1 X71.397 Y104.794 E0.02184
G1 X71.168 Y105.452 E0.02184
G1 X70.797 Y106.041 E0.02183
G1 X70.304 Y106.534 E0.02186
G1 X69.714 Y106.905 E0.02185
G1 X69.056 Y107.134 E0.02184
G1 X68.364 Y107.213 E0.02184
G1 X67.671 Y107.134 E0.02187
G1 X67.014 Y106.905 E0.02184
G1 X66.425 Y106.534 E0.02182
G1 X65.931 Y106.041 E0.02188
G1 X65.561 Y105.452 E0.02181
G1 X65.330 Y104.794 E0.02186
G1 X65.253 Y104.102 E0.02183
G1 X65.330 Y103.409 E0.02186
G1 X65.561 Y102.752 E0.02182
G1 X65.931 Y102.162 E0.02184
G1 X66.425 Y101.670 E0.02186
G1 X67.014 Y101.299 E0.02183
G1 X67.671 Y101.069 E0.02184
G1 X68.305 Y100.998 E0.01999
G1 X68.565 Y100.645 F10800.000
G1 F8640
G1 X69.056 Y101.069 E-0.17433
G1 X69.714 Y101.299 E-0.16085
G1 X70.304 Y101.670 E-0.16098
G1 X70.797 Y102.162 E-0.16079
G1 X71.034 Y102.540 E-0.10306
G1 E-0.04000 F2100.00000
G1 Z0.800 F10800.000
G1 X131.253 Y104.101
G1 Z0.200
G1 E0.80000 F2100.00000
G1 F1800
G1 X131.331 Y103.409 E0.02184
G1 X131.561 Y102.751 E0.02184
G1 X131.932 Y102.162 E0.02183
G1 X132.425 Y101.670 E0.02183
G1 X133.015 Y101.299 E0.02186
G1 X133.672 Y101.069 E0.02184
G1 X134.364 Y100.991 E0.02184
G1 X135.057 Y101.069 E0.02187
G1 X135.715 Y101.299 E0.02185
G1 X136.304 Y101.670 E0.02183
G1 X136.798 Y102.162 E0.02185
G1 X137.168 Y102.751 E0.02182
G1 X137.398 Y103.409 E0.02186
G1 X137.476 Y104.101 E0.02183
G1 X137.398 Y104.794 E0.02186
G1 X137.168 Y105.452 E0.02186
G1 X136.798 Y106.041 E0.02182
G1 X136.304 Y106.533 E0.02185
G1 X135.715 Y106.905 E0.02183
G1 X135.057 Y107.134 E0.02185
G1 X134.364 Y107.213 E0.02187
G1 X133.672 Y107.134 E0.02184
G1 X133.015 Y106.905 E0.02184
G1 X132.425 Y106.533 E0.02186
G1 X131.932 Y106.041 E0.02183
G1 X131.561 Y105.452 E0.02183
G1 X131.331 Y104.794 E0.02184
G1 X131.260 Y104.161 E0.01999
G1 X130.907 Y103.901 F10800.000
G1 F8640
G1 X131.331 Y103.409 E-0.17433
G1 X131.561 Y102.751 E-0.16087
G1 X131.932 Y102.162 E-0.16079
G1 X132.425 Y101.670 E-0.16077
G1 X132.803 Y101.432 E-0.10325
G1 E-0.04000 F2100.00000
G1 Z0.800 F10800.000
G1 X121.754 Y90.254
G1 Z0.200
G1 E0.80000 F2100.00000
G1 F1800
G1 X113.875 Y90.254 E0.24705
G1 X113.875 Y82.075 E0.25645
G1 X121.754 Y82.075 E0.24705
G1 X121.754 Y90.194 E0.25457
G1 X121.377 Y89.877 F10800.000
G1 F1800
G1 X114.252 Y89.877 E0.22340
G1 X114.252 Y82.452 E0.23281
G1 X121.377 Y82.452 E0.22340
G1 X121.377 Y89.817 E0.23092
G1 X121.478 Y90.264 F10800.000
G1 F8640
G1 X118.086 Y89.845 E-0.76000
G1 E-0.04000 F2100.00000
G1 Z0.800 F10800.000
G1 X116.514 Y52.600
G1 Z0.200
G1 E0.80000 F2100.00000
G1 F1800
G1 X116.226 Y52.622 E0.00905
G1 X115.940 Y52.600 E0.00902
G1 X115.658 Y52.532 E0.00907
G1 X115.393 Y52.422 E0.00900
G1 X115.145 Y52.272 E0.00909
G1 X114.925 Y52.083 E0.00910
G1 X114.739 Y51.865 E0.00898
G1 X114.588 Y51.619 E0.00904
G1 X114.477 Y51.352 E0.00906
G1 X114.410 Y51.071 E0.00908
G1 X114.388 Y50.783 E0.00905
G1 X114.410 Y50.496 E0.00902
G1 X114.477 Y50.215 E0.00907
G1 X114.588 Y49.949 E0.00904
G1 X114.739 Y49.702 E0.00907
G1 X114.926 Y49.483 E0.00904
G1 X115.145 Y49.296 E0.00904
G1 X115.392 Y49.145 E0.00907
G1 X115.660 Y49.033 E0.00911
G1 X115.952 Y48.966 E0.00938
G1 X116.226 Y48.944 E0.00864
G1 X116.514 Y48.966 E0.00905
G1 X116.796 Y49.034 E0.00908
G1 X117.063 Y49.145 E0.00906
G1 X117.308 Y49.296 E0.00904
G1 X117.526 Y49.482 E0.00898
G1 X117.715 Y49.702 E0.00910
G1 X117.866 Y49.950 E0.00908
G1 X117.975 Y50.215 E0.00900
G1 X118.043 Y50.495 E0.00903
G1 X118.066 Y50.783 E0.00907
G1 X118.043 Y51.072 E0.00910
G1 X117.975 Y51.352 E0.00903
G1 X117.865 Y51.618 E0.00902
G1 X117.715 Y51.865 E0.00906
G1 X117.527 Y52.084 E0.00904
G1 X117.308 Y52.271 E0.00904
G1 X117.061 Y52.422 E0.00906
G1 X116.796 Y52.532 E0.00902
G1 X116.572 Y52.586 E0.00720
G1 X116.484 Y52.219 F10800.000
G1 F1800
G1 X116.226 Y52.244 E0.00812
G1 X115.999 Y52.226 E0.00716
G1 X115.775 Y52.173 E0.00720
G1 X115.564 Y52.085 E0.00716
G1 X115.368 Y51.966 E0.00721
G1 X115.193 Y51.816 E0.00721
G1 X115.045 Y51.642 E0.00716
G1 X114.925 Y51.447 E0.00718
G1 X114.837 Y51.235 E0.00719
G1 X114.783 Y51.012 E0.00720
G1 X114.766 Y50.783 E0.00720
G1 X114.783 Y50.555 E0.00716
G1 X114.837 Y50.332 E0.00720
G1 X114.925 Y50.121 E0.00718
G1 X115.045 Y49.924 E0.00721
G1 X115.193 Y49.750 E0.00718
G1 X115.368 Y49.602 E0.00718
G1 X115.564 Y49.482 E0.00721
G1 X115.776 Y49.394 E0.00720
G1 X116.009 Y49.339 E0.00751
G1 X116.226 Y49.323 E0.00683
G1 X116.455 Y49.340 E0.00720
G1 X116.679 Y49.394 E0.00720
G1 X116.890 Y49.482 E0.00719
G1 X117.085 Y49.602 E0.00718
G1 X117.259 Y49.750 E0.00716
G1 X117.409 Y49.924 E0.00721
G1 X117.528 Y50.121 E0.00721
G1 X117.616 Y50.332 E0.00716
G1 X117.669 Y50.555 E0.00719
G1 X117.688 Y50.783 E0.00718
G1 X117.669 Y51.013 E0.00722
G1 X117.616 Y51.235 E0.00719
G1 X117.528 Y51.447 E0.00717
G1 X117.409 Y51.642 E0.00718
G1 X117.259 Y51.816 E0.00719
G1 X117.085 Y51.966 E0.00719
G1 X116.890 Y52.085 E0.00718
G1 X116.679 Y52.173 E0.00717
G1 X116.542 Y52.205 E0.00439
G1 X116.394 Y52.462 F10800.000
G1 F8640
G1 X116.226 Y52.244 E-0.07354
G1 X115.999 Y52.226 E-0.05276
G1 X115.775 Y52.173 E-0.05304
G1 X115.564 Y52.085 E-0.05275
G1 X115.368 Y51.966 E-0.05308
G1 X115.193 Y51.816 E-0.05311
G1 X115.045 Y51.642 E-0.05270
G1 X114.925 Y51.447 E-0.05291
G1 X114.837 Y51.235 E-0.05292
G1 X114.783 Y51.012 E-0.05305
G1 X114.766 Y50.783 E-0.05300
G1 X114.783 Y50.555 E-0.05276
G1 X114.837 Y50.332 E-0.05304
G1 X114.922 Y50.127 E-0.05134
G1 E-0.04000 F2100.00000
G1 Z0.800 F10800.000
G1 X116.226 Y32.868
G1 Z0.200
G1 E0.80000 F2100.00000
G1 F1800
G1 X115.940 Y32.846 E0.00902
G1 X115.658 Y32.778 E0.00908
G1 X115.392 Y32.668 E0.00904
G1 X115.145 Y32.517 E0.00907
G1 X114.926 Y32.330 E0.00904
G1 X114.739 Y32.110 E0.00904
G1 X114.588 Y31.864 E0.00907
G1 X114.477 Y31.597 E0.00904
G1 X114.410 Y31.316 E0.00907
G1 X114.388 Y31.029 E0.00902
G1 X114.410 Y30.741 E0.00905
G1 X114.477 Y30.460 E0.00908
G1 X114.588 Y30.193 E0.00906
G1 X114.739 Y29.948 E0.00904
G1 X114.925 Y29.730 E0.00898
G1 X115.145 Y29.540 E0.00910
G1 X115.393 Y29.390 E0.00909
G1 X115.658 Y29.280 E0.00900
G1 X115.938 Y29.213 E0.00903
G1 X116.214 Y29.190 E0.00869
G1 X116.513 Y29.212 E0.00940
G1 X116.796 Y29.280 E0.00910
G1 X117.061 Y29.390 E0.00902
G1 X117.308 Y29.541 E0.00906
G1 X117.527 Y29.729 E0.00904
G1 X117.715 Y29.948 E0.00904
G1 X117.865 Y30.194 E0.00906
G1 X117.975 Y30.460 E0.00902
G1 X118.043 Y30.740 E0.00903
G1 X118.066 Y31.029 E0.00910
G1 X118.043 Y31.317 E0.00907
G1 X117.975 Y31.597 E0.00903
G1 X117.866 Y31.862 E0.00900
G1 X117.715 Y32.110 E0.00909
G1 X117.526 Y32.330 E0.00910
G1 X117.308 Y32.516 E0.00898
G1 X117.063 Y32.668 E0.00904
G1 X116.796 Y32.778 E0.00906
G1 X116.514 Y32.846 E0.00908
G1 X116.286 Y32.863 E0.00717
G1 X116.257 Y32.487 F10800.000
G1 F1800
G1 X115.999 Y32.472 E0.00813
G1 X115.775 Y32.419 E0.00720
G1 X115.564 Y32.331 E0.00718
G1 X115.368 Y32.211 E0.00721
G1 X115.193 Y32.062 E0.00718
G1 X115.045 Y31.888 E0.00718
G1 X114.925 Y31.692 E0.00721
G1 X114.837 Y31.480 E0.00718
G1 X114.783 Y31.257 E0.00720
G1 X114.766 Y31.029 E0.00716
G1 X114.783 Y30.800 E0.00720
G1 X114.837 Y30.577 E0.00720
G1 X114.925 Y30.365 E0.00719
G1 X115.045 Y30.170 E0.00718
G1 X115.193 Y29.997 E0.00716
G1 X115.368 Y29.847 E0.00721
G1 X115.564 Y29.727 E0.00721
G1 X115.775 Y29.640 E0.00716
G1 X115.998 Y29.586 E0.00719
G1 X116.216 Y29.568 E0.00685
G1 X116.455 Y29.586 E0.00752
G1 X116.679 Y29.640 E0.00721
G1 X116.890 Y29.727 E0.00717
G1 X117.085 Y29.847 E0.00718
G1 X117.259 Y29.996 E0.00719
G1 X117.409 Y30.170 E0.00719
G1 X117.528 Y30.366 E0.00718
G1 X117.616 Y30.577 E0.00717
G1 X117.669 Y30.800 E0.00719
G1 X117.688 Y31.029 E0.00722
G1 X117.669 Y31.258 E0.00718
G1 X117.616 Y31.480 E0.00719
G1 X117.528 Y31.691 E0.00716
G1 X117.409 Y31.888 E0.00721
G1 X117.259 Y32.062 E0.00721
G1 X117.085 Y32.210 E0.00716
G1 X116.890 Y32.331 E0.00718
G1 X116.679 Y32.419 E0.00719
G1 X116.455 Y32.472 E0.00720
G1 X116.317 Y32.483 E0.00434
G1 X116.131 Y32.714 F10800.000
G1 F8640
G1 X115.999 Y32.472 E-0.07361
G1 X115.775 Y32.419 E-0.05304
G1 X115.564 Y32.331 E-0.05286
G1 X115.368 Y32.211 E-0.05311
G1 X115.193 Y32.062 E-0.05286
G1 X115.045 Y31.888 E-0.05286
G1 X114.925 Y31.692 E-0.05311
G1 X114.837 Y31.480 E-0.05286
G1 X114.783 Y31.257 E-0.05304
G1 X114.766 Y31.029 E-0.05276
G1 X114.783 Y30.800 E-0.05300
G1 X114.837 Y30.577 E-0.05305
G1 X114.925 Y30.365 E-0.05292
G1 X115.041 Y30.178 E-0.05093
G1 E-0.04000 F2100.00000
G1 Z0.800 F10800.000
G1 X122.175 Y26.674
G1 Z0.200
G1 E0.80000 F2100.00000
G1 F1800
G1 X129.954 Y26.674 E0.24391
G1 X129.954 Y82.854 E1.76149
G1 X122.175 Y82.854 E0.24391
G1 X122.175 Y26.734 E1.75961
G1 X122.552 Y27.051 F10800.000
G1 F1800
G1 X129.577 Y27.051 E0.22026
G1 X129.577 Y82.477 E1.73784
G1 X122.552 Y82.477 E0.22026
G1 X122.552 Y27.111 E1.73596
G1 X122.536 Y26.652 F10800.000
G1 F8640
G1 X125.844 Y27.083 E-0.76000
G1 E-0.04000 F2100.00000
G1 Z0.800 F10800.000
G1 X114.948 Y34.762
G1 Z0.200
G1 E0.80000 F2100.00000
G1 F1800
G1 X115.857 Y36.246 E0.05457
G1 X116.522 Y37.854 E0.05457
G1 X116.929 Y39.546 E0.05455
G1 X117.066 Y41.281 E0.05458
G1 X116.929 Y43.017 E0.05458
G1 X116.522 Y44.708 E0.05455
G1 X115.857 Y46.316 E0.05457
G1 X114.948 Y47.800 E0.05457
G1 X113.817 Y49.124 E0.05458
G1 X112.494 Y50.255 E0.05458
G1 X111.010 Y51.164 E0.05457
G1 X109.401 Y51.829 E0.05457
G1 X107.710 Y52.236 E0.05455
G1 X105.974 Y52.373 E0.05458
G1 X104.239 Y52.236 E0.05458
G1 X102.547 Y51.829 E0.05455
G1 X100.939 Y51.164 E0.05457
G1 X99.455 Y50.255 E0.05457
G1 X98.132 Y49.124 E0.05458
G1 X97.001 Y47.800 E0.05458
G1 X96.092 Y46.316 E0.05457
G1 X95.426 Y44.708 E0.05457
G1 X95.020 Y43.017 E0.05455
G1 X94.882 Y41.281 E0.05458
G1 X95.020 Y39.546 E0.05458
G1 X95.426 Y37.854 E0.05455
G1 X96.092 Y36.246 E0.05457
G1 X97.001 Y34.762 E0.05457
G1 X98.132 Y33.439 E0.05458
G1 X99.455 Y32.308 E0.05458
G1 X100.939 Y31.398 E0.05457
G1 X102.549 Y30.732 E0.05464
G1 X104.324 Y30.320 E0.05711
G1 X105.974 Y30.190 E0.05192
G1 X107.709 Y30.327 E0.05457
G1 X109.401 Y30.733 E0.05455
G1 X111.010 Y31.398 E0.05457
G1 X112.494 Y32.308 E0.05457
G1 X113.817 Y33.439 E0.05458
G1 X114.909 Y34.716 E0.05270
G1 X114.622 Y34.961 F10800.000
G1 F1800
G1 X115.520 Y36.418 E0.05364
G1 X116.163 Y37.971 E0.05271
G1 X116.555 Y39.605 E0.05269
G1 X116.688 Y41.281 E0.05271
G1 X116.555 Y42.957 E0.05271
G1 X116.163 Y44.591 E0.05269
G1 X115.520 Y46.145 E0.05271
G1 X114.642 Y47.578 E0.05271
G1 X113.549 Y48.856 E0.05272
G1 X112.271 Y49.949 E0.05272
G1 X110.838 Y50.827 E0.05271
G1 X109.284 Y51.470 E0.05271
G1 X107.650 Y51.862 E0.05269
G1 X105.974 Y51.995 E0.05271
G1 X104.298 Y51.862 E0.05271
G1 X102.664 Y51.470 E0.05269
G1 X101.111 Y50.827 E0.05271
G1 X99.678 Y49.949 E0.05271
G1 X98.399 Y48.856 E0.05272
G1 X97.307 Y47.578 E0.05272
G1 X96.429 Y46.145 E0.05271
G1 X95.786 Y44.591 E0.05271
G1 X95.393 Y42.957 E0.05269
G1 X95.261 Y41.281 E0.05271
G1 X95.393 Y39.605 E0.05271
G1 X95.786 Y37.971 E0.05269
G1 X96.429 Y36.418 E0.05271
G1 X97.307 Y34.984 E0.05271
G1 X98.399 Y33.706 E0.05272
G1 X99.678 Y32.614 E0.05272
G1 X101.111 Y31.735 E0.05271
G1 X102.665 Y31.093 E0.05274
G1 X104.381 Y30.694 E0.05525
G1 X105.974 Y30.569 E0.05010
G1 X107.650 Y30.700 E0.05271
G1 X109.284 Y31.093 E0.05270
G1 X110.838 Y31.735 E0.05271
G1 X112.271 Y32.614 E0.05271
G1 X113.549 Y33.706 E0.05272
G1 X114.583 Y34.916 E0.04989
G1 X115.020 Y34.919 F10800.000
G1 F8640
G1 X115.520 Y36.418 E-0.40874
G1 X116.102 Y37.823 E-0.35126
G1 E-0.04000 F2100.00000
G1 Z0.800 F10800.000
G1 X98.039 Y31.316
G1 Z0.200
G1 E0.80000 F2100.00000
G1 F1800
G1 X97.971 Y31.597 E0.00907
G1 X97.861 Y31.864 E0.00904
G1 X97.710 Y32.110 E0.00907
G1 X97.523 Y32.330 E0.00904
G1 X97.303 Y32.517 E0.00904
G1 X97.057 Y32.668 E0.00907
G1 X96.791 Y32.778 E0.00904
G1 X96.509 Y32.846 E0.00907
G1 X96.222 Y32.868 E0.00902
G1 X95.935 Y32.846 E0.00905
G1 X95.653 Y32.778 E0.00908
G1 X95.386 Y32.668 E0.00906
G1 X95.141 Y32.516 E0.00904
