; generated by Slic3r Prusa Edition 1.41.0+win64 on 2018-11-02 at 18:50:54

; 

; external perimeters extrusion width = 0.45mm
; perimeters extrusion width = 0.45mm
; infill extrusion width = 0.45mm
; solid infill extrusion width = 0.45mm
; top infill extrusion width = 0.40mm
; first layer extrusion width = 0.42mm

M201 X1000 Y1000 Z1000 E5000 ; sets maximum accelerations, mm/sec^2
M203 X200 Y200 Z12 E120 ; sets maximum feedrates, mm/sec
M204 P1250 R1250 T1250 ; sets acceleration (P, T) and retract acceleration (R), mm/sec^2
M205 X8.00 Y8.00 Z0.40 E1.50 ; sets the jerk limits, mm/sec
M205 S0 T0 ; sets the minimum extruding and travel feed rate, mm/sec
M107
M115 U3.4.1 ; tell printer latest fw version
M83  ; extruder relative mode
M104 S230 ; set extruder temp
M140 S85 ; set bed temp
M190 S85 ; wait for bed temp
M109 S230 ; wait for extruder temp
G28 W ; home all without mesh bed level
G80 ; mesh bed leveling
G1 Y-3.0 F1000.0 ; go outside print area
G92 E0.0
G1 X60.0 E9.0  F1000.0 ; intro line
M73 Q0 S182
M73 P0 R181
G1 X100.0 E12.5  F1000.0 ; intro line
G92 E0.0
M221 S95
M900 K45; Filament gcode
G21 ; set units to millimeters
G90 ; use absolute coordinates
M83 ; use relative distances for extrusion
;BEFORE_LAYER_CHANGE
G92 E0.0
;0.2


G1 E-0.80000 F2100.00000
G1 Z0.600 F10800.000
;AFTER_LAYER_CHANGE
;0.2
G1 X52.109 Y6.857
G1 Z0.200
G1 E0.80000 F2100.00000
M204 S1000
G1 F1800
G1 X52.975 Y6.266 E0.03286
G1 X53.952 Y5.888 E0.03286
G1 X54.990 Y5.742 E0.03286
G1 X130.106 Y5.741 E2.35520
G1 X131.059 Y5.843 E0.03007
G1 X158.449 Y11.832 E0.87907
G1 X159.492 Y12.285 E0.03566
G1 X160.395 Y12.985 E0.03582
G1 X161.096 Y13.887 E0.03582
G1 X161.549 Y14.930 E0.03566
G1 X161.734 Y16.206 E0.04042
G1 X161.741 Y108.022 E2.87882
G1 X161.681 Y108.726 E0.02216
G1 X161.514 Y109.412 E0.02216
G1 X161.242 Y110.065 E0.02216
G1 X160.873 Y110.667 E0.02216
G1 X160.248 Y111.367 E0.02941
G1 X159.493 Y111.923 E0.02941
G1 X158.640 Y112.314 E0.02941
G1 X157.726 Y112.522 E0.02941
G1 X129.876 Y114.443 E0.87529
G1 X54.699 Y114.445 E2.35712
G1 X54.001 Y114.383 E0.02199
G1 X53.320 Y114.215 E0.02199
G1 X52.672 Y113.944 E0.02199
G1 X52.074 Y113.578 E0.02199
G1 X51.291 Y112.857 E0.03336
G1 X50.694 Y111.971 E0.03352
G1 X50.318 Y110.970 E0.03352
G1 X50.186 Y109.909 E0.03352
G1 X50.186 Y63.748 E1.44734
G1 X50.535 Y10.250 E1.67743
G1 X50.597 Y9.557 E0.02183
G1 X50.765 Y8.876 E0.02199
G1 X51.035 Y8.229 E0.02199
G1 X51.401 Y7.630 E0.02199
G1 X52.069 Y6.902 E0.03098
G1 F8640
G1 X52.975 Y6.266 E-0.25554
G1 X53.952 Y5.888 E-0.24203
G1 X54.990 Y5.742 E-0.24203
G1 X55.078 Y5.742 E-0.02041
G1 E-0.04000 F2100.00000
G1 Z0.800 F10800.000
G1 X51.124 Y8.992
G1 Z0.200
G1 E0.80000 F2100.00000
G1 F1800
G1 X51.712 Y7.845 E0.04042
G1 X52.364 Y7.135 E0.03021
G1 X53.156 Y6.596 E0.03006
G1 X54.051 Y6.251 E0.03006
G1 X55.005 Y6.119 E0.03021
G1 X130.106 Y6.118 E2.35472
G1 X130.979 Y6.211 E0.02753
G1 X158.326 Y12.189 E0.87771
G1 X159.290 Y12.603 E0.03289
G1 X160.124 Y13.247 E0.03305
G1 X160.769 Y14.075 E0.03289
G1 X161.189 Y15.041 E0.03305
G1 X161.357 Y16.209 E0.03697
G1 X161.364 Y108.015 E2.87853
G1 X161.309 Y108.665 E0.02043
G1 X161.156 Y109.293 E0.02027
G1 X160.906 Y109.894 E0.02043
G1 X160.565 Y110.450 E0.02043
G1 X159.989 Y111.092 E0.02706
G1 X159.294 Y111.603 E0.02706
G1 X158.508 Y111.961 E0.02706
G1 X157.666 Y112.150 E0.02706
G1 X129.863 Y114.067 E0.87380
G1 X54.712 Y114.068 E2.35633
G1 X53.440 Y113.857 E0.04042
G1 X52.292 Y113.270 E0.04042
G1 X51.573 Y112.606 E0.03069
G1 X51.027 Y111.794 E0.03069
G1 X50.684 Y110.877 E0.03069
G1 X50.563 Y109.901 E0.03084
G1 X50.563 Y63.749 E1.44707
G1 X50.912 Y10.259 E1.67718
G1 X51.114 Y9.051 E0.03839
; PURGING FINISHED
G1 F8640
G1 X51.712 Y7.845 E-0.31092
G1 X52.364 Y7.135 E-0.22250
G1 X53.156 Y6.596 E-0.22134
G1 X53.178 Y6.588 E-0.00525
G1 E-0.04000 F2100.00000
G1 Z0.800 F10800.000
G1 X55.688 Y10.893
G1 Z0.200
G1 E0.80000 F2100.00000
G1 F1800
G1 X129.513 Y10.893 E2.31476
G1 X129.513 Y55.835 E1.40910
G1 X55.688 Y55.835 E2.31476
G1 X55.688 Y10.953 E1.40722
G1 X55.311 Y10.516 F10800.000
G1 F1800
G1 X129.891 Y10.516 E2.33840
G1 X129.891 Y56.212 E1.43275
G1 X55.311 Y56.212 E2.33840
G1 X55.311 Y10.576 E1.43087
G1 X55.704 Y10.589 F10800.000
G1 F8640
G1 X58.602 Y10.574 E-0.76000
G1 E-0.04000 F2100.00000
G1 Z0.800 F10800.000
G1 X56.563 Y55.722
G1 Z0.200
G1 E0.80000 F2100.00000
G1 F1800
G1 X55.970 Y55.129 E0.02628
G1 X55.970 Y54.596 E0.01672
G1 X56.927 Y55.552 E0.04240
G1 X57.460 Y55.552 E0.01672
G1 X55.970 Y54.063 E0.06605
G1 X55.970 Y53.529 E0.01672
G1 X57.993 Y55.552 E0.08969
G1 X58.526 Y55.552 E0.01672
G1 X55.970 Y52.996 E0.11334
G1 X55.970 Y52.463 E0.01672
G1 X59.060 Y55.552 E0.13699
G1 X59.593 Y55.552 E0.01672
G1 X55.970 Y51.929 E0.16064
G1 X55.970 Y51.396 E0.01672
G1 X60.126 Y55.552 E0.18429
G1 X60.660 Y55.552 E0.01672
G1 X55.970 Y50.863 E0.20793
G1 X55.970 Y50.329 E0.01672
G1 X61.193 Y55.552 E0.23158
G1 X61.726 Y55.552 E0.01672
G1 X55.970 Y49.796 E0.25523
G1 X55.970 Y49.263 E0.01672
G1 X62.259 Y55.552 E0.27888
G1 X62.793 Y55.552 E0.01672
G1 X55.970 Y48.730 E0.30252
G1 X55.970 Y48.196 E0.01672
G1 X63.326 Y55.552 E0.32617
G1 X63.859 Y55.552 E0.01672
G1 X55.970 Y47.663 E0.34982
G1 X55.970 Y47.130 E0.01672
G1 X64.393 Y55.552 E0.37347
G1 X64.926 Y55.552 E0.01672
G1 X55.970 Y46.596 E0.39711
G1 X55.970 Y46.063 E0.01672
G1 X65.459 Y55.552 E0.42076
G1 X65.992 Y55.552 E0.01672
G1 X55.970 Y45.530 E0.44441
G1 X55.970 Y44.997 E0.01672
G1 X66.526 Y55.552 E0.46806
G1 X67.059 Y55.552 E0.01672
G1 X55.970 Y44.463 E0.49171
G1 X55.970 Y43.930 E0.01672
G1 X67.592 Y55.552 E0.51535
G1 X68.126 Y55.552 E0.01672
G1 X55.970 Y43.397 E0.53900
G1 X55.970 Y42.863 E0.01672
G1 X68.659 Y55.552 E0.56265
G1 X69.192 Y55.552 E0.01672
G1 X55.970 Y42.330 E0.58630
G1 X55.970 Y41.797 E0.01672
G1 X69.725 Y55.552 E0.60994
G1 X70.259 Y55.552 E0.01672
G1 X55.970 Y41.264 E0.63359
G1 X55.970 Y40.730 E0.01672
G1 X70.792 Y55.552 E0.65724
M73 Q0 S181
M73 P0 R180
G1 X71.325 Y55.552 E0.01672
G1 X55.970 Y40.197 E0.68089
G1 X55.970 Y39.664 E0.01672
G1 X71.859 Y55.552 E0.70453
G1 X72.392 Y55.552 E0.01672
G1 X55.970 Y39.130 E0.72818
G1 X55.970 Y38.597 E0.01672
G1 X72.925 Y55.552 E0.75183
G1 X73.459 Y55.552 E0.01672
G1 X55.970 Y38.064 E0.77548
G1 X55.970 Y37.531 E0.01672
G1 X73.992 Y55.552 E0.79912
G1 X74.525 Y55.552 E0.01672
G1 X55.970 Y36.997 E0.82277
G1 X55.970 Y36.464 E0.01672
G1 X75.058 Y55.552 E0.84642
G1 X75.592 Y55.552 E0.01672
G1 X55.970 Y35.931 E0.87007
G1 X55.970 Y35.397 E0.01672
G1 X76.125 Y55.552 E0.89372
G1 X76.658 Y55.552 E0.01672
G1 X55.970 Y34.864 E0.91736
G1 X55.970 Y34.331 E0.01672
G1 X77.192 Y55.552 E0.94101
G1 X77.725 Y55.552 E0.01672
G1 X55.970 Y33.798 E0.96466
G1 X55.970 Y33.264 E0.01672
G1 X78.258 Y55.552 E0.98831
G1 X78.791 Y55.552 E0.01672
G1 X55.970 Y32.731 E1.01195
G1 X55.970 Y32.198 E0.01672
G1 X79.325 Y55.552 E1.03560
G1 X79.858 Y55.552 E0.01672
G1 X55.970 Y31.664 E1.05925
G1 X55.970 Y31.131 E0.01672
G1 X80.391 Y55.552 E1.08290
G1 X80.925 Y55.552 E0.01672
G1 X55.970 Y30.598 E1.10654
G1 X55.970 Y30.065 E0.01672
G1 X81.458 Y55.552 E1.13019
G1 X81.991 Y55.552 E0.01672
G1 X55.970 Y29.531 E1.15384
G1 X55.970 Y28.998 E0.01672
G1 X82.524 Y55.552 E1.17749
G1 X83.058 Y55.552 E0.01672
G1 X55.970 Y28.465 E1.20114
G1 X55.970 Y27.931 E0.01672
G1 X83.591 Y55.552 E1.22478
G1 X84.124 Y55.552 E0.01672
G1 X55.970 Y27.398 E1.24843
G1 X55.970 Y26.865 E0.01672
G1 X84.658 Y55.552 E1.27208
G1 X85.191 Y55.552 E0.01672
G1 X55.970 Y26.332 E1.29573
G1 X55.970 Y25.798 E0.01672
G1 X85.724 Y55.552 E1.31937
G1 X86.257 Y55.552 E0.01672
G1 X55.970 Y25.265 E1.34302
G1 X55.970 Y24.732 E0.01672
G1 X86.791 Y55.552 E1.36667
G1 X87.324 Y55.552 E0.01672
G1 X55.970 Y24.198 E1.39032
G1 X55.970 Y23.665 E0.01672
G1 X87.857 Y55.552 E1.41396
G1 X88.391 Y55.552 E0.01672
G1 X55.970 Y23.132 E1.43761
G1 X55.970 Y22.598 E0.01672
G1 X88.924 Y55.552 E1.46126
G1 X89.457 Y55.552 E0.01672
G1 X55.970 Y22.065 E1.48491
G1 X55.970 Y21.532 E0.01672
G1 X89.990 Y55.552 E1.50856
G1 X90.524 Y55.552 E0.01672
G1 X55.970 Y20.999 E1.53220
G1 X55.970 Y20.465 E0.01672
G1 X91.057 Y55.552 E1.55585
G1 X91.590 Y55.552 E0.01672
G1 X55.970 Y19.932 E1.57950
G1 X55.970 Y19.399 E0.01672
G1 X92.124 Y55.552 E1.60315
G1 X92.657 Y55.552 E0.01672
G1 X55.970 Y18.865 E1.62679
G1 X55.970 Y18.332 E0.01672
G1 X93.190 Y55.552 E1.65044
G1 X93.723 Y55.552 E0.01672
G1 X55.970 Y17.799 E1.67409
G1 X55.970 Y17.266 E0.01672
G1 X94.257 Y55.552 E1.69774
G1 X94.790 Y55.552 E0.01672
G1 X55.970 Y16.732 E1.72138
G1 X55.970 Y16.199 E0.01672
G1 X95.323 Y55.552 E1.74503
M73 Q1 S180
M73 P1 R179
G1 X95.857 Y55.552 E0.01672
G1 X55.970 Y15.666 E1.76868
G1 X55.970 Y15.132 E0.01672
G1 X96.390 Y55.552 E1.79233
G1 X96.923 Y55.552 E0.01672
G1 X55.970 Y14.599 E1.81598
G1 X55.970 Y14.066 E0.01672
G1 X97.457 Y55.552 E1.83962
G1 X97.990 Y55.552 E0.01672
G1 X55.970 Y13.533 E1.86327
G1 X55.970 Y12.999 E0.01672
G1 X98.523 Y55.552 E1.88692
G1 X99.056 Y55.552 E0.01672
G1 X55.970 Y12.466 E1.91057
G1 X55.970 Y11.933 E0.01672
G1 X99.590 Y55.552 E1.93421
G1 X100.123 Y55.552 E0.01672
G1 X55.970 Y11.399 E1.95786
G1 X55.970 Y11.176 E0.00700
G1 X56.280 Y11.176 E0.00972
G1 X100.656 Y55.552 E1.96776
G1 X101.190 Y55.552 E0.01672
G1 X56.814 Y11.176 E1.96776
G1 X57.347 Y11.176 E0.01672
G1 X101.723 Y55.552 E1.96776
G1 X102.256 Y55.552 E0.01672
G1 X57.880 Y11.176 E1.96776
G1 X58.414 Y11.176 E0.01672
G1 X102.789 Y55.552 E1.96776
G1 X103.323 Y55.552 E0.01672
G1 X58.947 Y11.176 E1.96776
G1 X59.480 Y11.176 E0.01672
G1 X103.856 Y55.552 E1.96776
G1 X104.389 Y55.552 E0.01672
G1 X60.014 Y11.176 E1.96776
G1 X60.547 Y11.176 E0.01672
G1 X104.923 Y55.552 E1.96776
G1 X105.456 Y55.552 E0.01672
G1 X61.080 Y11.176 E1.96776
G1 X61.613 Y11.176 E0.01672
G1 X105.989 Y55.552 E1.96776
G1 X106.522 Y55.552 E0.01672
G1 X62.147 Y11.176 E1.96776
G1 X62.680 Y11.176 E0.01672
G1 X107.056 Y55.552 E1.96776
G1 X107.589 Y55.552 E0.01672
G1 X63.213 Y11.176 E1.96776
G1 X63.747 Y11.176 E0.01672
G1 X108.122 Y55.552 E1.96776
G1 X108.656 Y55.552 E0.01672
G1 X64.280 Y11.176 E1.96776
G1 X64.813 Y11.176 E0.01672
G1 X109.189 Y55.552 E1.96776
G1 X109.722 Y55.552 E0.01672
G1 X65.346 Y11.176 E1.96776
G1 X65.880 Y11.176 E0.01672
G1 X110.255 Y55.552 E1.96776
G1 X110.789 Y55.552 E0.01672
G1 X66.413 Y11.176 E1.96776
M73 Q1 S179
M73 P1 R178
G1 X66.946 Y11.176 E0.01672
G1 X111.322 Y55.552 E1.96776
G1 X111.855 Y55.552 E0.01672
G1 X67.480 Y11.176 E1.96776
G1 X68.013 Y11.176 E0.01672
G1 X112.389 Y55.552 E1.96776
G1 X112.922 Y55.552 E0.01672
G1 X68.546 Y11.176 E1.96776
G1 X69.079 Y11.176 E0.01672
G1 X113.455 Y55.552 E1.96776
G1 X113.988 Y55.552 E0.01672
G1 X69.613 Y11.176 E1.96776
G1 X70.146 Y11.176 E0.01672
G1 X114.522 Y55.552 E1.96776
G1 X115.055 Y55.552 E0.01672
G1 X70.679 Y11.176 E1.96776
G1 X71.213 Y11.176 E0.01672
G1 X115.588 Y55.552 E1.96776
G1 X116.122 Y55.552 E0.01672
G1 X71.746 Y11.176 E1.96776
G1 X72.279 Y11.176 E0.01672
G1 X116.655 Y55.552 E1.96776
G1 X117.188 Y55.552 E0.01672
G1 X72.812 Y11.176 E1.96776
G1 X73.346 Y11.176 E0.01672
G1 X117.721 Y55.552 E1.96776
G1 X118.255 Y55.552 E0.01672
G1 X73.879 Y11.176 E1.96776
G1 X74.412 Y11.176 E0.01672
G1 X118.788 Y55.552 E1.96776
G1 X119.321 Y55.552 E0.01672
G1 X74.946 Y11.176 E1.96776
G1 X75.479 Y11.176 E0.01672
G1 X119.855 Y55.552 E1.96776
G1 X120.388 Y55.552 E0.01672
G1 X76.012 Y11.176 E1.96776
G1 X76.545 Y11.176 E0.01672
G1 X120.921 Y55.552 E1.96776
G1 X121.454 Y55.552 E0.01672
G1 X77.079 Y11.176 E1.96776
G1 X77.612 Y11.176 E0.01672
G1 X121.988 Y55.552 E1.96776
G1 X122.521 Y55.552 E0.01672
G1 X78.145 Y11.176 E1.96776
G1 X78.679 Y11.176 E0.01672
G1 X123.054 Y55.552 E1.96776
G1 X123.588 Y55.552 E0.01672
G1 X79.212 Y11.176 E1.96776
G1 X79.745 Y11.176 E0.01672
G1 X124.121 Y55.552 E1.96776
G1 X124.654 Y55.552 E0.01672
G1 X80.278 Y11.176 E1.96776
G1 X80.812 Y11.176 E0.01672
G1 X125.188 Y55.552 E1.96776
G1 X125.721 Y55.552 E0.01672
G1 X81.345 Y11.176 E1.96776
G1 X81.878 Y11.176 E0.01672
G1 X126.254 Y55.552 E1.96776
M73 Q2 S178
M73 P2 R177
G1 X126.787 Y55.552 E0.01672
G1 X82.412 Y11.176 E1.96776
G1 X82.945 Y11.176 E0.01672
G1 X127.321 Y55.552 E1.96776
G1 X127.854 Y55.552 E0.01672
G1 X83.478 Y11.176 E1.96776
G1 X84.012 Y11.176 E0.01672
G1 X128.387 Y55.552 E1.96776
G1 X128.921 Y55.552 E0.01672
G1 X84.545 Y11.176 E1.96776
G1 X85.078 Y11.176 E0.01672
G1 X129.231 Y55.329 E1.95786
G1 X129.231 Y54.796 E0.01672
G1 X85.611 Y11.176 E1.93422
G1 X86.145 Y11.176 E0.01672
G1 X129.231 Y54.262 E1.91057
G1 X129.231 Y53.729 E0.01672
G1 X86.678 Y11.176 E1.88692
G1 X87.211 Y11.176 E0.01672
G1 X129.231 Y53.196 E1.86327
G1 X129.231 Y52.662 E0.01672
G1 X87.745 Y11.176 E1.83963
G1 X88.278 Y11.176 E0.01672
G1 X129.231 Y52.129 E1.81598
G1 X129.231 Y51.596 E0.01672
G1 X88.811 Y11.176 E1.79233
G1 X89.344 Y11.176 E0.01672
G1 X129.231 Y51.063 E1.76868
G1 X129.231 Y50.529 E0.01672
G1 X89.878 Y11.176 E1.74504
G1 X90.411 Y11.176 E0.01672
G1 X129.231 Y49.996 E1.72139
G1 X129.231 Y49.463 E0.01672
G1 X90.944 Y11.176 E1.69774
G1 X91.478 Y11.176 E0.01672
G1 X129.231 Y48.929 E1.67409
G1 X129.231 Y48.396 E0.01672
G1 X92.011 Y11.176 E1.65044
G1 X92.544 Y11.176 E0.01672
G1 X129.231 Y47.863 E1.62680
G1 X129.231 Y47.329 E0.01672
G1 X93.077 Y11.176 E1.60315
G1 X93.611 Y11.176 E0.01672
G1 X129.231 Y46.796 E1.57950
G1 X129.231 Y46.263 E0.01672
G1 X94.144 Y11.176 E1.55585
G1 X94.677 Y11.176 E0.01672
G1 X129.231 Y45.730 E1.53221
G1 X129.231 Y45.196 E0.01672
G1 X95.211 Y11.176 E1.50856
G1 X95.744 Y11.176 E0.01672
G1 X129.231 Y44.663 E1.48491
G1 X129.231 Y44.130 E0.01672
G1 X96.277 Y11.176 E1.46126
G1 X96.810 Y11.176 E0.01672
G1 X129.231 Y43.596 E1.43762
G1 X129.231 Y43.063 E0.01672
G1 X97.344 Y11.176 E1.41397
G1 X97.877 Y11.176 E0.01672
G1 X129.231 Y42.530 E1.39032
G1 X129.231 Y41.997 E0.01672
G1 X98.410 Y11.176 E1.36667
G1 X98.944 Y11.176 E0.01672
G1 X129.231 Y41.463 E1.34302
G1 X129.231 Y40.930 E0.01672
G1 X99.477 Y11.176 E1.31938
M73 Q2 S177
M73 P2 R176
G1 X100.010 Y11.176 E0.01672
G1 X129.231 Y40.397 E1.29573
G1 X129.231 Y39.863 E0.01672
G1 X100.543 Y11.176 E1.27208
G1 X101.077 Y11.176 E0.01672
G1 X129.231 Y39.330 E1.24843
G1 X129.231 Y38.797 E0.01672
G1 X101.610 Y11.176 E1.22479
G1 X102.143 Y11.176 E0.01672
G1 X129.231 Y38.264 E1.20114
G1 X129.231 Y37.730 E0.01672
G1 X102.677 Y11.176 E1.17749
G1 X103.210 Y11.176 E0.01672
G1 X129.231 Y37.197 E1.15384
G1 X129.231 Y36.664 E0.01672
G1 X103.743 Y11.176 E1.13020
G1 X104.276 Y11.176 E0.01672
G1 X129.231 Y36.130 E1.10655
G1 X129.231 Y35.597 E0.01672
G1 X104.810 Y11.176 E1.08290
G1 X105.343 Y11.176 E0.01672
G1 X129.231 Y35.064 E1.05925
G1 X129.231 Y34.531 E0.01672
G1 X105.876 Y11.176 E1.03560
G1 X106.410 Y11.176 E0.01672
G1 X129.231 Y33.997 E1.01196
G1 X129.231 Y33.464 E0.01672
G1 X106.943 Y11.176 E0.98831
G1 X107.476 Y11.176 E0.01672
G1 X129.231 Y32.931 E0.96466
G1 X129.231 Y32.397 E0.01672
G1 X108.009 Y11.176 E0.94101
G1 X108.543 Y11.176 E0.01672
G1 X129.231 Y31.864 E0.91737
G1 X129.231 Y31.331 E0.01672
G1 X109.076 Y11.176 E0.89372
G1 X109.609 Y11.176 E0.01672
G1 X129.231 Y30.798 E0.87007
G1 X129.231 Y30.264 E0.01672
G1 X110.143 Y11.176 E0.84642
G1 X110.676 Y11.176 E0.01672
G1 X129.231 Y29.731 E0.82278
G1 X129.231 Y29.198 E0.01672
G1 X111.209 Y11.176 E0.79913
G1 X111.743 Y11.176 E0.01672
G1 X129.231 Y28.664 E0.77548
G1 X129.231 Y28.131 E0.01672
G1 X112.276 Y11.176 E0.75183
G1 X112.809 Y11.176 E0.01672
G1 X129.231 Y27.598 E0.72818
G1 X129.231 Y27.065 E0.01672
G1 X113.342 Y11.176 E0.70454
G1 X113.876 Y11.176 E0.01672
G1 X129.231 Y26.531 E0.68089
G1 X129.231 Y25.998 E0.01672
G1 X114.409 Y11.176 E0.65724
G1 X114.942 Y11.176 E0.01672
G1 X129.231 Y25.465 E0.63359
G1 X129.231 Y24.931 E0.01672
G1 X115.476 Y11.176 E0.60995
G1 X116.009 Y11.176 E0.01672
G1 X129.231 Y24.398 E0.58630
G1 X129.231 Y23.865 E0.01672
G1 X116.542 Y11.176 E0.56265
G1 X117.075 Y11.176 E0.01672
G1 X129.231 Y23.331 E0.53900
G1 X129.231 Y22.798 E0.01672
G1 X117.609 Y11.176 E0.51536
G1 X118.142 Y11.176 E0.01672
G1 X129.231 Y22.265 E0.49171
G1 X129.231 Y21.732 E0.01672
G1 X118.675 Y11.176 E0.46806
G1 X119.209 Y11.176 E0.01672
G1 X129.231 Y21.198 E0.44441
G1 X129.231 Y20.665 E0.01672
G1 X119.742 Y11.176 E0.42076
