; generated by Slic3r Prusa Edition 1.41.0+win64 on 2018-11-02 at 18:43:43

; 

; external perimeters extrusion width = 0.45mm
; perimeters extrusion width = 0.45mm
; infill extrusion width = 0.45mm
; solid infill extrusion width = 0.45mm
; top infill extrusion width = 0.40mm
; first layer extrusion width = 0.42mm

M201 X1000 Y1000 Z1000 E5000 ; sets maximum accelerations, mm/sec^2
M203 X200 Y200 Z12 E120 ; sets maximum feedrates, mm/sec
M204 P1250 R1250 T1250 ; sets acceleration (P, T) and retract acceleration (R), mm/sec^2
M205 X8.00 Y8.00 Z0.40 E1.50 ; sets the jerk limits, mm/sec
M205 S0 T0 ; sets the minimum extruding and travel feed rate, mm/sec
M107
M115 U3.4.1 ; tell printer latest fw version
M83  ; extruder relative mode
M104 S230 ; set extruder temp
M140 S85 ; set bed temp
M190 S85 ; wait for bed temp
M109 S230 ; wait for extruder temp
G28 W ; home all without mesh bed level
G80 ; mesh bed leveling
G1 Y-3.0 F1000.0 ; go outside print area
G92 E0.0
G1 X60.0 E9.0  F1000.0 ; intro line
M73 Q0 S333
M73 P0 R330
G1 X100.0 E12.5  F1000.0 ; intro line
G92 E0.0
M221 S95
M900 K45; Filament gcode
G21 ; set units to millimeters
G90 ; use absolute coordinates
M83 ; use relative distances for extrusion
;BEFORE_LAYER_CHANGE
G92 E0.0
;0.2


G1 E-0.80000 F2100.00000
G1 Z0.600 F10800.000
;AFTER_LAYER_CHANGE
;0.2
G1 X18.565 Y10.227
G1 Z0.200
G1 E0.80000 F2100.00000
M204 S1000
G1 F1800
G1 X19.466 Y9.268 E0.04123
G1 X20.602 Y8.606 E0.04123
G1 X21.420 Y8.362 E0.02677
G1 X22.269 Y8.275 E0.02677
G1 X123.849 Y7.728 E3.18501
G1 X223.874 Y7.728 E3.13620
G1 X224.729 Y7.810 E0.02694
G1 X225.559 Y8.053 E0.02710
G1 X226.328 Y8.447 E0.02710
G1 X227.009 Y8.980 E0.02710
G1 X227.574 Y9.627 E0.02694
G1 X228.011 Y10.373 E0.02710
G1 X228.298 Y11.188 E0.02710
G1 X228.427 Y12.043 E0.02710
G1 X228.434 Y88.415 E2.39458
G1 X228.356 Y89.249 E0.02628
G1 X228.121 Y90.070 E0.02677
G1 X227.741 Y90.829 E0.02661
G1 X202.629 Y130.386 E1.46910
G1 X202.206 Y130.939 E0.02183
G1 X201.704 Y131.421 E0.02183
G1 X201.135 Y131.822 E0.02183
G1 X200.506 Y132.133 E0.02199
G1 X199.683 Y132.378 E0.02694
G1 X198.833 Y132.464 E0.02677
G1 X121.312 Y132.698 E2.43063
G1 X46.729 Y132.698 E2.33850
G1 X45.724 Y132.584 E0.03171
G1 X44.898 Y132.312 E0.02727
G1 X44.139 Y131.888 E0.02727
G1 X43.470 Y131.324 E0.02743
G1 X42.924 Y130.647 E0.02727
G1 X18.432 Y91.367 E1.45139
G1 X18.074 Y90.661 E0.02480
G1 X17.830 Y89.838 E0.02694
G1 X17.744 Y88.978 E0.02710
G1 X17.746 Y12.698 E2.39170
G1 X17.976 Y11.403 E0.04123
G1 X18.539 Y10.281 E0.03935
G1 X18.872 Y10.447 F10800.000
G1 F1800
G1 X19.704 Y9.561 E0.03811
G1 X20.749 Y8.953 E0.03791
G1 X21.494 Y8.732 E0.02438
G1 X22.273 Y8.652 E0.02454
G1 X123.851 Y8.105 E3.18497
G1 X223.874 Y8.105 E3.13614
G1 X224.663 Y8.181 E0.02485
G1 X225.423 Y8.405 E0.02485
G1 X226.132 Y8.770 E0.02501
G1 X226.756 Y9.259 E0.02485
G1 X227.276 Y9.858 E0.02485
G1 X227.674 Y10.543 E0.02485
G1 X227.935 Y11.291 E0.02485
G1 X228.052 Y12.080 E0.02501
G1 X228.057 Y88.414 E2.39340
G1 X227.983 Y89.194 E0.02454
G1 X227.767 Y89.941 E0.02438
G1 X227.417 Y90.635 E0.02438
G1 X202.314 Y130.178 E1.46857
G1 X201.462 Y131.132 E0.04011
G1 X200.358 Y131.787 E0.04027
G1 X199.607 Y132.009 E0.02454
G1 X198.828 Y132.087 E0.02454
G1 X121.311 Y132.320 E2.43052
G1 X46.729 Y132.320 E2.33846
G1 X45.807 Y132.216 E0.02911
G1 X45.044 Y131.964 E0.02517
G1 X44.344 Y131.572 E0.02517
G1 X43.736 Y131.056 E0.02501
G1 X43.233 Y130.431 E0.02517
G1 X18.752 Y91.167 E1.45076
G1 X18.422 Y90.514 E0.02296
G1 X18.199 Y89.759 E0.02469
G1 X18.121 Y88.970 E0.02485
G1 X18.122 Y12.724 E2.39064
G1 X18.330 Y11.533 E0.03791
G1 X18.845 Y10.501 E0.03615
; PURGING FINISHED
G1 F8640
G1 X19.704 Y9.561 E-0.29393
G1 X20.749 Y8.953 E-0.27922
G1 X21.494 Y8.732 E-0.17953
G1 X21.526 Y8.728 E-0.00732
G1 E-0.04000 F2100.00000
G1 Z0.800 F10800.000
G1 X124.456 Y12.881
G1 Z0.200
G1 E0.80000 F2100.00000
G1 F1800
G1 X223.282 Y12.881 E3.09861
G1 X223.282 Y87.822 E2.34973
G1 X124.456 Y87.822 E3.09861
G1 X124.456 Y12.941 E2.34785
G1 X124.079 Y12.504 F10800.000
G1 F1800
G1 X223.659 Y12.504 E3.12226
M73 Q0 S332
M73 P0 R329
G1 X223.659 Y88.199 E2.37338
G1 X124.079 Y88.199 E3.12226
G1 X124.079 Y12.564 E2.37150
G1 X124.469 Y12.590 F10800.000
G1 F8640
G1 X127.370 Y12.562 E-0.76000
G1 E-0.04000 F2100.00000
G1 Z0.800 F10800.000
G1 X124.569 Y86.947
G1 Z0.200
G1 E0.80000 F2100.00000
G1 F1800
G1 X125.162 Y87.540 E0.02630
G1 X125.695 Y87.540 E0.01674
G1 X124.738 Y86.583 E0.04244
G1 X124.738 Y86.049 E0.01674
G1 X126.229 Y87.540 E0.06611
G1 X126.762 Y87.540 E0.01674
G1 X124.738 Y85.516 E0.08978
G1 X124.738 Y84.982 E0.01674
G1 X127.296 Y87.540 E0.11344
G1 X127.829 Y87.540 E0.01674
G1 X124.738 Y84.449 E0.13711
G1 X124.738 Y83.915 E0.01674
G1 X128.363 Y87.540 E0.16078
G1 X128.896 Y87.540 E0.01674
G1 X124.738 Y83.382 E0.18444
G1 X124.738 Y82.848 E0.01674
G1 X129.430 Y87.540 E0.20811
G1 X129.963 Y87.540 E0.01674
G1 X124.738 Y82.315 E0.23178
G1 X124.738 Y81.781 E0.01674
G1 X130.497 Y87.540 E0.25545
G1 X131.030 Y87.540 E0.01674
G1 X124.738 Y81.248 E0.27911
G1 X124.738 Y80.714 E0.01674
G1 X131.564 Y87.540 E0.30278
G1 X132.097 Y87.540 E0.01674
G1 X124.738 Y80.181 E0.32645
G1 X124.738 Y79.647 E0.01674
G1 X132.631 Y87.540 E0.35011
G1 X133.164 Y87.540 E0.01674
G1 X124.738 Y79.114 E0.37378
G1 X124.738 Y78.580 E0.01674
G1 X133.698 Y87.540 E0.39745
G1 X134.231 Y87.540 E0.01674
G1 X124.738 Y78.047 E0.42112
G1 X124.738 Y77.513 E0.01674
G1 X134.765 Y87.540 E0.44478
G1 X135.298 Y87.540 E0.01674
G1 X124.738 Y76.980 E0.46845
G1 X124.738 Y76.446 E0.01674
G1 X135.832 Y87.540 E0.49212
G1 X136.365 Y87.540 E0.01674
G1 X124.738 Y75.913 E0.51578
G1 X124.738 Y75.379 E0.01674
G1 X136.899 Y87.540 E0.53945
G1 X137.432 Y87.540 E0.01674
G1 X124.738 Y74.846 E0.56312
G1 X124.738 Y74.312 E0.01674
G1 X137.966 Y87.540 E0.58679
G1 X138.499 Y87.540 E0.01674
G1 X124.738 Y73.779 E0.61045
G1 X124.738 Y73.245 E0.01674
G1 X139.033 Y87.540 E0.63412
G1 X139.566 Y87.540 E0.01674
G1 X124.738 Y72.712 E0.65779
G1 X124.738 Y72.178 E0.01674
G1 X140.100 Y87.540 E0.68145
G1 X140.633 Y87.540 E0.01674
G1 X124.738 Y71.645 E0.70512
G1 X124.738 Y71.111 E0.01674
G1 X141.167 Y87.540 E0.72879
G1 X141.700 Y87.540 E0.01674
G1 X124.738 Y70.578 E0.75246
G1 X124.738 Y70.044 E0.01674
G1 X142.234 Y87.540 E0.77612
G1 X142.767 Y87.540 E0.01674
G1 X124.738 Y69.511 E0.79979
G1 X124.738 Y68.977 E0.01674
G1 X143.301 Y87.540 E0.82346
G1 X143.834 Y87.540 E0.01674
G1 X124.738 Y68.444 E0.84712
G1 X124.738 Y67.910 E0.01674
G1 X144.368 Y87.540 E0.87079
G1 X144.901 Y87.540 E0.01674
G1 X124.738 Y67.377 E0.89446
G1 X124.738 Y66.843 E0.01674
G1 X145.435 Y87.540 E0.91813
G1 X145.969 Y87.540 E0.01674
G1 X124.738 Y66.310 E0.94179
G1 X124.738 Y65.776 E0.01674
G1 X146.502 Y87.540 E0.96546
G1 X147.036 Y87.540 E0.01674
G1 X124.738 Y65.243 E0.98913
G1 X124.738 Y64.709 E0.01674
G1 X147.569 Y87.540 E1.01279
G1 X148.103 Y87.540 E0.01674
G1 X124.738 Y64.176 E1.03646
G1 X124.738 Y63.642 E0.01674
G1 X148.636 Y87.540 E1.06013
G1 X149.170 Y87.540 E0.01674
G1 X124.738 Y63.108 E1.08380
G1 X124.738 Y62.575 E0.01674
G1 X149.703 Y87.540 E1.10746
G1 X150.237 Y87.540 E0.01674
G1 X124.738 Y62.041 E1.13113
G1 X124.738 Y61.508 E0.01674
G1 X150.770 Y87.540 E1.15480
G1 X151.304 Y87.540 E0.01674
G1 X124.738 Y60.974 E1.17846
G1 X124.738 Y60.441 E0.01674
G1 X151.837 Y87.540 E1.20213
G1 X152.371 Y87.540 E0.01674
G1 X124.738 Y59.907 E1.22580
G1 X124.738 Y59.374 E0.01674
G1 X152.904 Y87.540 E1.24947
G1 X153.438 Y87.540 E0.01674
G1 X124.738 Y58.840 E1.27313
G1 X124.738 Y58.307 E0.01674
G1 X153.971 Y87.540 E1.29680
G1 X154.505 Y87.540 E0.01674
G1 X124.738 Y57.773 E1.32047
G1 X124.738 Y57.240 E0.01674
G1 X155.038 Y87.540 E1.34413
G1 X155.572 Y87.540 E0.01674
G1 X124.738 Y56.706 E1.36780
G1 X124.738 Y56.173 E0.01674
G1 X156.105 Y87.540 E1.39147
G1 X156.639 Y87.540 E0.01674
G1 X124.738 Y55.639 E1.41514
G1 X124.738 Y55.106 E0.01674
G1 X157.172 Y87.540 E1.43880
G1 X157.706 Y87.540 E0.01674
G1 X124.738 Y54.572 E1.46247
M73 Q0 S331
M73 P0 R328
G1 X124.738 Y54.039 E0.01674
G1 X158.239 Y87.540 E1.48614
G1 X158.773 Y87.540 E0.01674
G1 X124.738 Y53.505 E1.50980
G1 X124.738 Y52.972 E0.01674
G1 X159.306 Y87.540 E1.53347
G1 X159.840 Y87.540 E0.01674
G1 X124.738 Y52.438 E1.55714
G1 X124.738 Y51.905 E0.01674
G1 X160.373 Y87.540 E1.58081
G1 X160.907 Y87.540 E0.01674
G1 X124.738 Y51.371 E1.60447
G1 X124.738 Y50.838 E0.01674
G1 X161.440 Y87.540 E1.62814
G1 X161.974 Y87.540 E0.01674
G1 X124.738 Y50.304 E1.65181
G1 X124.738 Y49.771 E0.01674
G1 X162.507 Y87.540 E1.67547
G1 X163.041 Y87.540 E0.01674
G1 X124.738 Y49.237 E1.69914
G1 X124.738 Y48.704 E0.01674
G1 X163.574 Y87.540 E1.72281
G1 X164.108 Y87.540 E0.01674
G1 X124.738 Y48.170 E1.74648
G1 X124.738 Y47.637 E0.01674
G1 X164.641 Y87.540 E1.77014
G1 X165.175 Y87.540 E0.01674
G1 X124.738 Y47.103 E1.79381
G1 X124.738 Y46.570 E0.01674
G1 X165.708 Y87.540 E1.81748
G1 X166.242 Y87.540 E0.01674
G1 X124.738 Y46.036 E1.84114
G1 X124.738 Y45.503 E0.01674
G1 X166.775 Y87.540 E1.86481
G1 X167.309 Y87.540 E0.01674
G1 X124.738 Y44.969 E1.88848
G1 X124.738 Y44.436 E0.01674
G1 X167.842 Y87.540 E1.91215
G1 X168.376 Y87.540 E0.01674
G1 X124.738 Y43.902 E1.93581
G1 X124.738 Y43.369 E0.01674
G1 X168.909 Y87.540 E1.95948
G1 X169.443 Y87.540 E0.01674
G1 X124.738 Y42.835 E1.98315
G1 X124.738 Y42.302 E0.01674
G1 X169.976 Y87.540 E2.00681
G1 X170.510 Y87.540 E0.01674
G1 X124.738 Y41.768 E2.03048
G1 X124.738 Y41.235 E0.01674
G1 X171.043 Y87.540 E2.05415
G1 X171.577 Y87.540 E0.01674
G1 X124.738 Y40.701 E2.07782
G1 X124.738 Y40.168 E0.01674
G1 X172.110 Y87.540 E2.10148
G1 X172.644 Y87.540 E0.01674
G1 X124.738 Y39.634 E2.12515
G1 X124.738 Y39.101 E0.01674
G1 X173.177 Y87.540 E2.14882
G1 X173.711 Y87.540 E0.01674
G1 X124.738 Y38.567 E2.17248
G1 X124.738 Y38.034 E0.01674
G1 X174.244 Y87.540 E2.19615
M73 Q0 S330
M73 P0 R327
G1 X174.778 Y87.540 E0.01674
G1 X124.738 Y37.500 E2.21982
G1 X124.738 Y36.967 E0.01674
G1 X175.311 Y87.540 E2.24349
G1 X175.845 Y87.540 E0.01674
G1 X124.738 Y36.433 E2.26715
G1 X124.738 Y35.900 E0.01674
G1 X176.378 Y87.540 E2.29082
G1 X176.912 Y87.540 E0.01674
G1 X124.738 Y35.366 E2.31449
G1 X124.738 Y34.833 E0.01674
G1 X177.445 Y87.540 E2.33815
G1 X177.979 Y87.540 E0.01674
G1 X124.738 Y34.299 E2.36182
G1 X124.738 Y33.766 E0.01674
G1 X178.512 Y87.540 E2.38549
G1 X179.046 Y87.540 E0.01674
G1 X124.738 Y33.232 E2.40915
G1 X124.738 Y32.699 E0.01674
G1 X179.579 Y87.540 E2.43282
G1 X180.113 Y87.540 E0.01674
G1 X124.738 Y32.165 E2.45649
G1 X124.738 Y31.632 E0.01674
G1 X180.647 Y87.540 E2.48016
G1 X181.180 Y87.540 E0.01674
G1 X124.738 Y31.098 E2.50382
G1 X124.738 Y30.565 E0.01674
G1 X181.714 Y87.540 E2.52749
G1 X182.247 Y87.540 E0.01674
G1 X124.738 Y30.031 E2.55116
G1 X124.738 Y29.497 E0.01674
G1 X182.781 Y87.540 E2.57482
G1 X183.314 Y87.540 E0.01674
G1 X124.738 Y28.964 E2.59849
G1 X124.738 Y28.430 E0.01674
G1 X183.848 Y87.540 E2.62216
G1 X184.381 Y87.540 E0.01674
G1 X124.738 Y27.897 E2.64583
G1 X124.738 Y27.363 E0.01674
G1 X184.915 Y87.540 E2.66949
G1 X185.448 Y87.540 E0.01674
G1 X124.738 Y26.830 E2.69316
G1 X124.738 Y26.296 E0.01674
G1 X185.982 Y87.540 E2.71683
G1 X186.515 Y87.540 E0.01674
G1 X124.738 Y25.763 E2.74049
M73 Q1 S329
M73 P1 R326
G1 X124.738 Y25.229 E0.01674
G1 X187.049 Y87.540 E2.76416
G1 X187.582 Y87.540 E0.01674
G1 X124.738 Y24.696 E2.78783
G1 X124.738 Y24.162 E0.01674
G1 X188.116 Y87.540 E2.81150
G1 X188.649 Y87.540 E0.01674
G1 X124.738 Y23.629 E2.83516
G1 X124.738 Y23.095 E0.01674
G1 X189.183 Y87.540 E2.85883
G1 X189.716 Y87.540 E0.01674
G1 X124.738 Y22.562 E2.88250
G1 X124.738 Y22.028 E0.01674
G1 X190.250 Y87.540 E2.90616
G1 X190.783 Y87.540 E0.01674
G1 X124.738 Y21.495 E2.92983
G1 X124.738 Y20.961 E0.01674
G1 X191.317 Y87.540 E2.95350
G1 X191.850 Y87.540 E0.01674
G1 X124.738 Y20.428 E2.97717
G1 X124.738 Y19.894 E0.01674
G1 X192.384 Y87.540 E3.00083
G1 X192.917 Y87.540 E0.01674
G1 X124.738 Y19.361 E3.02450
G1 X124.738 Y18.827 E0.01674
G1 X193.451 Y87.540 E3.04817
G1 X193.984 Y87.540 E0.01674
G1 X124.738 Y18.294 E3.07183
G1 X124.738 Y17.760 E0.01674
G1 X194.518 Y87.540 E3.09550
G1 X195.051 Y87.540 E0.01674
G1 X124.738 Y17.227 E3.11917
G1 X124.738 Y16.693 E0.01674
G1 X195.585 Y87.540 E3.14284
G1 X196.118 Y87.540 E0.01674
G1 X124.738 Y16.160 E3.16650
G1 X124.738 Y15.626 E0.01674
G1 X196.652 Y87.540 E3.19017
M73 Q1 S328
M73 P1 R325
G1 X197.185 Y87.540 E0.01674
G1 X124.738 Y15.093 E3.21384
G1 X124.738 Y14.559 E0.01674
G1 X197.719 Y87.540 E3.23750
G1 X198.252 Y87.540 E0.01674
G1 X124.738 Y14.026 E3.26117
G1 X124.738 Y13.492 E0.01674
G1 X198.786 Y87.540 E3.28484
G1 X199.319 Y87.540 E0.01674
G1 X124.944 Y13.164 E3.29941
G1 X125.477 Y13.164 E0.01674
G1 X199.853 Y87.540 E3.29941
G1 X200.386 Y87.540 E0.01674
G1 X126.011 Y13.164 E3.29941
G1 X126.544 Y13.164 E0.01674
G1 X200.920 Y87.540 E3.29941
G1 X201.453 Y87.540 E0.01674
G1 X127.078 Y13.164 E3.29941
G1 X127.611 Y13.164 E0.01674
G1 X201.987 Y87.540 E3.29941
G1 X202.520 Y87.540 E0.01674
G1 X128.145 Y13.164 E3.29941
G1 X128.678 Y13.164 E0.01674
G1 X203.054 Y87.540 E3.29941
G1 X203.587 Y87.540 E0.01674
G1 X129.212 Y13.164 E3.29941
G1 X129.745 Y13.164 E0.01674
G1 X204.121 Y87.540 E3.29941
G1 X204.654 Y87.540 E0.01674
G1 X130.279 Y13.164 E3.29941
G1 X130.812 Y13.164 E0.01674
G1 X205.188 Y87.540 E3.29941
G1 X205.721 Y87.540 E0.01674
G1 X131.346 Y13.164 E3.29941
M73 Q1 S327
M73 P1 R324
G1 X131.879 Y13.164 E0.01674
G1 X206.255 Y87.540 E3.29941
G1 X206.788 Y87.540 E0.01674
G1 X132.413 Y13.164 E3.29941
G1 X132.946 Y13.164 E0.01674
G1 X207.322 Y87.540 E3.29941
G1 X207.855 Y87.540 E0.01674
G1 X133.480 Y13.164 E3.29941
G1 X134.013 Y13.164 E0.01674
G1 X208.389 Y87.540 E3.29941
G1 X208.922 Y87.540 E0.01674
G1 X134.547 Y13.164 E3.29941
G1 X135.080 Y13.164 E0.01674
G1 X209.456 Y87.540 E3.29941
G1 X209.989 Y87.540 E0.01674
G1 X135.614 Y13.164 E3.29941
G1 X136.147 Y13.164 E0.01674
G1 X210.523 Y87.540 E3.29941
G1 X211.056 Y87.540 E0.01674
G1 X136.681 Y13.164 E3.29941
G1 X137.214 Y13.164 E0.01674
G1 X211.590 Y87.540 E3.29941
G1 X212.123 Y87.540 E0.01674
G1 X137.748 Y13.164 E3.29941
G1 X138.281 Y13.164 E0.01674
G1 X212.657 Y87.540 E3.29941
G1 X213.190 Y87.540 E0.01674
G1 X138.815 Y13.164 E3.29941
G1 X139.348 Y13.164 E0.01674
G1 X213.724 Y87.540 E3.29941
G1 X214.258 Y87.540 E0.01674
G1 X139.882 Y13.164 E3.29941
G1 X140.415 Y13.164 E0.01674
G1 X214.791 Y87.540 E3.29941
M73 Q2 S326
M73 P2 R323
G1 X215.325 Y87.540 E0.01674
G1 X140.949 Y13.164 E3.29941
G1 X141.482 Y13.164 E0.01674
G1 X215.858 Y87.540 E3.29941
G1 X216.392 Y87.540 E0.01674
G1 X142.016 Y13.164 E3.29941
G1 X142.549 Y13.164 E0.01674
G1 X216.925 Y87.540 E3.29941
G1 X217.459 Y87.540 E0.01674
G1 X143.083 Y13.164 E3.29941
G1 X143.616 Y13.164 E0.01674
G1 X217.992 Y87.540 E3.29941
G1 X218.526 Y87.540 E0.01674
G1 X144.150 Y13.164 E3.29941
G1 X144.683 Y13.164 E0.01674
G1 X219.059 Y87.540 E3.29941
G1 X219.593 Y87.540 E0.01674
G1 X145.217 Y13.164 E3.29941
G1 X145.750 Y13.164 E0.01674
G1 X220.126 Y87.540 E3.29941
G1 X220.660 Y87.540 E0.01674
G1 X146.284 Y13.164 E3.29941
G1 X146.817 Y13.164 E0.01674
G1 X221.193 Y87.540 E3.29941
G1 X221.727 Y87.540 E0.01674
G1 X147.351 Y13.164 E3.29941
G1 X147.884 Y13.164 E0.01674
G1 X222.260 Y87.540 E3.29941
G1 X222.794 Y87.540 E0.01674
G1 X148.418 Y13.164 E3.29941
G1 X148.951 Y13.164 E0.01674
G1 X222.999 Y87.211 E3.28484
G1 X222.999 Y86.678 E0.01674
G1 X149.485 Y13.164 E3.26117
M73 Q2 S325
M73 P2 R322
G1 X150.018 Y13.164 E0.01674
G1 X222.999 Y86.144 E3.23751
G1 X222.999 Y85.611 E0.01674
G1 X150.552 Y13.164 E3.21384
G1 X151.085 Y13.164 E0.01674
G1 X222.999 Y85.077 E3.19017
G1 X222.999 Y84.544 E0.01674
G1 X151.619 Y13.164 E3.16650
G1 X152.152 Y13.164 E0.01674
G1 X222.999 Y84.010 E3.14284
G1 X222.999 Y83.477 E0.01674
G1 X152.686 Y13.164 E3.11917
G1 X153.219 Y13.164 E0.01674
G1 X222.999 Y82.943 E3.09550
G1 X222.999 Y82.410 E0.01674
G1 X153.753 Y13.164 E3.07184
G1 X154.286 Y13.164 E0.01674
G1 X222.999 Y81.876 E3.04817
G1 X222.999 Y81.343 E0.01674
G1 X154.820 Y13.164 E3.02450
G1 X155.354 Y13.164 E0.01674
G1 X222.999 Y80.809 E3.00083
G1 X222.999 Y80.276 E0.01674
G1 X155.887 Y13.164 E2.97717
G1 X156.421 Y13.164 E0.01674
