; generated by Slic3r Prusa Edition 1.41.1-rc+linux64 on 2018-10-30 at 17:10:40

; 

; external perimeters extrusion width = 0.45mm
; perimeters extrusion width = 0.45mm
; infill extrusion width = 0.45mm
; solid infill extrusion width = 0.45mm
; top infill extrusion width = 0.40mm
; first layer extrusion width = 0.42mm

M73 P0 R43
M73 Q0 S43
M201 X1000 Y1000 Z1000 E5000 ; sets maximum accelerations, mm/sec^2
M203 X200 Y200 Z12 E120 ; sets maximum feedrates, mm/sec
M204 P1250 R1250 T1250 ; sets acceleration (P, T) and retract acceleration (R), mm/sec^2
M205 X8.00 Y8.00 Z0.40 E1.50 ; sets the jerk limits, mm/sec
M205 S0 T0 ; sets the minimum extruding and travel feed rate, mm/sec
M107
M115 U3.4.1 ; tell printer latest fw version
M83  ; extruder relative mode
M104 S215 ; set extruder temp
M140 S60 ; set bed temp
M190 S60 ; wait for bed temp
M109 S215 ; wait for extruder temp
G28 W ; home all without mesh bed level
G80 ; mesh bed leveling
G1 Y-3.0 F1000.0 ; go outside print area
G92 E0.0
G1 X60.0 E9.0  F1000.0 ; intro line
M73 Q0 S43
M73 P0 R43
G1 X100.0 E12.5  F1000.0 ; intro line
G92 E0.0
M221 S95
M900 K30; Filament gcode
G21 ; set units to millimeters
G90 ; use absolute coordinates
M83 ; use relative distances for extrusion
;BEFORE_LAYER_CHANGE
G92 E0.0
;0.2


G1 E-0.80000 F2100.00000
G1 Z0.600 F10800.000
;AFTER_LAYER_CHANGE
;0.2
G1 X107.530 Y48.063
G1 Z0.200
G1 E0.80000 F2100.00000
M204 S1000
G1 F1500
G1 X108.587 Y45.905 E0.07536
G1 X109.316 Y44.720 E0.04363
G1 X110.775 Y42.809 E0.07537
G1 X111.723 Y41.786 E0.04375
G1 X112.744 Y40.839 E0.04365
G1 X114.655 Y39.381 E0.07536
G1 X115.840 Y38.652 E0.04364
G1 X117.996 Y37.595 E0.07527
G1 X120.270 Y36.817 E0.07538
G1 X121.625 Y36.494 E0.04367
G1 X124.005 Y36.174 E0.07529
G1 X125.404 Y36.123 E0.04391
G1 X126.791 Y36.174 E0.04352
G1 X129.170 Y36.494 E0.07526
G1 X130.526 Y36.817 E0.04370
G1 X132.798 Y37.594 E0.07529
G1 X134.956 Y38.652 E0.07536
G1 X136.141 Y39.381 E0.04363
G1 X138.052 Y40.839 E0.07537
G1 X139.075 Y41.788 E0.04375
G1 X140.021 Y42.809 E0.04365
G1 X141.480 Y44.719 E0.07535
G1 X142.209 Y45.905 E0.04364
G1 X143.265 Y48.060 E0.07527
G1 X144.044 Y50.335 E0.07538
G1 X144.366 Y51.690 E0.04367
G1 X144.686 Y54.069 E0.07528
G1 X144.738 Y55.464 E0.04376
G1 X144.686 Y56.856 E0.04367
G1 X144.366 Y59.235 E0.07526
G1 X144.044 Y60.591 E0.04370
G1 X143.266 Y62.862 E0.07529
G1 X142.209 Y65.021 E0.07536
G1 X141.480 Y66.206 E0.04363
G1 X140.021 Y68.117 E0.07537
G1 X139.073 Y69.140 E0.04375
G1 X138.052 Y70.086 E0.04365
G1 X136.142 Y71.544 E0.07535
G1 X134.065 Y72.750 E0.07530
G1 X132.796 Y73.332 E0.04376
G1 X130.526 Y74.109 E0.07522
G1 X129.171 Y74.431 E0.04367
G1 X126.791 Y74.751 E0.07528
G1 X125.397 Y74.802 E0.04376
G1 X124.009 Y74.751 E0.04353
G1 X121.626 Y74.431 E0.07540
G1 X120.270 Y74.109 E0.04370
G1 X117.998 Y73.331 E0.07529
G1 X115.840 Y72.274 E0.07536
G1 X114.655 Y71.545 E0.04363
G1 X112.744 Y70.086 E0.07537
G1 X111.721 Y69.137 E0.04375
G1 X110.775 Y68.117 E0.04365
G1 X109.316 Y66.206 E0.07535
G1 X108.587 Y65.021 E0.04364
G1 X107.531 Y62.865 E0.07527
G1 X106.752 Y60.591 E0.07538
G1 X106.430 Y59.236 E0.04367
G1 X106.110 Y56.856 E0.07528
G1 X106.058 Y55.461 E0.04376
G1 X106.110 Y54.069 E0.04367
G1 X106.430 Y51.691 E0.07526
G1 X106.752 Y50.335 E0.04370
G1 X107.510 Y48.120 E0.07340
G1 F8640
G1 X108.587 Y45.905 E-0.56870
G1 X109.021 Y45.199 E-0.19130
G1 E-0.04000 F2100.00000
G1 Z0.800 F10800.000
G1 X109.565 Y48.878
G1 Z0.200
G1 E0.80000 F2100.00000
G1 F1500
G1 X109.824 Y48.405 E0.01689
G1 X110.008 Y47.901 E0.01684
G1 X110.313 Y47.412 E0.01807
G1 X110.486 Y46.999 E0.01404
G1 X110.875 Y46.440 E0.02132
G1 X111.154 Y45.915 E0.01865
G1 X111.501 Y45.500 E0.01696
G1 X111.780 Y45.043 E0.01680
G1 X112.174 Y44.624 E0.01804
G1 X112.424 Y44.252 E0.01404
G1 X112.913 Y43.781 E0.02131
G1 X113.289 Y43.320 E0.01864
G1 X113.711 Y42.980 E0.01698
G1 X114.075 Y42.586 E0.01682
G1 X114.544 Y42.251 E0.01808
G1 X114.863 Y41.935 E0.01407
G1 X115.432 Y41.570 E0.02121
G1 X115.891 Y41.191 E0.01867
G1 X116.371 Y40.941 E0.01698
G1 X116.809 Y40.622 E0.01697
G1 X117.332 Y40.386 E0.01798
G1 X117.703 Y40.140 E0.01398
G1 X118.336 Y39.892 E0.02129
G1 X118.861 Y39.610 E0.01868
G1 X119.375 Y39.460 E0.01681
G1 X119.862 Y39.234 E0.01682
G1 X120.425 Y39.103 E0.01814
G1 X120.839 Y38.933 E0.01402
G1 X121.511 Y38.812 E0.02141
G1 X122.078 Y38.640 E0.01859
G1 X122.614 Y38.592 E0.01685
G1 X123.137 Y38.465 E0.01687
G1 X123.711 Y38.448 E0.01801
G1 X124.148 Y38.362 E0.01399
G1 X124.841 Y38.374 E0.02171
G1 X125.526 Y38.317 E0.02155
G1 X125.962 Y38.374 E0.01380
G1 X126.539 Y38.353 E0.01810
G1 X127.069 Y38.446 E0.01686
G1 X127.509 Y38.447 E0.01381
G1 X128.178 Y38.593 E0.02146
G1 X128.769 Y38.650 E0.01863
G1 X129.282 Y38.811 E0.01685
G1 X129.818 Y38.895 E0.01700
G1 X130.355 Y39.098 E0.01803
G1 X130.790 Y39.186 E0.01390
G1 X131.415 Y39.459 E0.02137
G1 X131.983 Y39.630 E0.01860
G1 X132.456 Y39.889 E0.01689
G1 X132.960 Y40.073 E0.01683
G1 X133.449 Y40.378 E0.01808
G1 X133.863 Y40.551 E0.01405
G1 X134.420 Y40.940 E0.02131
G1 X134.946 Y41.219 E0.01865
G1 X135.362 Y41.568 E0.01704
G1 X135.823 Y41.849 E0.01693
G1 X136.239 Y42.241 E0.01791
G1 X136.607 Y42.487 E0.01390
G1 X137.080 Y42.978 E0.02138
G1 X137.541 Y43.354 E0.01864
G1 X137.880 Y43.776 E0.01699
G1 X138.274 Y44.138 E0.01678
G1 X138.610 Y44.609 E0.01811
G1 X138.926 Y44.928 E0.01408
G1 X139.290 Y45.497 E0.02121
G1 X139.669 Y45.956 E0.01866
G1 X139.920 Y46.437 E0.01700
G1 X140.239 Y46.873 E0.01694
G1 X140.475 Y47.397 E0.01801
G1 X140.720 Y47.767 E0.01392
G1 X140.969 Y48.401 E0.02134
G1 X141.250 Y48.925 E0.01865
G1 X141.401 Y49.440 E0.01684
G1 X141.627 Y49.926 E0.01682
G1 X141.758 Y50.490 E0.01815
G1 X141.927 Y50.903 E0.01399
G1 X142.048 Y51.576 E0.02145
G1 X142.221 Y52.142 E0.01856
G1 X142.269 Y52.678 E0.01687
G1 X142.396 Y53.201 E0.01686
G1 X142.413 Y53.776 E0.01802
G1 X142.499 Y54.213 E0.01398
G1 X142.487 Y54.898 E0.02148
G1 X142.545 Y55.483 E0.01843
G1 X142.486 Y56.026 E0.01714
G1 X142.500 Y56.709 E0.02141
G1 X142.413 Y57.151 E0.01411
G1 X142.395 Y57.725 E0.01802
G1 X142.268 Y58.249 E0.01692
G1 X142.212 Y58.826 E0.01816
G1 X142.048 Y59.351 E0.01725
G1 X141.927 Y60.022 E0.02137
G1 X141.757 Y60.436 E0.01404
G1 X141.627 Y60.999 E0.01811
G1 X141.399 Y61.489 E0.01695
G1 X141.231 Y62.047 E0.01830
G1 X140.972 Y62.521 E0.01692
G1 X140.788 Y63.024 E0.01681
G1 X140.483 Y63.514 E0.01810
G1 X140.309 Y63.928 E0.01405
G1 X139.921 Y64.486 E0.02132
G1 X139.642 Y65.011 E0.01864
G1 X139.293 Y65.427 E0.01703
G1 X139.013 Y65.887 E0.01690
G1 X138.620 Y66.304 E0.01795
G1 X138.372 Y66.673 E0.01392
G1 X137.882 Y67.145 E0.02133
G1 X137.508 Y67.604 E0.01859
G1 X137.085 Y67.946 E0.01705
G1 X136.721 Y68.340 E0.01680
G1 X136.252 Y68.674 E0.01807
G1 X135.934 Y68.990 E0.01407
G1 X135.363 Y69.356 E0.02123
G1 X134.905 Y69.734 E0.01863
G1 X134.424 Y69.986 E0.01703
G1 X133.988 Y70.304 E0.01693
G1 X133.464 Y70.540 E0.01803
G1 X133.092 Y70.786 E0.01397
G1 X132.460 Y71.034 E0.02128
G1 X131.937 Y71.314 E0.01860
G1 X131.421 Y71.466 E0.01689
G1 X130.934 Y71.692 E0.01683
G1 X130.370 Y71.823 E0.01814
G1 X129.956 Y71.992 E0.01403
G1 X129.284 Y72.113 E0.02140
G1 X128.719 Y72.286 E0.01854
G1 X128.182 Y72.334 E0.01689
G1 X127.659 Y72.460 E0.01687
G1 X127.085 Y72.477 E0.01800
G1 X126.648 Y72.564 E0.01397
G1 X125.963 Y72.552 E0.02149
G1 X125.378 Y72.610 E0.01841
G1 X124.835 Y72.551 E0.01715
G1 X124.153 Y72.564 E0.02139
G1 X123.710 Y72.478 E0.01414
G1 X123.137 Y72.460 E0.01798
G1 X122.611 Y72.333 E0.01695
G1 X122.034 Y72.277 E0.01817
G1 X121.510 Y72.113 E0.01723
G1 X120.841 Y71.993 E0.02132
G1 X120.425 Y71.823 E0.01409
G1 X119.861 Y71.692 E0.01815
G1 X119.372 Y71.464 E0.01691
G1 X118.813 Y71.296 E0.01830
G1 X118.340 Y71.037 E0.01691
G1 X117.836 Y70.852 E0.01683
G1 X117.346 Y70.547 E0.01809
G1 X116.934 Y70.374 E0.01404
G1 X116.375 Y69.986 E0.02133
G1 X115.850 Y69.707 E0.01864
G1 X115.434 Y69.358 E0.01702
G1 X114.973 Y69.077 E0.01691
G1 X114.557 Y68.685 E0.01794
G1 X114.187 Y68.436 E0.01399
G1 X113.716 Y67.947 E0.02127
G1 X113.257 Y67.572 E0.01860
G1 X112.915 Y67.150 E0.01704
G1 X112.520 Y66.785 E0.01684
G1 X112.186 Y66.317 E0.01804
G1 X111.871 Y65.998 E0.01406
G1 X111.505 Y65.429 E0.02122
G1 X111.127 Y64.970 E0.01864
G1 X110.875 Y64.489 E0.01701
G1 X110.557 Y64.052 E0.01696
G1 X110.320 Y63.529 E0.01800
G1 X110.074 Y63.155 E0.01403
G1 X109.827 Y62.525 E0.02123
G1 X109.546 Y62.002 E0.01863
G1 X109.395 Y61.486 E0.01686
G1 X109.169 Y60.998 E0.01683
G1 X109.038 Y60.435 E0.01813
G1 X108.868 Y60.020 E0.01407
G1 X108.748 Y59.352 E0.02128
G1 X108.577 Y58.790 E0.01842
G1 X108.527 Y58.243 E0.01722
G1 X108.398 Y57.705 E0.01735
G1 X108.382 Y57.136 E0.01785
G1 X108.292 Y56.650 E0.01550
G1 X108.308 Y56.021 E0.01973
G1 X108.251 Y55.443 E0.01821
G1 X108.309 Y54.900 E0.01712
G1 X108.297 Y54.217 E0.02142
G1 X108.383 Y53.775 E0.01413
G1 X108.400 Y53.201 E0.01800
G1 X108.527 Y52.677 E0.01692
G1 X108.584 Y52.099 E0.01821
G1 X108.748 Y51.576 E0.01719
G1 X108.868 Y50.905 E0.02134
G1 X109.038 Y50.490 E0.01408
G1 X109.169 Y49.925 E0.01818
G1 X109.396 Y49.437 E0.01687
G1 X109.548 Y48.935 E0.01645
G1 X109.906 Y49.040 F10800.000
G1 F1500
G1 X110.168 Y48.561 E0.01712
G1 X110.355 Y48.050 E0.01707
G1 X110.649 Y47.587 E0.01718
G1 X110.826 Y47.164 E0.01440
G1 X111.197 Y46.637 E0.02019
G1 X111.457 Y46.141 E0.01756
G1 X111.808 Y45.721 E0.01718
G1 X112.091 Y45.257 E0.01702
G1 X112.469 Y44.862 E0.01715
G1 X112.725 Y44.480 E0.01441
G1 X113.192 Y44.037 E0.02019
G1 X113.542 Y43.601 E0.01755
G1 X113.969 Y43.256 E0.01720
G1 X114.338 Y42.857 E0.01704
G1 X114.786 Y42.542 E0.01719
G1 X115.113 Y42.218 E0.01443
G1 X115.655 Y41.876 E0.02009
G1 X116.085 Y41.516 E0.01758
G1 X116.571 Y41.262 E0.01720
G1 X117.014 Y40.939 E0.01720
G1 X117.513 Y40.718 E0.01709
G1 X117.894 Y40.466 E0.01433
G1 X118.494 Y40.235 E0.02017
G1 X118.986 Y39.966 E0.01758
G1 X119.508 Y39.814 E0.01705
G1 X120.002 Y39.584 E0.01706
G1 X120.538 Y39.464 E0.01723
G1 X120.962 Y39.290 E0.01438
G1 X121.600 Y39.180 E0.02028
G1 X122.132 Y39.014 E0.01749
G1 X122.675 Y38.965 E0.01708
G1 X123.205 Y38.837 E0.01710
G1 X123.751 Y38.825 E0.01712
G1 X124.201 Y38.736 E0.01437
G1 X124.853 Y38.752 E0.02046
G1 X125.498 Y38.694 E0.02032
G1 X125.947 Y38.752 E0.01418
G1 X126.495 Y38.728 E0.01719
G1 X127.035 Y38.823 E0.01721
G1 X127.487 Y38.824 E0.01416
G1 X128.119 Y38.966 E0.02032
G1 X128.676 Y39.016 E0.01752
G1 X129.196 Y39.180 E0.01709
G1 X129.739 Y39.264 E0.01724
G1 X130.248 Y39.461 E0.01713
G1 X130.695 Y39.552 E0.01427
G1 X131.285 Y39.814 E0.02025
G1 X131.820 Y39.971 E0.01751
G1 X132.300 Y40.233 E0.01712
G1 X132.811 Y40.420 E0.01706
G1 X133.273 Y40.713 E0.01718
G1 X133.697 Y40.891 E0.01441
G1 X134.223 Y41.262 E0.02019
G1 X134.720 Y41.521 E0.01755
G1 X135.142 Y41.875 E0.01726
G1 X135.609 Y42.160 E0.01715
G1 X136.001 Y42.535 E0.01703
G1 X136.379 Y42.789 E0.01428
G1 X136.824 Y43.257 E0.02024
G1 X137.260 Y43.607 E0.01754
G1 X137.604 Y44.035 E0.01721
G1 X138.003 Y44.402 E0.01700
G1 X138.319 Y44.851 E0.01721
G1 X138.643 Y45.178 E0.01444
G1 X138.985 Y45.720 E0.02010
G1 X139.345 Y46.150 E0.01757
G1 X139.599 Y46.636 E0.01722
G1 X139.922 Y47.079 E0.01717
G1 X140.143 Y47.578 E0.01712
G1 X140.394 Y47.958 E0.01429
G1 X140.626 Y48.560 E0.02022
G1 X140.894 Y49.051 E0.01754
G1 X141.047 Y49.573 E0.01707
G1 X141.276 Y50.066 E0.01706
G1 X141.396 Y50.603 E0.01725
G1 X141.570 Y51.027 E0.01435
G1 X141.681 Y51.665 E0.02032
G1 X141.847 Y52.197 E0.01746
G1 X141.896 Y52.740 E0.01710
G1 X142.024 Y53.270 E0.01709
G1 X142.036 Y53.816 E0.01713
G1 X142.125 Y54.265 E0.01436
G1 X142.109 Y54.914 E0.02034
G1 X142.168 Y55.463 E0.01732
G1 X142.108 Y56.011 E0.01730
G1 X142.125 Y56.658 E0.02027
G1 X142.036 Y57.111 E0.01448
G1 X142.024 Y57.657 E0.01712
G1 X141.895 Y58.189 E0.01717
G1 X141.846 Y58.733 E0.01714
G1 X141.680 Y59.262 E0.01739
G1 X141.571 Y59.898 E0.02023
G1 X141.396 Y60.323 E0.01440
G1 X141.276 Y60.859 E0.01721
G1 X141.045 Y61.356 E0.01719
G1 X140.890 Y61.885 E0.01729
G1 X140.628 Y62.365 E0.01714
G1 X140.441 Y62.875 E0.01704
G1 X140.147 Y63.339 E0.01720
G1 X139.970 Y63.762 E0.01440
G1 X139.598 Y64.289 E0.02021
G1 X139.339 Y64.785 E0.01754
G1 X138.986 Y65.207 E0.01725
G1 X138.702 Y65.673 E0.01712
G1 X138.325 Y66.066 E0.01707
G1 X138.071 Y66.445 E0.01429
G1 X137.604 Y66.889 E0.02021
G1 X137.254 Y67.324 E0.01751
G1 X136.826 Y67.670 E0.01726
G1 X136.458 Y68.069 E0.01701
G1 X136.010 Y68.384 E0.01719
G1 X135.683 Y68.708 E0.01443
G1 X135.141 Y69.050 E0.02012
G1 X134.712 Y69.409 E0.01754
G1 X134.224 Y69.664 E0.01725
G1 X133.782 Y69.987 E0.01715
G1 X133.283 Y70.208 E0.01713
G1 X132.902 Y70.460 E0.01432
G1 X132.301 Y70.691 E0.02018
G1 X131.811 Y70.958 E0.01751
G1 X131.287 Y71.112 E0.01711
G1 X130.794 Y71.341 E0.01706
G1 X130.257 Y71.462 E0.01724
G1 X129.833 Y71.635 E0.01439
G1 X129.195 Y71.746 E0.02028
G1 X128.664 Y71.912 E0.01745
G1 X128.121 Y71.960 E0.01711
G1 X127.591 Y72.089 E0.01709
G1 X127.045 Y72.101 E0.01712
G1 X126.596 Y72.190 E0.01435
G1 X125.947 Y72.174 E0.02035
G1 X125.398 Y72.233 E0.01731
G1 X124.849 Y72.174 E0.01730
G1 X124.204 Y72.190 E0.02024
G1 X123.750 Y72.102 E0.01451
G1 X123.205 Y72.089 E0.01709
G1 X122.672 Y71.960 E0.01719
G1 X122.127 Y71.911 E0.01716
G1 X121.598 Y71.745 E0.01737
G1 X120.964 Y71.636 E0.02018
G1 X120.538 Y71.462 E0.01443
G1 X120.001 Y71.341 E0.01725
G1 X119.505 Y71.110 E0.01716
G1 X118.976 Y70.955 E0.01729
G1 X118.496 Y70.693 E0.01714
G1 X117.985 Y70.506 E0.01705
G1 X117.522 Y70.212 E0.01720
G1 X117.099 Y70.035 E0.01439
G1 X116.572 Y69.664 E0.02021
G1 X116.076 Y69.404 E0.01755
G1 X115.654 Y69.051 E0.01724
G1 X115.188 Y68.766 E0.01713
G1 X114.794 Y68.391 E0.01706
G1 X114.415 Y68.135 E0.01435
G1 X113.972 Y67.669 E0.02015
G1 X113.537 Y67.319 E0.01752
G1 X113.191 Y66.891 E0.01725
G1 X112.791 Y66.522 E0.01705
G1 X112.477 Y66.074 E0.01716
G1 X112.153 Y65.748 E0.01442
G1 X111.811 Y65.206 E0.02011
G1 X111.451 Y64.776 E0.01755
G1 X111.196 Y64.290 E0.01723
G1 X110.874 Y63.847 E0.01718
G1 X110.653 Y63.348 E0.01711
G1 X110.400 Y62.965 E0.01437
G1 X110.170 Y62.366 E0.02012
G1 X109.902 Y61.875 E0.01754
G1 X109.748 Y61.352 E0.01709
G1 X109.520 Y60.859 E0.01706
G1 X109.399 Y60.323 E0.01723
G1 X109.225 Y59.897 E0.01442
G1 X109.115 Y59.263 E0.02017
G1 X108.950 Y58.736 E0.01733
G1 X108.900 Y58.182 E0.01743
G1 X108.770 Y57.638 E0.01755
G1 X108.759 Y57.098 E0.01691
G1 X108.666 Y56.602 E0.01583
G1 X108.686 Y56.007 E0.01866
G1 X108.628 Y55.463 E0.01717
G1 X108.687 Y54.915 E0.01727
G1 X108.671 Y54.269 E0.02027
G1 X108.759 Y53.815 E0.01449
G1 X108.772 Y53.269 E0.01711
G1 X108.901 Y52.738 E0.01716
G1 X108.950 Y52.192 E0.01719
G1 X109.115 Y51.664 E0.01734
G1 X109.225 Y51.029 E0.02021
G1 X109.399 Y50.603 E0.01442
G1 X109.520 Y50.065 E0.01727
G1 X109.750 Y49.570 E0.01712
G1 X109.889 Y49.098 E0.01543
G1 X110.251 Y49.204 F10800.000
G1 F1500
G1 X110.513 Y48.717 E0.01733
G1 X110.685 Y48.234 E0.01611
G1 X110.984 Y47.762 E0.01749
G1 X111.165 Y47.329 E0.01472
G1 X111.519 Y46.836 E0.01903
G1 X111.781 Y46.335 E0.01772
G1 X112.116 Y45.941 E0.01621
G1 X112.379 Y45.502 E0.01605
G1 X112.764 Y45.099 E0.01748
G1 X113.026 Y44.709 E0.01473
G1 X113.468 Y44.294 E0.01902
G1 X113.822 Y43.854 E0.01772
G1 X114.228 Y43.533 E0.01623
G1 X114.572 Y43.153 E0.01607
G1 X115.029 Y42.832 E0.01751
G1 X115.363 Y42.501 E0.01474
G1 X115.876 Y42.183 E0.01893
G1 X116.310 Y41.819 E0.01775
G1 X116.771 Y41.583 E0.01622
G1 X117.187 Y41.275 E0.01624
G1 X117.694 Y41.050 E0.01740
G1 X118.084 Y40.793 E0.01464
G1 X118.651 Y40.579 E0.01902
G1 X119.148 Y40.308 E0.01774
G1 X119.642 Y40.168 E0.01609
G1 X120.105 Y39.948 E0.01610
G1 X120.652 Y39.825 E0.01755
G1 X121.085 Y39.647 E0.01470
G1 X121.687 Y39.548 E0.01912
G1 X122.224 Y39.380 E0.01765
G1 X122.737 Y39.339 E0.01613
G1 X123.235 Y39.213 E0.01612
G1 X123.792 Y39.201 E0.01746
G1 X124.252 Y39.110 E0.01471
G1 X124.865 Y39.130 E0.01924
G1 X125.472 Y39.071 E0.01911
G1 X125.933 Y39.130 E0.01458
G1 X126.451 Y39.103 E0.01627
G1 X127.002 Y39.200 E0.01754
G1 X127.464 Y39.201 E0.01449
G1 X128.059 Y39.339 E0.01914
G1 X128.621 Y39.390 E0.01768
G1 X129.110 Y39.548 E0.01613
G1 X129.623 Y39.624 E0.01627
G1 X130.142 Y39.825 E0.01745
