; generated by Slic3r Prusa Edition 1.41.1-rc+linux64 on 2018-10-30 at 17:07:25

; 

; external perimeters extrusion width = 0.45mm
; perimeters extrusion width = 0.45mm
; infill extrusion width = 0.45mm
; solid infill extrusion width = 0.45mm
; top infill extrusion width = 0.40mm
; first layer extrusion width = 0.42mm

M73 P0 R25
M73 Q0 S26
M201 X1000 Y1000 Z1000 E5000 ; sets maximum accelerations, mm/sec^2
M203 X200 Y200 Z12 E120 ; sets maximum feedrates, mm/sec
M204 P1250 R1250 T1250 ; sets acceleration (P, T) and retract acceleration (R), mm/sec^2
M205 X8.00 Y8.00 Z0.40 E1.50 ; sets the jerk limits, mm/sec
M205 S0 T0 ; sets the minimum extruding and travel feed rate, mm/sec
M107
M115 U3.4.1 ; tell printer latest fw version
M83  ; extruder relative mode
M104 S215 ; set extruder temp
M140 S60 ; set bed temp
M190 S60 ; wait for bed temp
M109 S215 ; wait for extruder temp
G28 W ; home all without mesh bed level
G80 ; mesh bed leveling
G1 Y-3.0 F1000.0 ; go outside print area
G92 E0.0
G1 X60.0 E9.0  F1000.0 ; intro line
M73 Q0 S25
M73 P0 R25
G1 X100.0 E12.5  F1000.0 ; intro line
G92 E0.0
M221 S95
M900 K30; Filament gcode
G21 ; set units to millimeters
G90 ; use absolute coordinates
M83 ; use relative distances for extrusion
;BEFORE_LAYER_CHANGE
G92 E0.0
;0.2


G1 E-0.80000 F2100.00000
G1 Z0.600 F10800.000
;AFTER_LAYER_CHANGE
;0.2
G1 X109.319 Y47.071
G1 Z0.200
G1 E0.80000 F2100.00000
M204 S1000
G1 F1500
G1 X110.067 Y45.488 E0.05488
G1 X110.968 Y43.986 E0.05492
G1 X112.010 Y42.581 E0.05483
G1 X113.185 Y41.284 E0.05487
G1 X114.482 Y40.109 E0.05488
G1 X115.888 Y39.066 E0.05489
G1 X117.391 Y38.166 E0.05494
G1 X118.971 Y37.418 E0.05482
G1 X120.618 Y36.829 E0.05484
G1 X122.316 Y36.403 E0.05487
G1 X124.048 Y36.146 E0.05490
G1 X125.801 Y36.060 E0.05506
G1 X127.544 Y36.145 E0.05470
G1 X129.276 Y36.402 E0.05491
G1 X130.975 Y36.828 E0.05490
G1 X132.621 Y37.417 E0.05482
G1 X134.203 Y38.165 E0.05488
G1 X135.703 Y39.064 E0.05482
G1 X137.112 Y40.109 E0.05500
G1 X138.407 Y41.283 E0.05480
G1 X139.582 Y42.580 E0.05488
G1 X140.625 Y43.983 E0.05481
G1 X141.526 Y45.488 E0.05499
G1 X142.273 Y47.069 E0.05482
G1 X142.863 Y48.717 E0.05490
G1 X143.288 Y50.412 E0.05479
G1 X143.546 Y52.145 E0.05492
G1 X143.632 Y53.894 E0.05491
G1 X143.546 Y55.641 E0.05485
G1 X143.289 Y57.373 E0.05491
G1 X142.863 Y59.072 E0.05491
G1 X142.274 Y60.719 E0.05484
G1 X141.526 Y62.300 E0.05485
G1 X140.628 Y63.801 E0.05482
G1 X139.583 Y65.209 E0.05497
G1 X138.408 Y66.505 E0.05486
G1 X137.112 Y67.681 E0.05488
G1 X135.706 Y68.723 E0.05487
G1 X134.206 Y69.623 E0.05486
G1 X132.623 Y70.372 E0.05490
G1 X130.974 Y70.961 E0.05490
G1 X129.276 Y71.386 E0.05487
G1 X127.547 Y71.643 E0.05484
G1 X125.797 Y71.729 E0.05490
G1 X124.050 Y71.643 E0.05485
G1 X122.318 Y71.386 E0.05491
G1 X120.622 Y70.962 E0.05482
G1 X118.972 Y70.372 E0.05493
G1 X117.391 Y69.624 E0.05485
G1 X115.889 Y68.724 E0.05492
G1 X114.484 Y67.683 E0.05481
G1 X113.186 Y66.507 E0.05493
G1 X112.011 Y65.210 E0.05488
G1 X110.967 Y63.802 E0.05494
G1 X110.068 Y62.303 E0.05480
G1 X109.320 Y60.720 E0.05490
G1 X108.730 Y59.073 E0.05484
G1 X108.305 Y57.373 E0.05495
G1 X108.048 Y55.644 E0.05481
G1 X107.963 Y53.895 E0.05491
G1 X108.048 Y52.147 E0.05485
G1 X108.305 Y50.415 E0.05491
G1 X108.729 Y48.719 E0.05481
G1 X109.299 Y47.127 E0.05302
; PURGING FINISHED
G1 F8640
G1 X110.067 Y45.488 E-0.41795
G1 X110.829 Y44.218 E-0.34205
G1 E-0.04000 F2100.00000
G1 Z0.800 F10800.000
G1 X113.106 Y48.638
G1 Z0.200
G1 E0.80000 F2100.00000
G1 F1500
G1 X113.682 Y47.419 E0.04226
G1 X114.376 Y46.263 E0.04227
G1 X115.179 Y45.181 E0.04225
G1 X116.084 Y44.182 E0.04226
G1 X117.082 Y43.277 E0.04226
G1 X118.166 Y42.473 E0.04229
G1 X119.322 Y41.781 E0.04226
G1 X120.541 Y41.205 E0.04226
G1 X121.809 Y40.750 E0.04225
G1 X123.117 Y40.422 E0.04228
G1 X124.451 Y40.225 E0.04227
G1 X125.797 Y40.159 E0.04227
G1 X127.110 Y40.223 E0.04120
G1 X128.477 Y40.423 E0.04334
G1 X129.784 Y40.750 E0.04224
G1 X131.054 Y41.205 E0.04228
G1 X132.272 Y41.781 E0.04226
G1 X133.428 Y42.473 E0.04226
G1 X134.511 Y43.277 E0.04227
G1 X135.509 Y44.182 E0.04226
G1 X136.415 Y45.181 E0.04226
G1 X137.218 Y46.263 E0.04227
G1 X137.911 Y47.419 E0.04226
G1 X138.487 Y48.638 E0.04226
G1 X138.941 Y49.907 E0.04228
G1 X139.269 Y51.214 E0.04225
G1 X139.467 Y52.548 E0.04227
G1 X139.533 Y53.894 E0.04227
G1 X139.467 Y55.241 E0.04227
G1 X139.269 Y56.574 E0.04227
G1 X138.941 Y57.882 E0.04228
G1 X138.487 Y59.151 E0.04225
G1 X137.911 Y60.369 E0.04226
G1 X137.218 Y61.525 E0.04226
G1 X136.415 Y62.609 E0.04230
G1 X135.509 Y63.608 E0.04226
G1 X134.511 Y64.513 E0.04226
G1 X133.428 Y65.315 E0.04225
G1 X132.272 Y66.009 E0.04227
G1 X131.054 Y66.585 E0.04226
G1 X129.784 Y67.039 E0.04227
G1 X128.477 Y67.366 E0.04224
G1 X127.143 Y67.564 E0.04227
G1 X125.797 Y67.630 E0.04227
G1 X124.451 Y67.564 E0.04227
G1 X123.117 Y67.366 E0.04227
G1 X121.809 Y67.039 E0.04227
G1 X120.541 Y66.585 E0.04224
G1 X119.322 Y66.009 E0.04226
G1 X118.166 Y65.315 E0.04228
G1 X117.082 Y64.513 E0.04228
G1 X116.084 Y63.608 E0.04226
G1 X115.179 Y62.609 E0.04226
G1 X114.376 Y61.525 E0.04228
G1 X113.682 Y60.369 E0.04228
G1 X113.106 Y59.151 E0.04226
G1 X112.652 Y57.882 E0.04224
G1 X112.325 Y56.574 E0.04227
G1 X112.127 Y55.241 E0.04227
G1 X112.061 Y53.894 E0.04227
G1 X112.127 Y52.548 E0.04227
G1 X112.325 Y51.214 E0.04227
G1 X112.652 Y49.907 E0.04224
G1 X113.086 Y48.694 E0.04039
G1 X113.503 Y48.585 F10800.000
G1 X113.441 Y48.821
G1 F1500
G1 X114.015 Y47.597 E0.04239
G1 X114.690 Y46.473 E0.04111
G1 X115.470 Y45.420 E0.04109
G1 X116.351 Y44.449 E0.04110
G1 X117.322 Y43.569 E0.04110
G1 X118.376 Y42.787 E0.04113
G1 X119.500 Y42.114 E0.04110
G1 X120.685 Y41.553 E0.04110
G1 X121.919 Y41.112 E0.04109
G1 X123.191 Y40.793 E0.04112
G1 X124.488 Y40.600 E0.04111
G1 X125.797 Y40.536 E0.04110
G1 X127.073 Y40.599 E0.04005
G1 X128.404 Y40.793 E0.04217
G1 X129.674 Y41.112 E0.04107
G1 X130.909 Y41.553 E0.04112
G1 X132.094 Y42.114 E0.04110
G1 X133.218 Y42.787 E0.04109
G1 X134.271 Y43.569 E0.04111
G1 X135.242 Y44.449 E0.04110
G1 X136.123 Y45.420 E0.04110
G1 X136.904 Y46.473 E0.04111
G1 X137.578 Y47.597 E0.04109
G1 X138.138 Y48.782 E0.04110
G1 X138.580 Y50.017 E0.04112
G1 X138.899 Y51.288 E0.04109
G1 X139.091 Y52.585 E0.04111
G1 X139.155 Y53.894 E0.04110
G1 X139.091 Y55.204 E0.04110
G1 X138.899 Y56.500 E0.04111
G1 X138.580 Y57.773 E0.04112
G1 X138.138 Y59.006 E0.04109
G1 X137.578 Y60.191 E0.04110
G1 X136.904 Y61.316 E0.04109
G1 X136.123 Y62.369 E0.04113
G1 X135.242 Y63.341 E0.04110
G1 X134.271 Y64.221 E0.04110
G1 X133.218 Y65.002 E0.04109
G1 X132.094 Y65.676 E0.04111
G1 X130.909 Y66.236 E0.04109
G1 X129.675 Y66.678 E0.04111
G1 X128.403 Y66.996 E0.04108
G1 X127.106 Y67.188 E0.04111
G1 X125.797 Y67.252 E0.04110
G1 X124.488 Y67.188 E0.04110
G1 X123.191 Y66.996 E0.04111
G1 X121.919 Y66.678 E0.04111
G1 X120.685 Y66.236 E0.04108
G1 X119.500 Y65.676 E0.04109
G1 X118.376 Y65.002 E0.04112
G1 X117.322 Y64.221 E0.04112
G1 X116.351 Y63.341 E0.04109
G1 X115.471 Y62.369 E0.04109
G1 X114.690 Y61.316 E0.04112
G1 X114.015 Y60.191 E0.04112
G1 X113.455 Y59.006 E0.04109
G1 X113.014 Y57.773 E0.04108
G1 X112.696 Y56.501 E0.04111
G1 X112.503 Y55.204 E0.04111
G1 X112.439 Y53.894 E0.04110
G1 X112.503 Y52.585 E0.04110
G1 X112.696 Y51.288 E0.04111
G1 X113.014 Y50.017 E0.04108
G1 X113.421 Y48.878 E0.03793
G1 F8640
G1 X114.015 Y47.597 E-0.32593
G1 X114.690 Y46.473 E-0.30276
G1 X115.028 Y46.016 E-0.13130
G1 E-0.04000 F2100.00000
G1 Z0.800 F10800.000
G1 X119.703 Y52.685
G1 Z0.200
G1 E0.80000 F2100.00000
G1 F1500
G1 X121.138 Y52.685 E0.04498
G1 X121.028 Y53.424 E0.02341
G1 X121.005 Y53.893 E0.01474
G1 X121.028 Y54.364 E0.01477
G1 X121.097 Y54.828 E0.01473
G1 X121.211 Y55.284 E0.01474
G1 X121.369 Y55.727 E0.01473
G1 X121.570 Y56.152 E0.01475
G1 X121.813 Y56.555 E0.01476
G1 X122.093 Y56.934 E0.01475
G1 X122.409 Y57.281 E0.01473
G1 X122.757 Y57.598 E0.01476
G1 X123.135 Y57.877 E0.01473
G1 X123.538 Y58.120 E0.01475
G1 X123.963 Y58.321 E0.01475
G1 X124.406 Y58.479 E0.01473
G1 X124.586 Y58.524 E0.00582
G1 X124.586 Y56.806 E0.05388
G1 X124.360 Y56.712 E0.00767
G1 X123.937 Y56.453 E0.01556
G1 X123.560 Y56.130 E0.01556
G1 X123.238 Y55.753 E0.01556
G1 X122.978 Y55.330 E0.01556
G1 X122.788 Y54.871 E0.01557
G1 X122.672 Y54.388 E0.01558
G1 X122.633 Y53.893 E0.01556
G1 X122.672 Y53.398 E0.01556
G1 X122.788 Y52.916 E0.01555
G1 X122.978 Y52.458 E0.01557
G1 X123.238 Y52.033 E0.01558
G1 X123.560 Y51.656 E0.01556
G1 X123.937 Y51.334 E0.01556
G1 X124.360 Y51.075 E0.01557
G1 X124.819 Y50.885 E0.01556
G1 X125.083 Y50.822 E0.00851
G1 X125.083 Y47.682 E0.09843
G1 X126.511 Y47.682 E0.04477
G1 X126.511 Y50.822 E0.09844
G1 X126.774 Y50.885 E0.00848
G1 X127.233 Y51.074 E0.01555
G1 X127.657 Y51.334 E0.01559
G1 X128.034 Y51.656 E0.01556
G1 X128.357 Y52.033 E0.01556
G1 X128.616 Y52.458 E0.01559
G1 X128.805 Y52.916 E0.01555
G1 X128.921 Y53.398 E0.01554
G1 X128.961 Y53.893 E0.01557
G1 X128.921 Y54.388 E0.01557
G1 X128.805 Y54.871 E0.01557
G1 X128.616 Y55.330 E0.01556
G1 X128.356 Y55.753 E0.01556
G1 X128.034 Y56.130 E0.01556
G1 X127.657 Y56.453 E0.01556
G1 X127.233 Y56.712 E0.01558
G1 X127.007 Y56.806 E0.00766
G1 X127.007 Y58.524 E0.05388
G1 X127.188 Y58.479 E0.00585
G1 X127.631 Y58.321 E0.01473
G1 X128.056 Y58.120 E0.01475
G1 X128.459 Y57.877 E0.01475
G1 X128.837 Y57.598 E0.01473
G1 X129.185 Y57.282 E0.01476
G1 X129.501 Y56.934 E0.01471
G1 X129.781 Y56.555 E0.01477
G1 X130.023 Y56.152 E0.01474
G1 X130.224 Y55.727 E0.01476
G1 X130.383 Y55.284 E0.01474
G1 X130.497 Y54.828 E0.01473
G1 X130.566 Y54.364 E0.01473
G1 X130.589 Y53.893 E0.01477
G1 X130.566 Y53.424 E0.01474
G1 X130.456 Y52.685 E0.02341
G1 X131.891 Y52.685 E0.04498
G1 X131.979 Y53.285 E0.01900
G1 X132.009 Y53.893 E0.01910
G1 X131.979 Y54.503 E0.01914
G1 X131.890 Y55.105 E0.01909
G1 X131.742 Y55.697 E0.01914
G1 X131.536 Y56.271 E0.01910
G1 X131.277 Y56.822 E0.01912
G1 X130.963 Y57.345 E0.01912
G1 X130.600 Y57.835 E0.01911
G1 X130.190 Y58.287 E0.01914
G1 X129.738 Y58.696 E0.01909
G1 X129.249 Y59.059 E0.01912
G1 X128.725 Y59.373 E0.01914
G1 X128.174 Y59.634 E0.01911
G1 X127.600 Y59.838 E0.01912
G1 X127.009 Y59.986 E0.01910
G1 X126.406 Y60.076 E0.01913
G1 X125.797 Y60.107 E0.01911
G1 X125.187 Y60.076 E0.01914
G1 X124.585 Y59.986 E0.01910
G1 X123.993 Y59.838 E0.01913
G1 X123.420 Y59.634 E0.01909
G1 X122.868 Y59.373 E0.01914
G1 X122.345 Y59.059 E0.01911
G1 X121.856 Y58.696 E0.01911
G1 X121.403 Y58.287 E0.01912
G1 X120.994 Y57.835 E0.01912
G1 X120.631 Y57.345 E0.01911
G1 X120.318 Y56.822 E0.01911
G1 X120.057 Y56.271 E0.01913
G1 X119.852 Y55.697 E0.01909
G1 X119.704 Y55.105 E0.01913
G1 X119.614 Y54.503 E0.01910
G1 X119.584 Y53.893 E0.01914
G1 X119.614 Y53.285 E0.01911
G1 X119.694 Y52.745 E0.01712
G1 X119.716 Y52.285 F10800.000
G1 F8640
G1 X121.138 Y52.685 E-0.33355
G1 X121.028 Y53.424 E-0.17240
G1 X121.005 Y53.893 E-0.10852
G1 X121.028 Y54.364 E-0.10874
G1 X121.052 Y54.521 E-0.03678
G1 E-0.04000 F2100.00000
G1 Z0.800 F10800.000
G1 X124.706 Y47.305
G1 Z0.200
G1 E0.80000 F2100.00000
G1 F1500
G1 X126.888 Y47.305 E0.06842
G1 X126.888 Y50.524 E0.10094
G1 X127.404 Y50.737 E0.01750
G1 X127.879 Y51.028 E0.01746
G1 X128.301 Y51.389 E0.01742
G1 X128.663 Y51.811 E0.01743
G1 X128.953 Y52.286 E0.01746
G1 X129.165 Y52.799 E0.01741
G1 X129.295 Y53.339 E0.01739
G1 X129.339 Y53.893 E0.01744
G1 X129.295 Y54.448 E0.01744
G1 X129.165 Y54.988 E0.01742
G1 X128.953 Y55.501 E0.01742
G1 X128.662 Y55.976 E0.01743
G1 X128.301 Y56.398 E0.01741
G1 X127.879 Y56.759 E0.01742
G1 X127.384 Y57.057 E0.01812
G1 X127.384 Y58.009 E0.02983
G1 X127.878 Y57.787 E0.01696
G1 X128.249 Y57.564 E0.01359
G1 X128.597 Y57.306 E0.01358
G1 X128.918 Y57.015 E0.01359
G1 X129.209 Y56.694 E0.01355
G1 X129.467 Y56.346 E0.01361
G1 X129.690 Y55.974 E0.01357
G1 X129.875 Y55.582 E0.01361
G1 X130.022 Y55.174 E0.01358
G1 X130.127 Y54.755 E0.01356
G1 X130.190 Y54.327 E0.01357
G1 X130.211 Y53.893 E0.01361
G1 X130.190 Y53.461 E0.01358
G1 X130.019 Y52.308 E0.03653
G1 X132.216 Y52.308 E0.06889
G1 X132.355 Y53.248 E0.02978
G1 X132.387 Y53.893 E0.02026
G1 X132.355 Y54.540 E0.02030
G1 X132.261 Y55.179 E0.02025
G1 X132.103 Y55.807 E0.02031
G1 X131.885 Y56.415 E0.02025
G1 X131.610 Y57.000 E0.02027
G1 X131.277 Y57.555 E0.02029
G1 X130.891 Y58.074 E0.02027
G1 X130.457 Y58.554 E0.02030
G1 X129.978 Y58.988 E0.02025
G1 X129.459 Y59.373 E0.02028
G1 X128.903 Y59.706 E0.02030
G1 X128.319 Y59.982 E0.02027
G1 X127.709 Y60.200 E0.02029
G1 X127.083 Y60.357 E0.02025
G1 X126.443 Y60.452 E0.02029
G1 X125.797 Y60.484 E0.02028
G1 X125.150 Y60.452 E0.02031
G1 X124.511 Y60.357 E0.02025
G1 X123.884 Y60.200 E0.02028
G1 X123.275 Y59.982 E0.02026
G1 X122.690 Y59.706 E0.02030
G1 X122.135 Y59.373 E0.02028
G1 X121.616 Y58.988 E0.02026
G1 X121.136 Y58.554 E0.02029
G1 X120.703 Y58.074 E0.02029
G1 X120.317 Y57.555 E0.02026
G1 X119.985 Y57.000 E0.02028
G1 X119.708 Y56.415 E0.02030
G1 X119.490 Y55.807 E0.02026
G1 X119.334 Y55.179 E0.02028
G1 X119.238 Y54.540 E0.02025
G1 X119.206 Y53.893 E0.02031
G1 X119.238 Y53.247 E0.02028
G1 X119.378 Y52.308 E0.02977
G1 X121.575 Y52.308 E0.06887
G1 X121.404 Y53.461 E0.03653
G1 X121.383 Y53.893 E0.01358
G1 X121.404 Y54.327 E0.01360
G1 X121.468 Y54.755 E0.01357
G1 X121.573 Y55.175 E0.01358
G1 X121.718 Y55.582 E0.01357
G1 X121.903 Y55.974 E0.01358
G1 X122.127 Y56.346 E0.01361
G1 X122.384 Y56.694 E0.01359
G1 X122.675 Y57.014 E0.01356
G1 X122.997 Y57.306 E0.01361
G1 X123.345 Y57.564 E0.01358
G1 X123.716 Y57.787 E0.01359
G1 X124.209 Y58.008 E0.01693
G1 X124.209 Y57.057 E0.02982
G1 X123.715 Y56.759 E0.01811
G1 X123.293 Y56.398 E0.01741
G1 X122.932 Y55.976 E0.01741
G1 X122.642 Y55.502 E0.01741
G1 X122.428 Y54.988 E0.01744
G1 X122.298 Y54.447 E0.01746
G1 X122.255 Y53.893 E0.01741
G1 X122.298 Y53.339 E0.01742
G1 X122.428 Y52.799 E0.01743
G1 X122.641 Y52.286 E0.01742
G1 X122.931 Y51.811 E0.01744
G1 X123.293 Y51.389 E0.01742
G1 X123.715 Y51.028 E0.01741
G1 X124.189 Y50.737 E0.01743
G1 X124.706 Y50.524 E0.01754
G1 X124.706 Y47.365 E0.09905
G1 F8640
G1 X126.888 Y47.305 E-0.50405
G1 X126.888 Y48.414 E-0.25595
G1 E-0.04000 F2100.00000
G1 Z0.800 F10800.000
G1 X127.439 Y50.446
G1 Z0.200
G1 E0.80000 F2100.00000
G1 F1500
G1 X127.171 Y50.178 E0.01196
G1 X127.171 Y49.642 E0.01689
G1 X129.715 Y52.186 E0.11339
G1 X129.692 Y52.025 E0.00512
G1 X130.091 Y52.025 E0.01257
G1 X127.171 Y49.106 E0.13011
G1 X127.171 Y48.570 E0.01689
G1 X130.627 Y52.025 E0.15400
G1 X131.162 Y52.025 E0.01689
G1 X127.171 Y48.034 E0.17788
G1 X127.171 Y47.498 E0.01689
G1 X131.868 Y52.195 E0.20933
G1 F8640
G1 X129.541 Y49.868 E-0.76000
G1 E-0.04000 F2100.00000
G1 Z0.800 F10800.000
G1 X129.244 Y52.251
G1 Z0.200
G1 E0.80000 F2100.00000
G1 F1500
G1 X129.809 Y52.815 E0.02514
G1 X129.902 Y53.444 E0.02004
G1 X129.519 Y53.062 E0.01706
G1 X129.575 Y53.294 E0.00754
G1 X129.606 Y53.685 E0.01234
G1 X129.923 Y54.001 E0.01412
G1 X129.879 Y54.494 E0.01558
G1 X129.597 Y54.212 E0.01258
G1 X129.575 Y54.492 E0.00886
G1 X129.530 Y54.680 E0.00610
G1 X129.789 Y54.939 E0.01155
G1 X129.659 Y55.346 E0.01344
G1 X129.422 Y55.108 E0.01060
G1 X129.265 Y55.487 E0.01293
G1 X129.497 Y55.720 E0.01036
G1 X129.306 Y56.064 E0.01242
G1 X129.079 Y55.837 E0.01013
G1 X128.872 Y56.166 E0.01225
G1 X129.088 Y56.382 E0.00964
G1 X128.845 Y56.675 E0.01199
G1 X128.625 Y56.455 E0.00981
G1 X128.502 Y56.598 E0.00594
G1 X128.356 Y56.723 E0.00603
G1 X128.577 Y56.943 E0.00981
G1 X128.418 Y57.087 E0.00676
G1 X128.284 Y57.186 E0.00524
G1 X128.068 Y56.970 E0.00964
G1 X127.737 Y57.175 E0.01227
G1 X128.090 Y57.528 E0.01572
G1 F8640
G1 X127.737 Y57.175 E-0.11521
G1 X128.068 Y56.970 E-0.08988
G1 X128.284 Y57.186 E-0.07064
G1 X128.418 Y57.087 E-0.03843
G1 X128.577 Y56.943 E-0.04955
G1 X128.356 Y56.723 E-0.07189
G1 X128.502 Y56.598 E-0.04422
G1 X128.625 Y56.455 E-0.04356
G1 X128.845 Y56.675 E-0.07186
G1 X129.088 Y56.382 E-0.08787
G1 X128.872 Y56.166 E-0.07066
G1 X128.886 Y56.143 E-0.00622
G1 E-0.04000 F2100.00000
G1 Z0.800 F10800.000
G1 X124.096 Y57.822
G1 Z0.200
G1 E0.80000 F2100.00000
G1 F1500
G1 X122.211 Y55.936 E0.08401
G1 X121.980 Y55.474 E0.01628
G1 X121.824 Y55.014 E0.01533
G1 X122.352 Y55.542 E0.02353
G1 X122.158 Y55.076 E0.01588
