; generated by Slic3r Prusa Edition 1.41.0+win64 on 2018-11-05 at 09:19:39

; 

; external perimeters extrusion width = 0.45mm
; perimeters extrusion width = 0.45mm
; infill extrusion width = 0.45mm
; solid infill extrusion width = 0.45mm
; top infill extrusion width = 0.40mm
; first layer extrusion width = 0.42mm

M201 X1000 Y1000 Z1000 E5000 ; sets maximum accelerations, mm/sec^2
M203 X200 Y200 Z12 E120 ; sets maximum feedrates, mm/sec
M204 P1250 R1250 T1250 ; sets acceleration (P, T) and retract acceleration (R), mm/sec^2
M205 X8.00 Y8.00 Z0.40 E1.50 ; sets the jerk limits, mm/sec
M205 S0 T0 ; sets the minimum extruding and travel feed rate, mm/sec
M107
M115 U3.4.1 ; tell printer latest fw version
M83  ; extruder relative mode
M104 S230 ; set extruder temp
M140 S85 ; set bed temp
M190 S85 ; wait for bed temp
M109 S230 ; wait for extruder temp
G28 W ; home all without mesh bed level
G80 ; mesh bed leveling
G1 Y-3.0 F1000.0 ; go outside print area
G92 E0.0
G1 X60.0 E9.0  F1000.0 ; intro line
M73 Q0 S39
M73 P0 R39
G1 X100.0 E12.5  F1000.0 ; intro line
G92 E0.0
M221 S95
M900 K45; Filament gcode
G21 ; set units to millimeters
G90 ; use absolute coordinates
M83 ; use relative distances for extrusion
;BEFORE_LAYER_CHANGE
G92 E0.0
;0.2


G1 E-0.80000 F2100.00000
G1 Z0.600 F10800.000
;AFTER_LAYER_CHANGE
;0.2
G1 X32.930 Y35.786
G1 Z0.200
G1 E0.80000 F2100.00000
M204 S1000
G1 F1200
G1 X33.790 Y35.171 E0.03316
G1 X38.557 Y32.250 E0.17531
G1 X39.232 Y31.905 E0.02374
G1 X45.242 Y30.009 E0.19762
G1 X46.048 Y29.852 E0.02574
G1 X46.907 Y29.811 E0.02695
G1 X52.913 Y29.953 E0.18836
G1 X101.069 Y33.963 E1.51513
G1 X103.115 Y34.275 E0.06488
G1 X104.438 Y34.586 E0.04261
G1 X106.402 Y35.213 E0.06465
G1 X108.399 Y36.075 E0.06820
G1 X110.303 Y37.138 E0.06838
G1 X112.095 Y38.391 E0.06857
G1 X113.751 Y39.820 E0.06857
G1 X115.243 Y41.395 E0.06801
G1 X116.585 Y43.136 E0.06893
G1 X117.732 Y44.985 E0.06820
G1 X118.691 Y46.950 E0.06856
G1 X119.408 Y48.886 E0.06473
G1 X119.964 Y51.001 E0.06857
G1 X120.202 Y52.356 E0.04315
G1 X120.399 Y54.426 E0.06519
G1 X120.382 Y56.706 E0.07150
G1 X120.154 Y58.806 E0.06623
G1 X119.690 Y60.985 E0.06987
G1 X119.001 Y63.114 E0.07017
G1 X118.173 Y65.004 E0.06470
G1 X116.846 Y67.307 E0.08332
G1 X115.629 Y68.969 E0.06457
G1 X113.843 Y70.923 E0.08302
G1 X111.756 Y72.697 E0.08587
G1 X109.467 Y74.190 E0.08570
G1 X107.082 Y75.349 E0.08314
G1 X105.147 Y76.042 E0.06444
G1 X102.522 Y76.667 E0.08461
G1 X100.674 Y76.903 E0.05842
G1 X52.368 Y80.321 E1.51839
G1 X45.808 Y80.127 E0.20578
G1 X39.842 Y78.506 E0.19384
G1 X38.729 Y78.089 E0.03726
G1 X33.440 Y74.614 E0.19841
G1 X32.773 Y74.088 E0.02665
G1 X28.505 Y69.271 E0.20178
G1 X28.042 Y68.621 E0.02501
G1 X27.666 Y67.893 E0.02568
G1 X25.159 Y62.144 E0.19665
G1 X24.218 Y55.943 E0.19666
G1 X24.145 Y55.157 E0.02474
G1 X24.173 Y54.406 E0.02356
G1 X25.007 Y48.494 E0.18722
G1 X25.191 Y47.735 E0.02447
G1 X25.492 Y46.974 E0.02567
G1 X28.208 Y41.339 E0.19614
G1 X28.648 Y40.730 E0.02356
G1 X32.175 Y36.558 E0.17129
G1 X32.888 Y35.829 E0.03196
G1 F8640
G1 X33.790 Y35.171 E-0.25785
G1 X35.644 Y34.035 E-0.50214
G1 E-0.04000 F2100.00000
G1 Z0.800 F10800.000
G1 X28.530 Y41.535
G1 Z0.200
G1 E0.80000 F2100.00000
G1 F1200
G1 X32.459 Y36.806 E0.19277
G1 X33.173 Y36.075 E0.03205
G1 X33.988 Y35.492 E0.03141
G1 X39.379 Y32.252 E0.19720
G1 X45.337 Y30.374 E0.19589
G1 X46.093 Y30.226 E0.02415
G1 X46.909 Y30.188 E0.02560
G1 X52.888 Y30.330 E0.18753
G1 X101.023 Y34.338 E1.51445
G1 X103.047 Y34.646 E0.06420
G1 X104.329 Y34.947 E0.04129
G1 X106.264 Y35.564 E0.06367
G1 X108.211 Y36.403 E0.06648
G1 X110.097 Y37.454 E0.06772
G1 X111.850 Y38.678 E0.06702
G1 X113.478 Y40.080 E0.06737
G1 X114.889 Y41.564 E0.06419
G1 X116.262 Y43.332 E0.07019
G1 X117.346 Y45.069 E0.06420
G1 X117.962 Y46.256 E0.04194
G1 X118.789 Y48.234 E0.06723
G1 X119.388 Y50.180 E0.06384
G1 X119.813 Y52.287 E0.06738
G1 X120.021 Y54.413 E0.06700
G1 X120.013 Y56.574 E0.06773
G1 X119.783 Y58.734 E0.06813
G1 X119.329 Y60.877 E0.06867
G1 X118.649 Y62.978 E0.06924
G1 X117.845 Y64.815 E0.06289
G1 X116.528 Y67.104 E0.08279
G1 X115.344 Y68.722 E0.06286
G1 X113.582 Y70.650 E0.08191
G1 X111.532 Y72.394 E0.08437
G1 X109.283 Y73.861 E0.08421
G1 X106.933 Y75.003 E0.08191
G1 X105.041 Y75.680 E0.06302
G1 X102.455 Y76.296 E0.08333
G1 X100.645 Y76.527 E0.05721
G1 X52.361 Y79.944 E1.51769
G1 X45.876 Y79.756 E0.20342
G1 X39.950 Y78.144 E0.19258
G1 X38.916 Y77.760 E0.03459
G1 X33.655 Y74.304 E0.19736
G1 X33.032 Y73.814 E0.02485
G1 X28.798 Y69.034 E0.20019
G1 X28.365 Y68.425 E0.02345
G1 X28.009 Y67.734 E0.02437
G1 X25.521 Y62.037 E0.19493
G1 X24.592 Y55.890 E0.19490
G1 X24.548 Y54.442 E0.04542
G1 X25.377 Y48.565 E0.18611
G1 X25.552 Y47.844 E0.02327
G1 X25.839 Y47.122 E0.02436
G1 X28.504 Y41.589 E0.19254
; PURGING FINISHED
G1 F8640
G1 X30.602 Y39.053 E-0.76000
G1 E-0.04000 F2100.00000
G1 Z0.800 F10800.000
G1 X90.945 Y53.734
G1 Z0.200
G1 E0.80000 F2100.00000
G1 F1200
G1 X91.164 Y52.916 E0.02654
G1 X91.468 Y52.125 E0.02654
G1 X91.852 Y51.371 E0.02654
G1 X92.313 Y50.661 E0.02654
G1 X92.846 Y50.003 E0.02654
G1 X93.444 Y49.405 E0.02654
G1 X94.102 Y48.872 E0.02654
G1 X94.812 Y48.411 E0.02654
G1 X95.567 Y48.026 E0.02654
G1 X96.357 Y47.723 E0.02654
G1 X97.175 Y47.504 E0.02654
G1 X98.011 Y47.371 E0.02654
G1 X98.740 Y47.333 E0.02291
G1 X99.698 Y47.371 E0.03004
G1 X100.538 Y47.504 E0.02666
G1 X101.356 Y47.723 E0.02654
G1 X102.146 Y48.026 E0.02654
G1 X102.900 Y48.411 E0.02654
G1 X103.610 Y48.872 E0.02654
G1 X104.268 Y49.405 E0.02654
G1 X104.867 Y50.003 E0.02654
G1 X105.400 Y50.661 E0.02654
G1 X105.861 Y51.371 E0.02654
G1 X106.245 Y52.125 E0.02654
G1 X106.548 Y52.916 E0.02654
G1 X106.767 Y53.734 E0.02654
G1 X106.900 Y54.570 E0.02654
G1 X106.944 Y55.415 E0.02654
G1 X106.900 Y56.260 E0.02654
G1 X106.767 Y57.097 E0.02654
G1 X106.548 Y57.914 E0.02654
G1 X106.245 Y58.705 E0.02654
G1 X105.861 Y59.459 E0.02654
G1 X105.400 Y60.169 E0.02654
G1 X104.867 Y60.827 E0.02654
G1 X104.268 Y61.426 E0.02654
G1 X103.610 Y61.958 E0.02654
G1 X102.900 Y62.419 E0.02654
G1 X102.146 Y62.804 E0.02654
G1 X101.356 Y63.107 E0.02654
G1 X100.538 Y63.326 E0.02654
G1 X99.702 Y63.459 E0.02654
G1 X98.856 Y63.503 E0.02654
G1 X98.011 Y63.459 E0.02654
G1 X97.175 Y63.326 E0.02654
G1 X96.357 Y63.107 E0.02654
G1 X95.567 Y62.804 E0.02654
G1 X94.812 Y62.419 E0.02654
G1 X94.102 Y61.958 E0.02654
G1 X93.444 Y61.426 E0.02654
G1 X92.846 Y60.827 E0.02654
G1 X92.313 Y60.169 E0.02654
G1 X91.852 Y59.459 E0.02654
G1 X91.468 Y58.705 E0.02654
G1 X91.164 Y57.914 E0.02654
G1 X90.945 Y57.097 E0.02654
G1 X90.813 Y56.260 E0.02654
G1 X90.768 Y55.415 E0.02654
G1 X90.813 Y54.570 E0.02654
G1 X90.936 Y53.793 E0.02466
G1 X91.308 Y53.852 F10800.000
G1 F1200
G1 X91.523 Y53.032 E0.02656
G1 X91.813 Y52.279 E0.02530
G1 X92.179 Y51.560 E0.02530
G1 X92.619 Y50.883 E0.02530
G1 X93.126 Y50.256 E0.02530
G1 X93.697 Y49.685 E0.02530
G1 X94.324 Y49.177 E0.02530
G1 X95.001 Y48.738 E0.02530
G1 X95.720 Y48.371 E0.02530
G1 X96.474 Y48.082 E0.02530
G1 X97.253 Y47.873 E0.02530
G1 X98.050 Y47.747 E0.02530
G1 X98.743 Y47.711 E0.02175
G1 X99.661 Y47.747 E0.02880
G1 X100.459 Y47.873 E0.02535
G1 X101.239 Y48.082 E0.02530
G1 X101.992 Y48.371 E0.02530
G1 X102.711 Y48.738 E0.02530
G1 X103.388 Y49.177 E0.02530
G1 X104.015 Y49.685 E0.02530
G1 X104.586 Y50.256 E0.02530
G1 X105.094 Y50.883 E0.02530
G1 X105.534 Y51.560 E0.02530
G1 X105.900 Y52.279 E0.02530
G1 X106.189 Y53.032 E0.02530
G1 X106.398 Y53.812 E0.02530
G1 X106.524 Y54.609 E0.02530
G1 X106.567 Y55.415 E0.02530
G1 X106.524 Y56.221 E0.02530
G1 X106.398 Y57.018 E0.02530
G1 X106.189 Y57.798 E0.02530
G1 X105.900 Y58.551 E0.02530
G1 X105.534 Y59.270 E0.02530
G1 X105.094 Y59.947 E0.02530
G1 X104.586 Y60.574 E0.02530
G1 X104.015 Y61.145 E0.02530
G1 X103.388 Y61.653 E0.02530
G1 X102.711 Y62.092 E0.02530
G1 X101.992 Y62.459 E0.02530
G1 X101.239 Y62.748 E0.02530
G1 X100.459 Y62.957 E0.02530
G1 X99.662 Y63.083 E0.02530
G1 X98.856 Y63.125 E0.02530
G1 X98.050 Y63.083 E0.02531
G1 X97.253 Y62.957 E0.02530
G1 X96.474 Y62.748 E0.02530
G1 X95.720 Y62.459 E0.02530
G1 X95.001 Y62.092 E0.02530
G1 X94.324 Y61.653 E0.02530
G1 X93.697 Y61.145 E0.02530
G1 X93.126 Y60.574 E0.02530
G1 X92.619 Y59.947 E0.02530
G1 X92.179 Y59.270 E0.02530
G1 X91.813 Y58.551 E0.02530
G1 X91.523 Y57.798 E0.02530
G1 X91.314 Y57.018 E0.02530
G1 X91.188 Y56.221 E0.02530
G1 X91.146 Y55.415 E0.02530
G1 X91.188 Y54.609 E0.02530
G1 X91.299 Y53.911 E0.02216
G1 X91.010 Y53.585 F10800.000
G1 F8640
G1 X91.523 Y53.032 E-0.20938
G1 X91.813 Y52.279 E-0.18635
G1 X92.179 Y51.560 E-0.18635
G1 X92.599 Y50.914 E-0.17792
G1 E-0.04000 F2100.00000
G1 Z0.800 F10800.000
G1 X83.719 Y52.532
G1 Z0.200
G1 E0.80000 F2100.00000
G1 F1200
G1 X83.937 Y51.548 E0.03162
G1 X84.152 Y50.796 E0.02452
G1 X84.405 Y50.057 E0.02450
G1 X84.695 Y49.331 E0.02451
G1 X85.022 Y48.621 E0.02451
G1 X85.384 Y47.928 E0.02451
G1 X85.781 Y47.255 E0.02451
G1 X86.212 Y46.602 E0.02451
G1 X86.675 Y45.972 E0.02451
G1 X87.169 Y45.367 E0.02451
G1 X87.694 Y44.787 E0.02451
G1 X88.247 Y44.235 E0.02451
G1 X88.827 Y43.712 E0.02451
G1 X89.434 Y43.218 E0.02451
G1 X90.064 Y42.756 E0.02451
G1 X90.717 Y42.327 E0.02451
G1 X91.391 Y41.931 E0.02451
G1 X92.085 Y41.570 E0.02451
G1 X92.795 Y41.244 E0.02451
G1 X93.522 Y40.955 E0.02451
G1 X94.262 Y40.703 E0.02451
G1 X95.014 Y40.489 E0.02451
G1 X95.775 Y40.313 E0.02451
G1 X96.545 Y40.177 E0.02451
G1 X97.320 Y40.079 E0.02451
G1 X98.100 Y40.021 E0.02451
G1 X98.881 Y40.002 E0.02451
G1 X99.663 Y40.023 E0.02451
G1 X100.442 Y40.084 E0.02451
G1 X101.218 Y40.184 E0.02451
G1 X101.987 Y40.324 E0.02451
G1 X102.748 Y40.502 E0.02451
G1 X103.499 Y40.718 E0.02451
G1 X104.238 Y40.973 E0.02451
G1 X104.964 Y41.264 E0.02451
G1 X105.673 Y41.592 E0.02451
G1 X106.365 Y41.955 E0.02451
G1 X107.038 Y42.353 E0.02451
G1 X107.690 Y42.785 E0.02451
G1 X108.319 Y43.249 E0.02451
G1 X108.923 Y43.744 E0.02451
G1 X109.502 Y44.270 E0.02451
G1 X110.054 Y44.824 E0.02451
G1 X110.576 Y45.405 E0.02451
G1 X111.069 Y46.012 E0.02451
G1 X111.530 Y46.644 E0.02451
G1 X111.958 Y47.298 E0.02451
G1 X112.353 Y47.972 E0.02451
G1 X112.713 Y48.666 E0.02451
G1 X113.037 Y49.377 E0.02451
G1 X113.325 Y50.104 E0.02451
G1 X113.576 Y50.845 E0.02451
G1 X113.789 Y51.597 E0.02451
G1 X113.963 Y52.359 E0.02451
G1 X114.098 Y53.129 E0.02451
G1 X114.195 Y53.904 E0.02451
G1 X114.252 Y54.684 E0.02451
G1 X114.269 Y55.465 E0.02451
G1 X114.247 Y56.247 E0.02451
G1 X114.185 Y57.026 E0.02450
G1 X114.079 Y57.826 E0.02531
G1 X113.932 Y58.620 E0.02530
G1 X113.744 Y59.404 E0.02530
G1 X113.515 Y60.178 E0.02530
G1 X113.245 Y60.938 E0.02530
G1 X112.936 Y61.685 E0.02535
G1 X112.657 Y62.277 E0.02051
G1 X112.353 Y62.858 E0.02056
G1 X112.024 Y63.425 E0.02056
G1 X111.672 Y63.978 E0.02056
G1 X111.296 Y64.515 E0.02056
G1 X110.897 Y65.036 E0.02056
G1 X110.477 Y65.539 E0.02056
G1 X110.036 Y66.025 E0.02056
G1 X109.575 Y66.490 E0.02056
G1 X109.094 Y66.936 E0.02056
G1 X108.595 Y67.361 E0.02056
G1 X108.078 Y67.765 E0.02056
G1 X107.545 Y68.146 E0.02056
G1 X106.995 Y68.504 E0.02056
G1 X106.431 Y68.838 E0.02056
G1 X105.854 Y69.148 E0.02056
G1 X105.263 Y69.433 E0.02056
G1 X104.661 Y69.693 E0.02056
G1 X104.049 Y69.927 E0.02056
G1 X103.427 Y70.135 E0.02056
G1 X102.797 Y70.316 E0.02056
G1 X102.159 Y70.470 E0.02056
G1 X101.516 Y70.597 E0.02056
G1 X100.868 Y70.696 E0.02056
G1 X100.216 Y70.768 E0.02056
G1 X99.562 Y70.812 E0.02056
G1 X98.907 Y70.828 E0.02056
G1 X98.251 Y70.816 E0.02056
G1 X97.597 Y70.776 E0.02056
G1 X96.945 Y70.709 E0.02056
G1 X96.296 Y70.614 E0.02056
G1 X95.652 Y70.491 E0.02056
G1 X95.013 Y70.341 E0.02056
G1 X94.382 Y70.164 E0.02056
G1 X93.759 Y69.961 E0.02056
G1 X93.145 Y69.731 E0.02056
G1 X92.541 Y69.475 E0.02056
G1 X91.949 Y69.193 E0.02056
G1 X91.369 Y68.887 E0.02056
G1 X90.803 Y68.557 E0.02056
G1 X90.251 Y68.202 E0.02056
G1 X89.715 Y67.825 E0.02056
G1 X89.196 Y67.425 E0.02056
G1 X88.694 Y67.003 E0.02056
G1 X88.210 Y66.560 E0.02056
G1 X87.746 Y66.097 E0.02056
G1 X87.302 Y65.615 E0.02056
G1 X86.878 Y65.115 E0.02056
G1 X86.477 Y64.596 E0.02056
G1 X86.097 Y64.062 E0.02056
G1 X85.741 Y63.511 E0.02056
G1 X85.409 Y62.946 E0.02056
G1 X85.101 Y62.367 E0.02056
G1 X84.817 Y61.776 E0.02056
G1 X84.559 Y61.173 E0.02056
G1 X84.327 Y60.560 E0.02055
G1 X84.122 Y59.938 E0.02055
G1 X83.943 Y59.307 E0.02056
G1 X83.791 Y58.668 E0.02059
G1 X83.664 Y58.024 E0.02056
G1 X83.567 Y57.379 E0.02047
G1 X83.503 Y56.732 E0.02039
G1 X83.451 Y55.648 E0.03402
G1 X83.472 Y54.629 E0.03195
G1 X83.524 Y53.850 E0.02448
G1 X83.619 Y53.078 E0.02439
G1 X83.708 Y52.592 E0.01552
G1 X83.337 Y52.524 F10800.000
G1 F1200
G1 X83.572 Y51.453 E0.03437
G1 X83.792 Y50.683 E0.02511
G1 X84.051 Y49.926 E0.02510
G1 X84.349 Y49.182 E0.02511
G1 X84.683 Y48.455 E0.02511
G1 X85.054 Y47.745 E0.02511
G1 X85.461 Y47.055 E0.02511
G1 X85.902 Y46.387 E0.02511
G1 X86.377 Y45.741 E0.02511
G1 X86.883 Y45.121 E0.02511
G1 X87.420 Y44.527 E0.02511
G1 X87.987 Y43.961 E0.02511
G1 X88.582 Y43.425 E0.02511
G1 X89.203 Y42.920 E0.02511
G1 X89.849 Y42.446 E0.02511
G1 X90.518 Y42.006 E0.02511
G1 X91.209 Y41.601 E0.02511
G1 X91.919 Y41.231 E0.02511
G1 X92.647 Y40.897 E0.02511
G1 X93.391 Y40.601 E0.02511
G1 X94.149 Y40.343 E0.02511
G1 X94.919 Y40.124 E0.02511
G1 X95.700 Y39.944 E0.02511
G1 X96.488 Y39.804 E0.02511
G1 X97.283 Y39.704 E0.02511
G1 X98.081 Y39.644 E0.02511
G1 X98.882 Y39.625 E0.02511
G1 X99.683 Y39.647 E0.02511
G1 X100.481 Y39.709 E0.02511
G1 X101.275 Y39.812 E0.02511
G1 X102.063 Y39.954 E0.02511
G1 X102.843 Y40.137 E0.02511
G1 X103.613 Y40.359 E0.02511
G1 X104.370 Y40.619 E0.02511
G1 X105.113 Y40.918 E0.02511
G1 X105.840 Y41.254 E0.02511
G1 X106.549 Y41.626 E0.02511
G1 X107.238 Y42.034 E0.02511
G1 X107.906 Y42.476 E0.02511
G1 X108.550 Y42.951 E0.02511
G1 X109.170 Y43.459 E0.02511
G1 X109.763 Y43.997 E0.02511
G1 X110.328 Y44.565 E0.02511
G1 X110.863 Y45.160 E0.02511
G1 X111.368 Y45.782 E0.02511
G1 X111.840 Y46.429 E0.02511
G1 X112.279 Y47.099 E0.02511
G1 X112.683 Y47.790 E0.02511
G1 X113.052 Y48.501 E0.02511
G1 X113.384 Y49.230 E0.02511
G1 X113.679 Y49.974 E0.02511
G1 X113.936 Y50.733 E0.02511
G1 X114.154 Y51.503 E0.02511
G1 X114.333 Y52.284 E0.02511
G1 X114.471 Y53.073 E0.02511
G1 X114.570 Y53.867 E0.02511
G1 X114.628 Y54.666 E0.02511
G1 X114.646 Y55.467 E0.02511
G1 X114.623 Y56.267 E0.02511
G1 X114.560 Y57.065 E0.02511
G1 X114.452 Y57.885 E0.02592
G1 X114.301 Y58.698 E0.02592
G1 X114.108 Y59.502 E0.02592
G1 X113.873 Y60.294 E0.02592
G1 X113.597 Y61.074 E0.02592
G1 X113.281 Y61.838 E0.02594
G1 X112.995 Y62.445 E0.02104
G1 X112.683 Y63.040 E0.02106
G1 X112.346 Y63.621 E0.02106
G1 X111.985 Y64.188 E0.02106
G1 X111.600 Y64.738 E0.02106
G1 X111.192 Y65.271 E0.02106
G1 X110.762 Y65.787 E0.02106
G1 X110.310 Y66.284 E0.02106
G1 X109.837 Y66.761 E0.02106
G1 X109.345 Y67.218 E0.02106
G1 X108.833 Y67.654 E0.02106
G1 X108.304 Y68.067 E0.02106
G1 X107.757 Y68.457 E0.02106
G1 X107.194 Y68.824 E0.02106
G1 X106.617 Y69.166 E0.02106
G1 X106.025 Y69.484 E0.02106
G1 X105.420 Y69.776 E0.02106
G1 X104.803 Y70.042 E0.02106
G1 X104.176 Y70.282 E0.02106
G1 X103.539 Y70.495 E0.02106
G1 X102.893 Y70.680 E0.02106
G1 X102.240 Y70.838 E0.02106
G1 X101.581 Y70.968 E0.02106
G1 X100.917 Y71.070 E0.02106
G1 X100.250 Y71.143 E0.02106
G1 X99.579 Y71.188 E0.02106
G1 X98.908 Y71.205 E0.02106
G1 X98.236 Y71.193 E0.02106
G1 X97.566 Y71.152 E0.02106
G1 X96.898 Y71.083 E0.02106
G1 X96.233 Y70.986 E0.02106
G1 X95.573 Y70.860 E0.02106
G1 X94.919 Y70.706 E0.02106
G1 X94.273 Y70.525 E0.02106
G1 X93.634 Y70.316 E0.02106
G1 X93.005 Y70.081 E0.02106
G1 X92.387 Y69.819 E0.02106
G1 X91.780 Y69.531 E0.02106
G1 X91.186 Y69.217 E0.02106
G1 X90.606 Y68.878 E0.02106
G1 X90.041 Y68.515 E0.02106
G1 X89.492 Y68.128 E0.02106
G1 X88.960 Y67.719 E0.02106
G1 X88.445 Y67.287 E0.02106
G1 X87.950 Y66.833 E0.02106
G1 X87.474 Y66.359 E0.02106
G1 X87.019 Y65.865 E0.02106
G1 X86.585 Y65.352 E0.02106
G1 X86.174 Y64.821 E0.02106
G1 X85.785 Y64.273 E0.02106
G1 X85.420 Y63.709 E0.02106
G1 X85.080 Y63.130 E0.02106
G1 X84.764 Y62.537 E0.02106
G1 X84.474 Y61.932 E0.02106
G1 X84.210 Y61.314 E0.02106
G1 X83.972 Y60.686 E0.02106
G1 X83.762 Y60.048 E0.02106
G1 X83.578 Y59.402 E0.02106
