; generated by Slic3r Prusa Edition 1.41.0+win64 on 2018-10-29 at 17:05:10

; 

; external perimeters extrusion width = 0.45mm
; perimeters extrusion width = 0.45mm
; infill extrusion width = 0.45mm
; solid infill extrusion width = 0.45mm
; top infill extrusion width = 0.40mm
; first layer extrusion width = 0.42mm

M201 X1000 Y1000 Z1000 E5000 ; sets maximum accelerations, mm/sec^2
M203 X200 Y200 Z12 E120 ; sets maximum feedrates, mm/sec
M204 P1250 R1250 T1250 ; sets acceleration (P, T) and retract acceleration (R), mm/sec^2
M205 X8.00 Y8.00 Z0.40 E1.50 ; sets the jerk limits, mm/sec
M205 S0 T0 ; sets the minimum extruding and travel feed rate, mm/sec
M107
M115 U3.4.0 ; tell printer latest fw version
M83  ; extruder relative mode
M104 S215 ; set extruder temp
M140 S60 ; set bed temp
M190 S60 ; wait for bed temp
M109 S215 ; wait for extruder temp
G28 W ; home all without mesh bed level
G80 ; mesh bed leveling
G1 Y-3.0 F1000.0 ; go outside print area
G92 E0.0
G1 X60.0 E9.0  F1000.0 ; intro line
M73 Q0 S40
M73 P0 R40
G1 X100.0 E12.5  F1000.0 ; intro line
G92 E0.0
M221 S95
M900 K30; Filament gcode
G21 ; set units to millimeters
G90 ; use absolute coordinates
M83 ; use relative distances for extrusion
;BEFORE_LAYER_CHANGE
G92 E0.0
;0.2


G1 E-0.80000 F2100.00000
G1 Z0.600 F10800.000
;AFTER_LAYER_CHANGE
;0.2
G1 X52.266 Y90.477
G1 Z0.200
G1 E0.80000 F2100.00000
M204 S1000
G1 F1500
G1 X53.010 Y90.197 E0.02492
G1 X53.816 Y90.062 E0.02562
G1 X78.046 Y89.301 E0.76010
G1 X82.741 Y89.300 E0.14719
G1 X83.893 Y89.463 E0.03650
G1 X84.964 Y89.942 E0.03677
G1 X85.867 Y90.706 E0.03710
G1 X86.515 Y91.681 E0.03670
G1 X87.830 Y95.206 E0.11797
G1 X89.914 Y104.296 E0.29238
G1 X90.437 Y111.231 E0.21808
G1 X90.888 Y120.801 E0.30038
G1 X90.816 Y121.561 E0.02393
G1 X90.612 Y122.280 E0.02345
G1 X90.282 Y122.956 E0.02357
G1 X89.831 Y123.567 E0.02379
G1 X89.294 Y124.074 E0.02317
G1 X88.683 Y124.474 E0.02289
G1 X88.009 Y124.764 E0.02302
G1 X87.302 Y124.930 E0.02275
G1 X69.119 Y126.613 E0.57256
G1 X63.593 Y126.572 E0.17327
G1 X53.835 Y125.112 E0.30935
G1 X52.810 Y124.755 E0.03405
G1 X51.911 Y124.147 E0.03402
G1 X51.327 Y123.509 E0.02712
G1 X50.889 Y122.773 E0.02684
G1 X49.539 Y119.056 E0.12402
G1 X48.763 Y108.854 E0.32079
G1 X49.538 Y95.429 E0.42161
G1 X49.761 Y94.182 E0.03975
G1 X50.163 Y92.822 E0.04446
G1 X50.507 Y92.095 E0.02522
G1 X50.963 Y91.470 E0.02426
G1 X51.568 Y90.907 E0.02590
G1 X52.215 Y90.508 E0.02383
; PURGING FINISHED
G1 F8640
G1 X53.010 Y90.197 E-0.19715
G1 X53.816 Y90.062 E-0.18871
G1 X55.435 Y90.011 E-0.37414
G1 E-0.04000 F2100.00000
G1 Z0.800 F10800.000
G1 X53.138 Y110.408
G1 Z0.200
G1 E0.80000 F2100.00000
G1 F1500
G1 X53.717 Y110.986 E0.02565
G1 X53.718 Y111.670 E0.02145
G1 X53.814 Y111.893 E0.00761
G1 X53.698 Y111.809 E0.00449
G1 X53.616 Y111.682 E0.00476
G1 X53.159 Y110.464 E0.04077
G1 F8640
G1 X53.717 Y110.986 E-0.17638
G1 X53.718 Y111.670 E-0.15794
G1 X53.814 Y111.893 E-0.05603
G1 X53.698 Y111.809 E-0.03307
G1 X53.616 Y111.682 E-0.03506
G1 X53.159 Y110.464 E-0.30024
G1 E-0.04127 F2100.00000
G1 Z0.800 F10800.000
G1 X53.137 Y107.047
G1 Z0.200
G1 E0.80000 F2100.00000
G1 F1500
G1 X53.716 Y105.515 E0.05135
G1 X53.716 Y106.468 E0.02986
G1 X53.179 Y107.005 E0.02381
G1 F8640
G1 X53.716 Y105.515 E-0.36556
G1 X53.716 Y106.468 E-0.21991
G1 X53.182 Y107.002 E-0.17453
G1 E-0.04000 F2100.00000
G1 Z0.800 F10800.000
G1 X58.561 Y105.613
G1 Z0.200
G1 E0.80000 F2100.00000
G1 F1500
G1 X58.479 Y104.422 E0.03742
G1 X59.378 Y104.865 E0.03141
G1 X59.511 Y105.016 E0.00631
G1 X59.561 Y105.206 E0.00617
G1 X59.593 Y105.668 E0.01451
G1 X59.388 Y105.561 E0.00725
G1 X58.621 Y105.609 E0.02409
G1 F8640
G1 X58.479 Y104.422 E-0.27602
G1 X59.378 Y104.865 E-0.23130
G1 X59.511 Y105.016 E-0.04645
G1 X59.561 Y105.206 E-0.04544
G1 X59.593 Y105.668 E-0.10683
G1 X59.388 Y105.561 E-0.05339
G1 X59.386 Y105.561 E-0.00058
G1 E-0.04000 F2100.00000
G1 Z0.800 F10800.000
G1 X59.961 Y111.721
G1 Z0.200
G1 E0.80000 F2100.00000
G1 F1500
G1 X60.000 Y111.527 E0.00620
G1 X59.631 Y106.261 E0.16551
G1 X59.524 Y106.057 E0.00722
G1 X59.307 Y105.944 E0.00768
G1 X58.211 Y106.008 E0.03442
G1 X58.058 Y103.794 E0.06956
G1 X59.579 Y104.544 E0.05318
G1 X59.777 Y104.729 E0.00849
G1 X59.850 Y104.845 E0.00428
G1 X59.905 Y104.986 E0.00474
G1 X59.936 Y105.160 E0.00555
G1 X60.377 Y111.473 E0.19844
G1 X60.360 Y111.691 E0.00683
G1 X60.291 Y111.885 E0.00645
G1 X60.174 Y112.055 E0.00648
G1 X60.031 Y112.180 E0.00597
G1 X59.846 Y112.272 E0.00648
G1 X59.638 Y112.314 E0.00666
G1 X53.994 Y112.317 E0.17697
G1 X53.808 Y112.293 E0.00587
G1 X53.639 Y112.230 E0.00564
G1 X53.423 Y112.069 E0.00845
G1 X53.272 Y111.838 E0.00865
G1 X52.207 Y108.997 E0.09513
G1 X52.160 Y108.741 E0.00818
G1 X52.169 Y108.607 E0.00419
G1 X52.208 Y108.455 E0.00492
G1 X53.449 Y105.145 E0.11086
G1 X54.090 Y105.139 E0.02011
G1 X54.094 Y106.624 E0.04656
G1 X53.308 Y107.409 E0.03482
G1 X53.174 Y107.465 E0.00456
G1 X52.989 Y107.575 E0.00674
G1 X52.836 Y107.701 E0.00621
G1 X52.690 Y107.861 E0.00680
G1 X52.544 Y108.091 E0.00854
G1 X52.444 Y108.349 E0.00868
G1 X52.395 Y108.643 E0.00934
G1 X52.406 Y108.917 E0.00860
G1 X52.452 Y109.131 E0.00686
G1 X52.523 Y109.319 E0.00631
G1 X52.627 Y109.506 E0.00671
G1 X52.765 Y109.682 E0.00701
G1 X53.034 Y109.910 E0.01106
G1 X53.304 Y110.040 E0.00940
G1 X54.094 Y110.830 E0.03502
G1 X54.095 Y111.592 E0.02388
G1 X54.184 Y111.796 E0.00699
G1 X54.349 Y111.912 E0.00632
G1 X54.484 Y111.937 E0.00432
G1 X59.615 Y111.937 E0.16087
G1 X59.791 Y111.893 E0.00570
G1 X59.919 Y111.763 E0.00570
G1 X60.158 Y111.710 F10800.000
G1 F8640
G1 X60.000 Y111.527 E-0.05777
G1 X59.787 Y108.493 E-0.70223
G1 E-0.04000 F2100.00000
G1 Z0.800 F10800.000
G1 X59.454 Y105.382
G1 Z0.200
G1 E0.80000 F2100.00000
G1 F1500
G1 X58.758 Y104.686 E0.03611
G1 F8640
G1 X59.454 Y105.382 E-0.22726
G1 E-0.57274 F2100.00000
G1 Z0.800 F10800.000
G1 X53.137 Y107.272
G1 Z0.200
G1 E0.80000 F2100.00000
G1 F1500
G1 X52.857 Y107.257 E0.00150
G1 X53.008 Y107.188 F10800.000
G1 F1500
G1 X52.798 Y107.460 E0.00254
G1 F8640
G1 X53.008 Y107.188 E-0.07928
G1 E-0.72072 F2100.00000
G1 Z0.800 F10800.000
G1 X52.789 Y109.988
G1 Z0.200
G1 E0.80000 F2100.00000
G1 F1500
G1 X53.012 Y110.265 E0.00386
G1 F8640
G1 X52.789 Y109.988 E-0.08213
G1 E-0.71787 F2100.00000
G1 Z0.800 F10800.000
G1 X53.830 Y119.893
G1 Z0.200
G1 E0.80000 F2100.00000
G1 F1500
G1 X54.409 Y120.471 E0.02565
G1 X54.410 Y121.155 E0.02145
G1 X54.506 Y121.378 E0.00761
G1 X54.390 Y121.294 E0.00449
G1 X54.307 Y121.166 E0.00476
G1 X53.851 Y119.949 E0.04077
G1 F8640
G1 X54.409 Y120.471 E-0.17638
G1 X54.410 Y121.155 E-0.15794
G1 X54.506 Y121.378 E-0.05603
G1 X54.390 Y121.294 E-0.03307
G1 X54.307 Y121.166 E-0.03506
G1 X53.851 Y119.949 E-0.30024
G1 E-0.04127 F2100.00000
G1 Z0.800 F10800.000
G1 X53.829 Y116.532
G1 Z0.200
G1 E0.80000 F2100.00000
G1 F1500
G1 X54.408 Y115.000 E0.05135
G1 X54.408 Y115.953 E0.02986
G1 X53.871 Y116.489 E0.02381
G1 F8640
G1 X54.408 Y115.000 E-0.36556
G1 X54.408 Y115.953 E-0.21991
G1 X53.874 Y116.487 E-0.17453
G1 E-0.04000 F2100.00000
G1 Z0.800 F10800.000
G1 X59.253 Y115.098
G1 Z0.200
G1 E0.80000 F2100.00000
G1 F1500
G1 X59.171 Y113.907 E0.03742
G1 X60.070 Y114.350 E0.03141
G1 X60.203 Y114.500 E0.00631
G1 X60.253 Y114.691 E0.00617
G1 X60.285 Y115.152 E0.01451
G1 X60.080 Y115.046 E0.00725
G1 X59.313 Y115.094 E0.02409
G1 F8640
G1 X59.171 Y113.907 E-0.27602
G1 X60.070 Y114.350 E-0.23130
G1 X60.203 Y114.500 E-0.04645
G1 X60.253 Y114.691 E-0.04544
G1 X60.285 Y115.152 E-0.10683
G1 X60.080 Y115.046 E-0.05339
G1 X60.078 Y115.046 E-0.00058
G1 E-0.04000 F2100.00000
G1 Z0.800 F10800.000
G1 X60.653 Y121.205
G1 Z0.200
G1 E0.80000 F2100.00000
G1 F1500
G1 X60.692 Y121.011 E0.00620
G1 X60.323 Y115.746 E0.16551
G1 X60.216 Y115.542 E0.00722
G1 X59.999 Y115.428 E0.00768
G1 X58.903 Y115.492 E0.03442
G1 X58.750 Y113.279 E0.06956
G1 X60.271 Y114.029 E0.05318
G1 X60.469 Y114.214 E0.00849
G1 X60.541 Y114.330 E0.00428
G1 X60.597 Y114.471 E0.00474
G1 X60.628 Y114.645 E0.00555
G1 X61.069 Y120.958 E0.19844
G1 X61.052 Y121.175 E0.00683
G1 X60.983 Y121.369 E0.00645
G1 X60.866 Y121.540 E0.00648
G1 X60.723 Y121.665 E0.00597
G1 X60.538 Y121.757 E0.00648
G1 X60.330 Y121.799 E0.00666
G1 X54.685 Y121.801 E0.17697
G1 X54.500 Y121.777 E0.00587
G1 X54.331 Y121.715 E0.00564
G1 X54.115 Y121.553 E0.00845
G1 X53.963 Y121.323 E0.00865
G1 X52.899 Y118.482 E0.09513
G1 X52.852 Y118.225 E0.00818
G1 X52.861 Y118.092 E0.00419
G1 X52.900 Y117.940 E0.00492
G1 X54.141 Y114.629 E0.11086
G1 X54.782 Y114.624 E0.02011
G1 X54.785 Y116.109 E0.04656
G1 X54.000 Y116.894 E0.03482
G1 X53.866 Y116.949 E0.00456
G1 X53.681 Y117.060 E0.00674
G1 X53.528 Y117.185 E0.00621
G1 X53.382 Y117.345 E0.00680
G1 X53.236 Y117.575 E0.00854
G1 X53.136 Y117.834 E0.00868
G1 X53.087 Y118.127 E0.00934
G1 X53.097 Y118.401 E0.00860
G1 X53.144 Y118.615 E0.00686
G1 X53.215 Y118.803 E0.00631
G1 X53.319 Y118.990 E0.00671
G1 X53.457 Y119.167 E0.00701
G1 X53.726 Y119.395 E0.01106
G1 X53.996 Y119.525 E0.00940
G1 X54.786 Y120.315 E0.03502
G1 X54.787 Y121.076 E0.02388
G1 X54.876 Y121.281 E0.00699
G1 X55.041 Y121.396 E0.00632
G1 X55.176 Y121.422 E0.00432
G1 X60.307 Y121.422 E0.16087
G1 X60.483 Y121.378 E0.00570
G1 X60.610 Y121.248 E0.00570
G1 X60.850 Y121.195 F10800.000
G1 F8640
G1 X60.692 Y121.011 E-0.05777
G1 X60.479 Y117.978 E-0.70223
G1 E-0.04000 F2100.00000
G1 Z0.800 F10800.000
G1 X60.145 Y114.866
G1 Z0.200
G1 E0.80000 F2100.00000
G1 F1500
G1 X59.449 Y114.171 E0.03611
G1 F8640
G1 X60.145 Y114.866 E-0.22726
G1 E-0.57274 F2100.00000
G1 Z0.800 F10800.000
G1 X53.829 Y116.756
G1 Z0.200
G1 E0.80000 F2100.00000
G1 F1500
G1 X53.549 Y116.742 E0.00150
G1 X53.700 Y116.673 F10800.000
G1 F1500
G1 X53.490 Y116.945 E0.00254
G1 F8640
G1 X53.700 Y116.673 E-0.07928
G1 E-0.72072 F2100.00000
G1 Z0.800 F10800.000
G1 X53.481 Y119.473
G1 Z0.200
G1 E0.80000 F2100.00000
G1 F1500
G1 X53.704 Y119.750 E0.00386
G1 F8640
G1 X53.481 Y119.473 E-0.08213
G1 E-0.71787 F2100.00000
G1 Z0.800 F10800.000
G1 X80.249 Y119.666
G1 Z0.200
G1 E0.80000 F2100.00000
G1 F1500
G1 X80.827 Y120.245 E0.02565
G1 X80.828 Y120.929 E0.02145
G1 X80.925 Y121.151 E0.00761
G1 X80.809 Y121.067 E0.00449
G1 X80.726 Y120.940 E0.00476
G1 X80.270 Y119.722 E0.04077
G1 F8640
G1 X80.827 Y120.245 E-0.17638
G1 X80.828 Y120.929 E-0.15794
G1 X80.925 Y121.151 E-0.05603
G1 X80.809 Y121.067 E-0.03307
G1 X80.726 Y120.940 E-0.03506
G1 X80.270 Y119.722 E-0.30024
G1 E-0.04127 F2100.00000
G1 Z0.800 F10800.000
G1 X80.247 Y116.306
G1 Z0.200
G1 E0.80000 F2100.00000
G1 F1500
G1 X80.827 Y114.774 E0.05135
G1 X80.827 Y115.726 E0.02986
G1 X80.290 Y116.263 E0.02381
G1 F8640
G1 X80.827 Y114.774 E-0.36556
G1 X80.827 Y115.726 E-0.21991
G1 X80.292 Y116.261 E-0.17453
G1 E-0.04000 F2100.00000
G1 Z0.800 F10800.000
G1 X85.672 Y114.872
G1 Z0.200
G1 E0.80000 F2100.00000
G1 F1500
G1 X85.590 Y113.681 E0.03742
G1 X86.488 Y114.124 E0.03141
G1 X86.622 Y114.274 E0.00631
G1 X86.671 Y114.465 E0.00617
G1 X86.704 Y114.926 E0.01451
G1 X86.499 Y114.819 E0.00725
G1 X85.732 Y114.868 E0.02409
G1 F8640
G1 X85.590 Y113.681 E-0.27602
G1 X86.488 Y114.124 E-0.23130
G1 X86.622 Y114.274 E-0.04645
G1 X86.671 Y114.465 E-0.04544
G1 X86.704 Y114.926 E-0.10683
G1 X86.499 Y114.819 E-0.05339
G1 X86.496 Y114.819 E-0.00058
G1 E-0.04000 F2100.00000
G1 Z0.800 F10800.000
G1 X87.071 Y120.979
G1 Z0.200
G1 E0.80000 F2100.00000
G1 F1500
G1 X87.110 Y120.785 E0.00620
G1 X86.741 Y115.520 E0.16551
G1 X86.635 Y115.315 E0.00722
G1 X86.418 Y115.202 E0.00768
G1 X85.322 Y115.266 E0.03442
G1 X85.168 Y113.053 E0.06956
G1 X86.690 Y113.803 E0.05318
G1 X86.888 Y113.988 E0.00849
G1 X86.960 Y114.104 E0.00428
G1 X87.015 Y114.244 E0.00474
G1 X87.046 Y114.418 E0.00555
G1 X87.488 Y120.732 E0.19844
G1 X87.470 Y120.949 E0.00683
G1 X87.402 Y121.143 E0.00645
G1 X87.285 Y121.313 E0.00648
G1 X87.141 Y121.438 E0.00597
G1 X86.956 Y121.531 E0.00648
G1 X86.748 Y121.573 E0.00666
G1 X81.104 Y121.575 E0.17697
G1 X80.918 Y121.551 E0.00587
G1 X80.749 Y121.488 E0.00564
G1 X80.534 Y121.327 E0.00845
G1 X80.382 Y121.097 E0.00865
G1 X79.318 Y118.256 E0.09513
G1 X79.271 Y117.999 E0.00818
G1 X79.280 Y117.866 E0.00419
G1 X79.318 Y117.714 E0.00492
G1 X80.560 Y114.403 E0.11086
G1 X81.201 Y114.397 E0.02011
G1 X81.204 Y115.882 E0.04656
G1 X80.419 Y116.668 E0.03482
G1 X80.284 Y116.723 E0.00456
G1 X80.100 Y116.834 E0.00674
G1 X79.946 Y116.959 E0.00621
G1 X79.800 Y117.119 E0.00680
G1 X79.654 Y117.349 E0.00854
G1 X79.554 Y117.607 E0.00868
G1 X79.505 Y117.901 E0.00934
G1 X79.516 Y118.175 E0.00860
G1 X79.562 Y118.389 E0.00686
G1 X79.634 Y118.577 E0.00631
G1 X79.738 Y118.764 E0.00671
G1 X79.875 Y118.940 E0.00701
G1 X80.144 Y119.169 E0.01106
G1 X80.414 Y119.299 E0.00940
G1 X81.204 Y120.088 E0.03502
G1 X81.205 Y120.850 E0.02388
G1 X81.294 Y121.055 E0.00699
G1 X81.459 Y121.170 E0.00632
G1 X81.595 Y121.195 E0.00432
G1 X86.725 Y121.195 E0.16087
G1 X86.902 Y121.151 E0.00570
G1 X87.029 Y121.022 E0.00570
G1 X87.268 Y120.969 F10800.000
G1 F8640
G1 X87.110 Y120.785 E-0.05777
G1 X86.898 Y117.751 E-0.70223
G1 E-0.04000 F2100.00000
G1 Z0.800 F10800.000
G1 X86.564 Y114.640
G1 Z0.200
G1 E0.80000 F2100.00000
G1 F1500
G1 X85.868 Y113.944 E0.03611
G1 F8640
G1 X86.564 Y114.640 E-0.22726
G1 E-0.57274 F2100.00000
G1 Z0.800 F10800.000
G1 X80.248 Y116.530
G1 Z0.200
G1 E0.80000 F2100.00000
G1 F1500
G1 X79.968 Y116.515 E0.00150
G1 X80.118 Y116.447 F10800.000
G1 F1500
G1 X79.908 Y116.718 E0.00254
G1 F8640
G1 X80.118 Y116.447 E-0.07928
G1 E-0.72072 F2100.00000
G1 Z0.800 F10800.000
G1 X79.899 Y119.246
G1 Z0.200
G1 E0.80000 F2100.00000
G1 F1500
G1 X80.122 Y119.523 E0.00386
G1 F8640
G1 X79.899 Y119.246 E-0.08213
G1 E-0.71787 F2100.00000
G1 Z0.800 F10800.000
G1 X80.481 Y111.840
G1 Z0.200
G1 E0.80000 F2100.00000
G1 F1500
G1 X80.365 Y111.756 E0.00449
G1 X80.282 Y111.629 E0.00476
G1 X79.805 Y110.355 E0.04265
G1 X80.383 Y110.934 E0.02565
G1 X80.384 Y111.618 E0.02145
G1 X80.457 Y111.785 E0.00573
G1 F8640
G1 X80.365 Y111.756 E-0.02229
G1 X80.282 Y111.629 E-0.03506
G1 X79.805 Y110.355 E-0.31410
G1 X80.383 Y110.934 E-0.18890
G1 X80.384 Y111.618 E-0.15794
G1 X80.456 Y111.783 E-0.04171
G1 E-0.04000 F2100.00000
G1 Z0.800 F10800.000
G1 X79.804 Y106.995
G1 Z0.200
G1 E0.80000 F2100.00000
G1 F1500
G1 X80.383 Y105.463 E0.05135
G1 X80.383 Y106.415 E0.02986
G1 X79.846 Y106.952 E0.02381
G1 F8640
G1 X80.383 Y105.463 E-0.36556
G1 X80.383 Y106.415 E-0.21991
G1 X79.848 Y106.950 E-0.17453
G1 E-0.04000 F2100.00000
G1 Z0.800 F10800.000
G1 X85.228 Y105.560
G1 Z0.200
G1 E0.80000 F2100.00000
G1 F1500
G1 X85.146 Y104.370 E0.03742
G1 X86.044 Y104.813 E0.03141
G1 X86.178 Y104.963 E0.00631
G1 X86.227 Y105.153 E0.00617
G1 X86.260 Y105.615 E0.01451
G1 X86.055 Y105.508 E0.00725
G1 X85.288 Y105.557 E0.02409
G1 F8640
G1 X85.146 Y104.370 E-0.27602
G1 X86.044 Y104.813 E-0.23130
G1 X86.178 Y104.963 E-0.04645
G1 X86.227 Y105.153 E-0.04544
G1 X86.260 Y105.615 E-0.10683
G1 X86.055 Y105.508 E-0.05339
G1 X86.052 Y105.508 E-0.00058
G1 E-0.04000 F2100.00000
G1 Z0.800 F10800.000
G1 X86.627 Y111.668
G1 Z0.200
G1 E0.80000 F2100.00000
G1 F1500
G1 X86.667 Y111.474 E0.00620
G1 X86.297 Y106.208 E0.16551
G1 X86.191 Y106.004 E0.00722
G1 X85.974 Y105.891 E0.00768
G1 X84.878 Y105.955 E0.03442
G1 X84.724 Y103.742 E0.06956
G1 X86.246 Y104.492 E0.05318
G1 X86.444 Y104.677 E0.00849
G1 X86.516 Y104.792 E0.00428
G1 X86.571 Y104.933 E0.00474
G1 X86.602 Y105.107 E0.00555
G1 X87.044 Y111.421 E0.19844
G1 X87.027 Y111.638 E0.00683
G1 X86.958 Y111.832 E0.00645
G1 X86.841 Y112.002 E0.00648
G1 X86.697 Y112.127 E0.00597
G1 X86.512 Y112.219 E0.00648
G1 X86.304 Y112.262 E0.00666
G1 X80.660 Y112.264 E0.17697
G1 X80.474 Y112.240 E0.00587
G1 X80.305 Y112.177 E0.00564
G1 X80.090 Y112.016 E0.00845
G1 X79.938 Y111.786 E0.00865
G1 X78.874 Y108.944 E0.09513
G1 X78.827 Y108.688 E0.00818
G1 X78.836 Y108.555 E0.00419
G1 X78.874 Y108.403 E0.00492
G1 X80.116 Y105.092 E0.11086
G1 X80.757 Y105.086 E0.02011
G1 X80.760 Y106.571 E0.04656
G1 X79.975 Y107.357 E0.03482
G1 X79.840 Y107.412 E0.00456
G1 X79.656 Y107.522 E0.00674
G1 X79.502 Y107.648 E0.00621
G1 X79.356 Y107.808 E0.00680
G1 X79.211 Y108.038 E0.00854
G1 X79.110 Y108.296 E0.00868
G1 X79.061 Y108.590 E0.00934
