; generated by Slic3r Prusa Edition 1.41.0+win64 on 2018-11-05 at 09:23:36

; 

; external perimeters extrusion width = 0.45mm
; perimeters extrusion width = 0.45mm
; infill extrusion width = 0.45mm
; solid infill extrusion width = 0.45mm
; top infill extrusion width = 0.40mm
; first layer extrusion width = 0.42mm

M201 X1000 Y1000 Z1000 E5000 ; sets maximum accelerations, mm/sec^2
M203 X200 Y200 Z12 E120 ; sets maximum feedrates, mm/sec
M204 P1250 R1250 T1250 ; sets acceleration (P, T) and retract acceleration (R), mm/sec^2
M205 X8.00 Y8.00 Z0.40 E1.50 ; sets the jerk limits, mm/sec
M205 S0 T0 ; sets the minimum extruding and travel feed rate, mm/sec
M107
M115 U3.4.1 ; tell printer latest fw version
M83  ; extruder relative mode
M104 S230 ; set extruder temp
M140 S85 ; set bed temp
M190 S85 ; wait for bed temp
M109 S230 ; wait for extruder temp
G28 W ; home all without mesh bed level
G80 ; mesh bed leveling
G1 Y-3.0 F1000.0 ; go outside print area
G92 E0.0
G1 X60.0 E9.0  F1000.0 ; intro line
M73 Q0 S55
M73 P0 R55
G1 X100.0 E12.5  F1000.0 ; intro line
G92 E0.0
M221 S95
M900 K45; Filament gcode
G21 ; set units to millimeters
G90 ; use absolute coordinates
M83 ; use relative distances for extrusion
;BEFORE_LAYER_CHANGE
G92 E0.0
;0.2


G1 E-0.80000 F2100.00000
G1 Z0.600 F10800.000
;AFTER_LAYER_CHANGE
;0.2
G1 X17.195 Y25.345
G1 Z0.200
G1 E0.80000 F2100.00000
M204 S1000
G1 F1500
G1 X18.461 Y24.577 E0.04641
G1 X19.518 Y24.068 E0.03677
G1 X21.736 Y23.189 E0.07482
G1 X23.511 Y22.683 E0.05788
G1 X25.752 Y22.186 E0.07196
G1 X28.052 Y21.806 E0.07310
G1 X34.600 Y21.143 E0.20636
G1 X42.470 Y20.833 E0.24694
G1 X50.949 Y20.749 E0.26589
G1 X60.826 Y20.871 E0.30970
G1 X68.004 Y21.221 E0.22531
G1 X70.271 Y21.428 E0.07140
G1 X74.587 Y21.986 E0.13643
G1 X76.236 Y22.290 E0.05259
G1 X78.501 Y22.839 E0.07307
G1 X80.469 Y23.461 E0.06471
G1 X81.885 Y24.044 E0.04800
G1 X83.810 Y25.066 E0.06834
G1 X85.142 Y25.996 E0.05094
G1 X86.301 Y27.005 E0.04819
G1 X87.182 Y27.987 E0.04136
G1 X88.279 Y29.528 E0.05932
G1 X89.180 Y31.242 E0.06072
G1 X89.774 Y32.863 E0.05410
G1 X90.364 Y35.313 E0.07904
G1 X90.618 Y37.130 E0.05752
G1 X90.747 Y39.436 E0.07243
G1 X91.466 Y74.186 E1.08978
G1 X91.425 Y76.709 E0.07911
G1 X91.311 Y78.290 E0.04971
G1 X90.961 Y80.682 E0.07581
G1 X90.443 Y82.689 E0.06498
G1 X89.718 Y84.532 E0.06210
G1 X88.897 Y86.011 E0.05305
G1 X87.745 Y87.538 E0.05999
G1 X86.305 Y88.934 E0.06286
G1 X84.675 Y90.091 E0.06268
G1 X83.015 Y90.974 E0.05896
G1 X81.673 Y91.533 E0.04558
G1 X79.809 Y92.148 E0.06153
G1 X77.939 Y92.619 E0.06046
G1 X76.135 Y92.972 E0.05763
G1 X71.877 Y93.550 E0.13472
G1 X66.485 Y93.960 E0.16957
G1 X59.459 Y94.205 E0.22042
G1 X47.560 Y94.249 E0.37308
G1 X39.798 Y94.068 E0.24345
G1 X35.582 Y93.846 E0.13238
G1 X32.115 Y93.555 E0.10909
G1 X28.491 Y93.086 E0.11458
G1 X24.990 Y92.376 E0.11200
G1 X22.187 Y91.501 E0.09205
G1 X20.105 Y90.567 E0.07156
G1 X18.958 Y89.897 E0.04165
G1 X17.920 Y89.159 E0.03992
G1 X16.356 Y87.715 E0.06674
G1 X15.016 Y85.964 E0.06914
G1 X14.060 Y84.165 E0.06388
G1 X13.476 Y82.610 E0.05208
G1 X13.098 Y81.214 E0.04534
G1 X12.739 Y79.200 E0.06414
G1 X12.571 Y77.572 E0.05131
G1 X10.691 Y42.085 E1.11424
G1 X10.737 Y38.221 E0.12117
G1 X10.879 Y36.563 E0.05218
G1 X11.144 Y34.906 E0.05258
G1 X11.470 Y33.517 E0.04476
G1 X11.892 Y32.173 E0.04415
G1 X12.449 Y30.837 E0.04540
G1 X12.962 Y29.863 E0.03453
G1 X13.810 Y28.555 E0.04886
G1 X14.820 Y27.337 E0.04961
G1 X15.971 Y26.260 E0.04941
G1 X17.147 Y25.381 E0.04607
G1 X17.374 Y25.686 F10800.000
G1 F1500
G1 X17.476 Y25.611 E0.00398
G1 X19.116 Y24.665 E0.05936
G1 X21.022 Y23.857 E0.06491
G1 X22.369 Y23.383 E0.04476
G1 X24.287 Y22.885 E0.06215
G1 X26.574 Y22.417 E0.07318
G1 X28.834 Y22.083 E0.07162
G1 X35.340 Y21.470 E0.20491
G1 X42.485 Y21.210 E0.22415
G1 X50.950 Y21.126 E0.26544
G1 X60.817 Y21.248 E0.30938
G1 X67.978 Y21.597 E0.22480
G1 X70.225 Y21.802 E0.07075
G1 X74.525 Y22.358 E0.13596
G1 X76.156 Y22.658 E0.05199
G1 X78.388 Y23.199 E0.07201
G1 X80.338 Y23.815 E0.06414
G1 X81.718 Y24.382 E0.04675
G1 X83.613 Y25.387 E0.06725
G1 X84.902 Y26.287 E0.04931
G1 X86.034 Y27.271 E0.04702
G1 X86.881 Y28.216 E0.03979
G1 X87.959 Y29.727 E0.05820
G1 X88.832 Y31.388 E0.05883
G1 X89.412 Y32.968 E0.05277
G1 X89.994 Y35.386 E0.07799
G1 X90.243 Y37.167 E0.05637
G1 X90.370 Y39.454 E0.07184
G1 X91.089 Y74.187 E1.08926
G1 X91.081 Y75.840 E0.05181
G1 X90.937 Y78.239 E0.07536
G1 X90.592 Y80.605 E0.07499
G1 X90.085 Y82.573 E0.06370
G1 X89.378 Y84.369 E0.06054
G1 X88.587 Y85.797 E0.05118
G1 X87.465 Y87.285 E0.05843
G1 X86.064 Y88.644 E0.06118
G1 X84.475 Y89.772 E0.06112
G1 X82.867 Y90.627 E0.05708
G1 X81.543 Y91.179 E0.04499
G1 X79.707 Y91.785 E0.06062
G1 X77.856 Y92.251 E0.05987
G1 X76.067 Y92.601 E0.05715
G1 X71.838 Y93.175 E0.13382
G1 X66.464 Y93.583 E0.16897
G1 X59.452 Y93.828 E0.22000
G1 X47.564 Y93.872 E0.37274
G1 X39.815 Y93.691 E0.24303
G1 X35.606 Y93.469 E0.13214
G1 X32.161 Y93.180 E0.10840
G1 X28.554 Y92.714 E0.11404
G1 X25.084 Y92.011 E0.11102
G1 X22.323 Y91.149 E0.09070
G1 X20.286 Y90.236 E0.06998
G1 X19.163 Y89.580 E0.04078
G1 X18.152 Y88.861 E0.03890
G1 X16.633 Y87.459 E0.06480
G1 X15.334 Y85.761 E0.06705
G1 X14.407 Y84.017 E0.06193
G1 X13.835 Y82.492 E0.05106
G1 X13.465 Y81.128 E0.04433
G1 X13.112 Y79.145 E0.06314
G1 X12.947 Y77.541 E0.05058
G1 X11.068 Y42.080 E1.11342
G1 X11.113 Y38.245 E0.12025
G1 X11.254 Y36.605 E0.05161
G1 X11.514 Y34.979 E0.05161
G1 X11.835 Y33.614 E0.04398
G1 X12.246 Y32.303 E0.04309
G1 X12.644 Y31.311 E0.03350
G1 X13.288 Y30.053 E0.04430
G1 X14.114 Y28.778 E0.04764
G1 X15.104 Y27.585 E0.04863
G1 X16.226 Y26.538 E0.04812
G1 X17.326 Y25.722 E0.04294
; PURGING FINISHED
G1 F8640
G1 X17.476 Y25.611 E-0.04317
G1 X19.116 Y24.665 E-0.43716
G1 X20.232 Y24.192 E-0.27967
G1 E-0.04000 F2100.00000
G1 Z0.800 F10800.000
G1 X40.673 Y51.115
G1 Z0.200
G1 E0.80000 F2100.00000
G1 F1500
G1 X40.908 Y50.924 E0.00948
G1 X41.183 Y50.761 E0.01005
G1 X41.434 Y50.652 E0.00857
G1 X41.722 Y50.572 E0.00937
G1 X42.018 Y50.531 E0.00937
G1 X42.316 Y50.531 E0.00937
G1 X42.612 Y50.572 E0.00937
G1 X42.900 Y50.652 E0.00937
G1 X43.177 Y50.773 E0.00948
G1 X43.449 Y50.943 E0.01005
G1 X43.661 Y51.115 E0.00857
G1 X43.865 Y51.333 E0.00937
G1 X44.037 Y51.577 E0.00937
G1 X44.175 Y51.843 E0.00937
G1 X44.275 Y52.124 E0.00937
G1 X44.336 Y52.417 E0.00937
G1 X44.356 Y52.715 E0.00937
G1 X44.336 Y53.013 E0.00937
G1 X44.275 Y53.305 E0.00937
G1 X44.175 Y53.587 E0.00937
G1 X44.037 Y53.852 E0.00937
G1 X43.865 Y54.096 E0.00937
G1 X43.661 Y54.314 E0.00937
G1 X43.429 Y54.503 E0.00937
G1 X43.171 Y54.660 E0.00948
G1 X42.876 Y54.784 E0.01005
G1 X42.612 Y54.858 E0.00857
G1 X42.316 Y54.898 E0.00937
G1 X42.018 Y54.898 E0.00937
G1 X41.722 Y54.858 E0.00937
G1 X41.434 Y54.777 E0.00937
G1 X41.160 Y54.658 E0.00937
G1 X40.905 Y54.503 E0.00937
G1 X40.673 Y54.314 E0.00937
G1 X40.469 Y54.096 E0.00937
G1 X40.297 Y53.852 E0.00937
G1 X40.159 Y53.587 E0.00937
G1 X40.059 Y53.305 E0.00937
G1 X39.999 Y53.013 E0.00937
G1 X39.978 Y52.715 E0.00937
G1 X39.999 Y52.417 E0.00937
G1 X40.059 Y52.124 E0.00937
G1 X40.161 Y51.839 E0.00948
G1 X40.312 Y51.557 E0.01005
G1 X40.469 Y51.333 E0.00857
G1 X40.632 Y51.159 E0.00749
G1 X40.908 Y51.416 F10800.000
G1 F1500
G1 X41.124 Y51.234 E0.00885
G1 X41.355 Y51.098 E0.00843
G1 X41.561 Y51.008 E0.00702
G1 X41.799 Y50.942 E0.00775
G1 X42.044 Y50.908 E0.00775
G1 X42.291 Y50.908 E0.00775
G1 X42.536 Y50.942 E0.00775
G1 X42.774 Y51.008 E0.00775
G1 X43.001 Y51.107 E0.00779
G1 X43.229 Y51.250 E0.00843
G1 X43.403 Y51.391 E0.00702
G1 X43.572 Y51.572 E0.00775
G1 X43.714 Y51.774 E0.00775
G1 X43.828 Y51.993 E0.00775
G1 X43.911 Y52.226 E0.00775
G1 X43.961 Y52.468 E0.00775
G1 X43.978 Y52.715 E0.00775
G1 X43.961 Y52.961 E0.00775
G1 X43.911 Y53.203 E0.00775
G1 X43.828 Y53.436 E0.00775
G1 X43.714 Y53.656 E0.00775
G1 X43.572 Y53.858 E0.00775
G1 X43.403 Y54.038 E0.00775
G1 X43.211 Y54.194 E0.00775
G1 X42.999 Y54.323 E0.00779
G1 X42.751 Y54.427 E0.00843
G1 X42.536 Y54.488 E0.00702
G1 X42.291 Y54.521 E0.00775
G1 X42.044 Y54.521 E0.00775
G1 X41.799 Y54.488 E0.00775
G1 X41.561 Y54.421 E0.00775
G1 X41.334 Y54.323 E0.00775
G1 X41.123 Y54.194 E0.00775
G1 X40.931 Y54.038 E0.00775
G1 X40.762 Y53.858 E0.00775
G1 X40.620 Y53.656 E0.00775
G1 X40.506 Y53.436 E0.00775
G1 X40.423 Y53.203 E0.00775
G1 X40.373 Y52.961 E0.00775
G1 X40.356 Y52.715 E0.00775
G1 X40.373 Y52.468 E0.00775
G1 X40.423 Y52.226 E0.00775
G1 X40.507 Y51.992 E0.00779
G1 X40.633 Y51.755 E0.00843
G1 X40.867 Y51.460 E0.01179
G1 X40.834 Y51.144 F10800.000
G1 F8640
G1 X41.124 Y51.234 E-0.07898
G1 X41.355 Y51.098 E-0.06207
G1 X41.561 Y51.008 E-0.05173
G1 X41.799 Y50.942 E-0.05707
G1 X42.044 Y50.908 E-0.05707
G1 X42.291 Y50.908 E-0.05707
G1 X42.536 Y50.942 E-0.05707
G1 X42.774 Y51.008 E-0.05707
G1 X43.001 Y51.107 E-0.05737
G1 X43.229 Y51.250 E-0.06207
G1 X43.403 Y51.391 E-0.05172
G1 X43.572 Y51.572 E-0.05707
G1 X43.706 Y51.762 E-0.05366
G1 E-0.04000 F2100.00000
G1 Z0.800 F10800.000
G1 X54.229 Y51.314
G1 Z0.200
G1 E0.80000 F2100.00000
G1 F1500
G1 X54.250 Y51.025 E0.00910
G1 X54.313 Y50.741 E0.00910
G1 X54.417 Y50.470 E0.00910
G1 X54.559 Y50.217 E0.00910
G1 X54.736 Y49.987 E0.00910
G1 X54.945 Y49.786 E0.00910
G1 X55.181 Y49.617 E0.00910
G1 X55.440 Y49.484 E0.00910
G1 X55.714 Y49.390 E0.00910
G1 X56.000 Y49.338 E0.00910
G1 X56.282 Y49.327 E0.00885
G1 X56.577 Y49.358 E0.00931
G1 X56.859 Y49.432 E0.00915
G1 X57.127 Y49.546 E0.00910
G1 X57.374 Y49.697 E0.00910
G1 X57.598 Y49.883 E0.00910
G1 X57.791 Y50.099 E0.00910
G1 X57.951 Y50.341 E0.00910
G1 X58.075 Y50.604 E0.00910
G1 X58.158 Y50.882 E0.00910
G1 X58.201 Y51.169 E0.00910
G1 X58.201 Y51.460 E0.00910
G1 X58.158 Y51.747 E0.00910
G1 X58.075 Y52.025 E0.00910
G1 X57.951 Y52.288 E0.00910
G1 X57.791 Y52.530 E0.00910
G1 X57.603 Y52.740 E0.00885
G1 X57.376 Y52.931 E0.00931
G1 X57.127 Y53.083 E0.00915
G1 X56.859 Y53.196 E0.00910
G1 X56.578 Y53.270 E0.00910
G1 X56.290 Y53.302 E0.00910
G1 X56.000 Y53.291 E0.00910
G1 X55.722 Y53.240 E0.00885
G1 X55.441 Y53.145 E0.00931
G1 X55.181 Y53.012 E0.00915
G1 X54.945 Y52.843 E0.00910
G1 X54.736 Y52.641 E0.00910
G1 X54.559 Y52.412 E0.00910
G1 X54.417 Y52.158 E0.00910
G1 X54.316 Y51.895 E0.00885
G1 X54.250 Y51.605 E0.00931
G1 X54.233 Y51.374 E0.00726
G1 X54.609 Y51.347 F10800.000
G1 F1500
G1 X54.624 Y51.080 E0.00838
G1 X54.675 Y50.850 E0.00737
G1 X54.759 Y50.631 E0.00737
G1 X54.874 Y50.426 E0.00737
G1 X55.018 Y50.240 E0.00737
G1 X55.187 Y50.076 E0.00737
G1 X55.378 Y49.940 E0.00737
G1 X55.587 Y49.832 E0.00737
G1 X55.810 Y49.756 E0.00737
G1 X56.041 Y49.713 E0.00737
G1 X56.269 Y49.705 E0.00714
G1 X56.509 Y49.730 E0.00758
G1 X56.737 Y49.790 E0.00739
G1 X56.954 Y49.882 E0.00737
G1 X57.154 Y50.005 E0.00737
G1 X57.335 Y50.155 E0.00737
G1 X57.492 Y50.330 E0.00737
G1 X57.622 Y50.526 E0.00737
G1 X57.722 Y50.739 E0.00737
G1 X57.789 Y50.964 E0.00737
G1 X57.824 Y51.197 E0.00737
G1 X57.824 Y51.432 E0.00737
G1 X57.789 Y51.665 E0.00737
G1 X57.722 Y51.890 E0.00737
G1 X57.622 Y52.103 E0.00737
G1 X57.492 Y52.299 E0.00737
G1 X57.340 Y52.468 E0.00714
G1 X57.155 Y52.624 E0.00758
G1 X56.954 Y52.747 E0.00739
G1 X56.737 Y52.839 E0.00737
G1 X56.510 Y52.898 E0.00737
G1 X56.276 Y52.924 E0.00737
G1 X56.041 Y52.915 E0.00737
G1 X55.817 Y52.874 E0.00714
G1 X55.588 Y52.797 E0.00758
G1 X55.378 Y52.689 E0.00739
G1 X55.187 Y52.552 E0.00737
G1 X55.018 Y52.389 E0.00737
G1 X54.874 Y52.203 E0.00737
G1 X54.759 Y51.998 E0.00737
G1 X54.678 Y51.785 E0.00714
G1 X54.624 Y51.549 E0.00758
G1 X54.613 Y51.407 E0.00449
G1 X54.376 Y51.216 F10800.000
G1 F8640
G1 X54.624 Y51.080 E-0.07547
G1 X54.675 Y50.850 E-0.05429
G1 X54.759 Y50.631 E-0.05429
G1 X54.874 Y50.426 E-0.05429
G1 X55.018 Y50.240 E-0.05429
G1 X55.187 Y50.076 E-0.05429
G1 X55.378 Y49.940 E-0.05429
G1 X55.587 Y49.832 E-0.05429
G1 X55.810 Y49.756 E-0.05429
G1 X56.041 Y49.713 E-0.05429
G1 X56.269 Y49.705 E-0.05260
G1 X56.509 Y49.730 E-0.05585
G1 X56.737 Y49.790 E-0.05441
G1 X56.869 Y49.846 E-0.03306
G1 E-0.04000 F2100.00000
G1 Z0.800 F10800.000
G1 X58.258 Y48.843
G1 Z0.200
G1 E0.80000 F2100.00000
G1 F1500
G1 X58.068 Y48.533 E0.01138
G1 X57.911 Y48.206 E0.01138
G1 X57.787 Y47.865 E0.01138
G1 X57.696 Y47.502 E0.01175
G1 X57.631 Y46.890 E0.01929
G1 X57.650 Y46.434 E0.01430
G1 X57.708 Y46.071 E0.01153
G1 X57.801 Y45.720 E0.01138
G1 X57.929 Y45.381 E0.01138
G1 X58.090 Y45.056 E0.01138
G1 X58.284 Y44.749 E0.01138
G1 X58.508 Y44.463 E0.01138
G1 X58.759 Y44.201 E0.01138
G1 X59.036 Y43.966 E0.01138
G1 X59.335 Y43.760 E0.01138
G1 X59.653 Y43.586 E0.01138
G1 X59.987 Y43.444 E0.01138
G1 X60.334 Y43.337 E0.01138
G1 X60.690 Y43.266 E0.01138
G1 X61.051 Y43.231 E0.01138
G1 X61.414 Y43.232 E0.01138
G1 X61.775 Y43.270 E0.01138
G1 X62.130 Y43.345 E0.01138
G1 X62.476 Y43.455 E0.01138
G1 X62.809 Y43.599 E0.01138
G1 X63.125 Y43.776 E0.01138
G1 X63.423 Y43.984 E0.01138
G1 X63.697 Y44.222 E0.01138
G1 X63.947 Y44.486 E0.01138
G1 X64.168 Y44.773 E0.01138
G1 X64.359 Y45.082 E0.01138
G1 X64.518 Y45.408 E0.01138
G1 X64.643 Y45.749 E0.01138
G1 X64.733 Y46.100 E0.01138
G1 X64.787 Y46.459 E0.01136
G1 X64.802 Y46.740 E0.00884
G1 X64.787 Y47.179 E0.01376
G1 X64.730 Y47.543 E0.01155
G1 X64.639 Y47.894 E0.01138
G1 X64.512 Y48.234 E0.01138
G1 X64.352 Y48.560 E0.01138
G1 X64.160 Y48.867 E0.01138
G1 X63.937 Y49.154 E0.01138
G1 X63.687 Y49.417 E0.01138
G1 X63.411 Y49.653 E0.01138
G1 X63.113 Y49.860 E0.01138
G1 X62.796 Y50.036 E0.01138
G1 X62.462 Y50.179 E0.01138
G1 X62.120 Y50.287 E0.01126
G1 X61.759 Y50.361 E0.01153
G1 X61.404 Y50.397 E0.01121
G1 X61.029 Y50.397 E0.01176
G1 X60.670 Y50.360 E0.01130
G1 X60.316 Y50.287 E0.01134
G1 X59.945 Y50.169 E0.01220
G1 X59.612 Y50.023 E0.01141
G1 X59.296 Y49.844 E0.01138
G1 X59.000 Y49.635 E0.01138
G1 X58.726 Y49.396 E0.01138
G1 X58.478 Y49.131 E0.01138
G1 X58.295 Y48.890 E0.00950
G1 X58.594 Y48.662 F10800.000
G1 F1500
G1 X58.400 Y48.352 E0.01146
G1 X58.259 Y48.060 E0.01018
G1 X58.148 Y47.755 E0.01018
G1 X58.068 Y47.436 E0.01032
G1 X58.009 Y46.878 E0.01759
G1 X58.026 Y46.472 E0.01274
G1 X58.077 Y46.149 E0.01024
G1 X58.160 Y45.835 E0.01018
G1 X58.275 Y45.531 E0.01018
G1 X58.419 Y45.241 E0.01018
G1 X58.593 Y44.966 E0.01018
G1 X58.793 Y44.710 E0.01018
G1 X59.018 Y44.476 E0.01018
G1 X59.265 Y44.266 E0.01018
G1 X59.533 Y44.082 E0.01018
G1 X59.817 Y43.926 E0.01018
G1 X60.116 Y43.799 E0.01018
G1 X60.427 Y43.703 E0.01018
G1 X60.745 Y43.639 E0.01018
G1 X61.068 Y43.608 E0.01018
G1 X61.393 Y43.609 E0.01018
G1 X61.716 Y43.643 E0.01018
G1 X62.034 Y43.710 E0.01018
G1 X62.343 Y43.808 E0.01018
G1 X62.641 Y43.937 E0.01018
G1 X62.925 Y44.096 E0.01018
G1 X63.191 Y44.282 E0.01018
G1 X63.436 Y44.495 E0.01018
G1 X63.659 Y44.731 E0.01018
G1 X63.857 Y44.988 E0.01018
G1 X64.028 Y45.264 E0.01018
G1 X64.171 Y45.556 E0.01018
G1 X64.283 Y45.861 E0.01018
G1 X64.363 Y46.175 E0.01018
G1 X64.412 Y46.496 E0.01018
G1 X64.424 Y46.743 E0.00775
G1 X64.411 Y47.143 E0.01255
G1 X64.361 Y47.466 E0.01024
G1 X64.279 Y47.780 E0.01018
G1 X64.166 Y48.085 E0.01018
G1 X64.022 Y48.376 E0.01018
G1 X63.850 Y48.651 E0.01018
G1 X63.651 Y48.908 E0.01018
G1 X63.427 Y49.143 E0.01018
G1 X63.180 Y49.354 E0.01018
G1 X62.914 Y49.540 E0.01018
G1 X62.630 Y49.697 E0.01018
G1 X62.331 Y49.825 E0.01018
G1 X62.025 Y49.921 E0.01007
G1 X61.702 Y49.988 E0.01034
G1 X61.385 Y50.020 E0.01000
G1 X61.048 Y50.020 E0.01055
G1 X60.728 Y49.987 E0.01010
G1 X60.412 Y49.922 E0.01012
G1 X60.079 Y49.816 E0.01096
G1 X59.781 Y49.685 E0.01019
G1 X59.498 Y49.525 E0.01018
G1 X59.233 Y49.338 E0.01018
G1 X58.988 Y49.124 E0.01018
G1 X58.766 Y48.887 E0.01018
G1 X58.631 Y48.710 E0.00702
G1 X58.230 Y48.693 F10800.000
G1 F8640
G1 X58.400 Y48.352 E-0.09819
G1 X58.259 Y48.060 E-0.07498
G1 X58.148 Y47.755 E-0.07498
G1 X58.068 Y47.436 E-0.07597
G1 X58.009 Y46.878 E-0.12954
G1 X58.026 Y46.472 E-0.09386
G1 X58.077 Y46.149 E-0.07538
G1 X58.160 Y45.835 E-0.07498
G1 X58.255 Y45.584 E-0.06213
G1 E-0.04000 F2100.00000
G1 Z0.800 F10800.000
G1 X60.669 Y38.358
G1 Z0.200
G1 E0.80000 F2100.00000
G1 F1500
G1 X60.352 Y38.296 E0.01011
G1 X59.948 Y38.170 E0.01328
G1 X59.623 Y38.028 E0.01113
G1 X59.315 Y37.857 E0.01103
G1 X59.027 Y37.656 E0.01103
G1 X58.759 Y37.427 E0.01103
