; generated by Slic3r Prusa Edition 1.40.1+linux64 on 2018-10-24 at 09:27:04

; 

; external perimeters extrusion width = 0.45mm
; perimeters extrusion width = 0.45mm
; infill extrusion width = 0.45mm
; solid infill extrusion width = 0.45mm
; top infill extrusion width = 0.40mm
; first layer extrusion width = 0.42mm

M107
M115 U3.3.1 ; tell printer latest fw version
M83  ; extruder relative mode
M104 S215 ; set extruder temp
M140 S60 ; set bed temp
M190 S60 ; wait for bed temp
M109 S215 ; wait for extruder temp
G28 W ; home all without mesh bed level
G80 ; mesh bed leveling
G1 Y-3.0 F1000.0 ; go outside print area
G92 E0.0
G1 X60.0 E9.0  F1000.0 ; intro line
G1 X100.0 E12.5  F1000.0 ; intro line
G92 E0.0
M221 S95
M900 K30; Filament gcode
G21 ; set units to millimeters
G90 ; use absolute coordinates
M83 ; use relative distances for extrusion
;BEFORE_LAYER_CHANGE
G92 E0.0
;0.2


G1 E-0.80000 F2100.00000
G1 Z0.600 F10800.000
;AFTER_LAYER_CHANGE
;0.2
G1 X65.068 Y70.709
G1 Z0.200
G1 E0.80000 F2100.00000
M204 S1000
G1 F1200
G1 X66.333 Y69.529 E0.05424
G1 X67.476 Y68.704 E0.04421
G1 X68.805 Y67.974 E0.04754
G1 X70.366 Y67.370 E0.05247
G1 X71.725 Y67.026 E0.04396
G1 X73.236 Y66.835 E0.04776
G1 X128.104 Y66.811 E1.72034
G1 X130.235 Y67.019 E0.06714
G1 X131.847 Y67.436 E0.05222
G1 X133.188 Y67.970 E0.04525
G1 X134.425 Y68.646 E0.04421
G1 X135.829 Y69.660 E0.05427
G1 X136.883 Y70.655 E0.04547
G1 X137.777 Y71.728 E0.04379
G1 X138.684 Y73.135 E0.05249
G1 X139.326 Y74.499 E0.04726
G1 X139.765 Y75.831 E0.04398
G1 X140.093 Y77.481 E0.05276
G1 X140.189 Y78.897 E0.04448
G1 X140.186 Y131.213 E1.64035
G1 X140.091 Y132.537 E0.04162
G1 X139.832 Y133.915 E0.04395
G1 X139.328 Y135.499 E0.05211
G1 X138.613 Y136.987 E0.05176
G1 X137.861 Y138.163 E0.04378
G1 X136.928 Y139.296 E0.04602
G1 X135.667 Y140.471 E0.05404
G1 X134.524 Y141.296 E0.04421
G1 X133.192 Y142.028 E0.04765
G1 X131.776 Y142.589 E0.04776
G1 X130.415 Y142.944 E0.04410
G1 X128.713 Y143.167 E0.05381
G1 X63.967 Y143.188 E2.03006
G1 X63.251 Y143.121 E0.02255
G1 X62.616 Y142.952 E0.02060
G1 X61.838 Y142.586 E0.02695
G1 X61.275 Y142.180 E0.02178
G1 X60.625 Y141.480 E0.02992
G1 X60.161 Y140.669 E0.02931
G1 X59.925 Y139.966 E0.02327
G1 X59.813 Y139.077 E0.02808
G1 X59.815 Y98.883 E1.26025
G1 X61.928 Y77.345 E0.67857
G1 X62.233 Y75.837 E0.04824
G1 X62.668 Y74.512 E0.04373
G1 X63.258 Y73.247 E0.04375
G1 X64.124 Y71.858 E0.05133
G1 X65.029 Y70.755 E0.04474
G1 F8640
G1 X66.333 Y69.529 E-0.41316
G1 X67.476 Y68.704 E-0.32557
G1 X67.557 Y68.660 E-0.02127
G1 E-0.04000 F2100.00000
G1 Z0.800 F10800.000
G1 X65.449 Y139.587
G1 Z0.200
G1 E0.80000 F2100.00000
G1 F1200
G1 X127.351 Y139.577 E1.94090
G1 X128.047 Y139.489 E0.02200
G1 X128.727 Y139.315 E0.02201
G1 X129.379 Y139.056 E0.02200
G1 X129.994 Y138.718 E0.02200
G1 X130.562 Y138.306 E0.02200
G1 X131.074 Y137.825 E0.02200
G1 X131.521 Y137.285 E0.02201
G1 X131.897 Y136.692 E0.02200
G1 X132.196 Y136.057 E0.02200
G1 X132.413 Y135.390 E0.02200
G1 X132.544 Y134.700 E0.02201
G1 X132.587 Y134.018 E0.02142
G1 X132.587 Y103.982 E0.94179
G1 X132.544 Y103.300 E0.02143
G1 X132.413 Y102.610 E0.02201
G1 X132.196 Y101.943 E0.02200
G1 X131.897 Y101.308 E0.02201
G1 X131.521 Y100.715 E0.02200
G1 X131.074 Y100.175 E0.02200
G1 X130.562 Y99.694 E0.02200
G1 X129.994 Y99.282 E0.02200
G1 X129.379 Y98.944 E0.02200
G1 X128.727 Y98.685 E0.02201
G1 X128.047 Y98.511 E0.02200
G1 X127.358 Y98.424 E0.02178
G1 X126.907 Y98.413 E0.01414
G1 X65.449 Y98.413 E1.92698
G1 X65.401 Y99.177 E0.02400
G1 X65.313 Y99.520 E0.01110
G1 X65.143 Y99.829 E0.01106
G1 X64.900 Y100.088 E0.01113
G1 X64.601 Y100.277 E0.01109
G1 X64.264 Y100.387 E0.01110
G1 X64.089 Y100.409 E0.00556
G1 X63.736 Y100.387 E0.01109
G1 X63.399 Y100.277 E0.01110
G1 X63.244 Y100.192 E0.00555
G1 X62.971 Y99.966 E0.01110
G1 X62.858 Y99.830 E0.00556
G1 X62.687 Y99.520 E0.01110
G1 X62.600 Y99.178 E0.01106
G1 X62.588 Y99.000 E0.00560
G1 X62.633 Y98.649 E0.01109
G1 X62.687 Y98.480 E0.00556
G1 X62.857 Y98.171 E0.01107
G1 X62.971 Y98.033 E0.00560
G1 X63.243 Y97.809 E0.01106
G1 X63.399 Y97.723 E0.00559
G1 X63.724 Y97.616 E0.01071
G1 X64.587 Y97.544 E0.02717
G1 X64.587 Y78.920 E0.58393
G1 X64.662 Y77.822 E0.03451
G1 X64.884 Y76.659 E0.03711
G1 X65.249 Y75.535 E0.03706
G1 X65.752 Y74.466 E0.03706
G1 X66.386 Y73.468 E0.03706
G1 X67.139 Y72.557 E0.03706
G1 X68.001 Y71.748 E0.03706
G1 X68.957 Y71.053 E0.03706
G1 X69.993 Y70.484 E0.03706
G1 X71.092 Y70.049 E0.03706
G1 X72.236 Y69.755 E0.03706
G1 X73.409 Y69.607 E0.03706
G1 X74.487 Y69.607 E0.03380
G1 X74.487 Y69.587 E0.00062
G1 X127.513 Y69.587 E1.66259
G1 X127.513 Y69.607 E0.00062
G1 X128.591 Y69.607 E0.03380
G1 X129.764 Y69.755 E0.03706
G1 X130.908 Y70.049 E0.03706
G1 X132.007 Y70.484 E0.03706
G1 X133.043 Y71.053 E0.03706
G1 X133.999 Y71.748 E0.03706
G1 X134.861 Y72.557 E0.03706
G1 X135.614 Y73.468 E0.03706
G1 X136.248 Y74.466 E0.03706
G1 X136.748 Y75.530 E0.03687
G1 X137.116 Y76.660 E0.03725
G1 X137.338 Y77.822 E0.03710
G1 X137.413 Y78.920 E0.03451
G1 X137.413 Y82.413 E0.10952
G1 X133.551 Y82.413 E0.12108
G1 X133.505 Y81.673 E0.02325
G1 X133.256 Y80.367 E0.04169
G1 X132.845 Y79.102 E0.04169
G1 X132.279 Y77.899 E0.04170
G1 X131.562 Y76.771 E0.04189
G1 X130.718 Y75.752 E0.04149
G1 X129.749 Y74.842 E0.04169
G1 X128.674 Y74.060 E0.04169
G1 X127.508 Y73.419 E0.04169
G1 X126.272 Y72.930 E0.04169
G1 X124.984 Y72.599 E0.04169
G1 X123.665 Y72.433 E0.04169
G1 X77.991 Y72.413 E1.43208
G1 X77.335 Y72.433 E0.02057
G1 X76.673 Y72.496 E0.02085
G1 X76.016 Y72.600 E0.02085
G1 X75.367 Y72.745 E0.02086
G1 X74.728 Y72.931 E0.02085
G1 X74.103 Y73.156 E0.02085
G1 X73.492 Y73.420 E0.02086
G1 X72.899 Y73.722 E0.02085
G1 X72.327 Y74.061 E0.02085
G1 X71.777 Y74.435 E0.02085
G1 X71.251 Y74.842 E0.02085
G1 X70.752 Y75.282 E0.02085
G1 X70.282 Y75.752 E0.02086
G1 X69.842 Y76.251 E0.02086
G1 X69.437 Y76.774 E0.02075
G1 X69.061 Y77.327 E0.02095
G1 X68.722 Y77.900 E0.02086
G1 X68.420 Y78.492 E0.02085
G1 X68.156 Y79.103 E0.02086
G1 X67.931 Y79.728 E0.02085
G1 X67.745 Y80.367 E0.02086
G1 X67.600 Y81.016 E0.02085
G1 X67.496 Y81.673 E0.02085
G1 X67.434 Y82.335 E0.02085
G1 X67.413 Y83.000 E0.02085
G1 X67.433 Y83.662 E0.02075
G1 X67.496 Y84.327 E0.02095
G1 X67.600 Y84.984 E0.02086
G1 X67.745 Y85.633 E0.02085
G1 X67.930 Y86.269 E0.02075
G1 X68.156 Y86.897 E0.02095
G1 X68.420 Y87.508 E0.02086
G1 X68.722 Y88.100 E0.02085
G1 X69.061 Y88.673 E0.02086
G1 X69.433 Y89.220 E0.02075
G1 X69.842 Y89.749 E0.02095
G1 X70.282 Y90.248 E0.02086
G1 X70.752 Y90.718 E0.02086
G1 X71.251 Y91.158 E0.02085
G1 X71.777 Y91.565 E0.02085
G1 X72.327 Y91.939 E0.02085
G1 X72.899 Y92.278 E0.02085
G1 X73.492 Y92.580 E0.02085
G1 X74.103 Y92.844 E0.02086
G1 X74.728 Y93.069 E0.02085
G1 X75.367 Y93.255 E0.02085
G1 X76.016 Y93.400 E0.02086
G1 X76.673 Y93.504 E0.02085
G1 X77.335 Y93.567 E0.02085
G1 X77.991 Y93.587 E0.02057
G1 X127.513 Y93.587 E1.55273
G1 X127.513 Y93.607 E0.00062
G1 X128.591 Y93.607 E0.03380
G1 X129.764 Y93.755 E0.03706
G1 X130.908 Y94.049 E0.03706
G1 X132.007 Y94.484 E0.03706
G1 X133.043 Y95.053 E0.03706
G1 X133.999 Y95.748 E0.03706
G1 X134.861 Y96.557 E0.03706
G1 X135.610 Y97.463 E0.03687
G1 X136.248 Y98.466 E0.03726
G1 X136.751 Y99.535 E0.03705
G1 X137.116 Y100.659 E0.03706
G1 X137.338 Y101.822 E0.03711
G1 X137.413 Y102.920 E0.03451
G1 X137.413 Y131.080 E0.88293
G1 X137.338 Y132.178 E0.03451
G1 X137.116 Y133.341 E0.03711
G1 X136.751 Y134.465 E0.03706
G1 X136.248 Y135.534 E0.03706
G1 X135.614 Y136.532 E0.03706
G1 X134.861 Y137.443 E0.03706
G1 X133.999 Y138.252 E0.03706
G1 X133.043 Y138.947 E0.03706
G1 X132.007 Y139.516 E0.03706
G1 X130.908 Y139.951 E0.03706
G1 X129.764 Y140.245 E0.03706
G1 X128.591 Y140.393 E0.03706
G1 X127.513 Y140.393 E0.03380
G1 X127.513 Y140.413 E0.00062
G1 X64.028 Y140.413 E1.99054
G1 X63.726 Y140.384 E0.00949
G1 X63.399 Y140.277 E0.01081
G1 X63.100 Y140.088 E0.01110
G1 X62.858 Y139.830 E0.01109
G1 X62.687 Y139.520 E0.01110
G1 X62.599 Y139.177 E0.01109
G1 X62.599 Y138.823 E0.01110
G1 X62.687 Y138.480 E0.01110
G1 X62.763 Y138.320 E0.00556
G1 X62.971 Y138.034 E0.01110
G1 X63.100 Y137.912 E0.00556
G1 X63.399 Y137.723 E0.01110
G1 X63.564 Y137.657 E0.00556
G1 X63.911 Y137.591 E0.01110
G1 X64.089 Y137.591 E0.00556
G1 X64.436 Y137.657 E0.01110
G1 X64.756 Y137.808 E0.01109
G1 X64.901 Y137.913 E0.00560
G1 X65.142 Y138.170 E0.01106
G1 X65.237 Y138.320 E0.00556
G1 X65.367 Y138.649 E0.01110
G1 X65.401 Y138.823 E0.00556
G1 X65.445 Y139.527 E0.02212
G1 X65.803 Y139.210 F10800.000
G1 F1200
G1 X127.327 Y139.200 E1.92906
G1 X127.976 Y139.118 E0.02051
G1 X128.610 Y138.955 E0.02052
G1 X129.219 Y138.715 E0.02052
G1 X129.792 Y138.399 E0.02051
G1 X130.321 Y138.015 E0.02052
G1 X130.798 Y137.567 E0.02052
G1 X131.215 Y137.063 E0.02052
G1 X131.566 Y136.510 E0.02052
G1 X131.845 Y135.918 E0.02052
G1 X132.047 Y135.296 E0.02052
G1 X132.169 Y134.653 E0.02052
G1 X132.210 Y134.007 E0.02031
G1 X132.210 Y103.993 E0.94104
G1 X132.169 Y103.347 E0.02031
G1 X132.047 Y102.704 E0.02052
G1 X131.845 Y102.082 E0.02051
G1 X131.566 Y101.490 E0.02052
G1 X131.215 Y100.937 E0.02051
G1 X130.798 Y100.433 E0.02052
G1 X130.321 Y99.985 E0.02052
G1 X129.792 Y99.601 E0.02052
G1 X129.219 Y99.286 E0.02051
G1 X128.610 Y99.045 E0.02052
G1 X127.976 Y98.882 E0.02052
G1 X127.330 Y98.800 E0.02043
G1 X65.803 Y98.790 E1.92913
G1 X65.775 Y99.224 E0.01365
G1 X65.733 Y99.445 E0.00705
G1 X65.664 Y99.659 E0.00705
G1 X65.568 Y99.862 E0.00705
G1 X65.448 Y100.051 E0.00701
G1 X65.305 Y100.225 E0.00708
G1 X65.141 Y100.379 E0.00704
G1 X64.959 Y100.511 E0.00705
G1 X64.762 Y100.619 E0.00705
G1 X64.553 Y100.702 E0.00705
G1 X64.335 Y100.758 E0.00705
G1 X64.112 Y100.786 E0.00705
G1 X63.888 Y100.786 E0.00705
G1 X63.665 Y100.758 E0.00705
G1 X63.447 Y100.702 E0.00705
G1 X63.238 Y100.619 E0.00705
G1 X63.041 Y100.511 E0.00705
G1 X62.859 Y100.379 E0.00705
G1 X62.695 Y100.225 E0.00705
G1 X62.552 Y100.052 E0.00705
G1 X62.432 Y99.862 E0.00705
G1 X62.336 Y99.659 E0.00705
G1 X62.267 Y99.445 E0.00705
G1 X62.225 Y99.225 E0.00701
G1 X62.210 Y99.000 E0.00709
G1 X62.225 Y98.776 E0.00705
G1 X62.267 Y98.555 E0.00705
G1 X62.336 Y98.341 E0.00704
G1 X62.432 Y98.138 E0.00705
G1 X62.552 Y97.949 E0.00701
G1 X62.695 Y97.775 E0.00708
G1 X62.859 Y97.621 E0.00704
G1 X63.040 Y97.490 E0.00701
G1 X63.238 Y97.381 E0.00708
G1 X63.447 Y97.298 E0.00704
G1 X63.660 Y97.243 E0.00691
G1 X64.210 Y97.197 E0.01729
G1 X64.210 Y78.907 E0.57346
G1 X64.287 Y77.774 E0.03562
G1 X64.518 Y76.565 E0.03857
G1 X64.898 Y75.396 E0.03855
G1 X65.421 Y74.284 E0.03855
G1 X66.080 Y73.246 E0.03855
G1 X66.864 Y72.299 E0.03855
G1 X67.760 Y71.457 E0.03855
G1 X68.754 Y70.734 E0.03855
G1 X69.832 Y70.142 E0.03855
G1 X70.975 Y69.690 E0.03855
G1 X72.166 Y69.384 E0.03855
G1 X73.385 Y69.230 E0.03855
G1 X74.110 Y69.230 E0.02272
G1 X74.110 Y69.210 E0.00062
G1 X127.890 Y69.210 E1.68623
G1 X127.890 Y69.230 E0.00062
G1 X128.615 Y69.230 E0.02272
G1 X129.834 Y69.384 E0.03855
G1 X131.025 Y69.690 E0.03855
G1 X132.168 Y70.142 E0.03855
G1 X133.246 Y70.734 E0.03855
G1 X134.240 Y71.457 E0.03855
G1 X135.136 Y72.299 E0.03855
G1 X135.920 Y73.246 E0.03855
G1 X136.579 Y74.284 E0.03855
G1 X137.100 Y75.391 E0.03835
G1 X137.482 Y76.565 E0.03874
G1 X137.712 Y77.774 E0.03856
G1 X137.790 Y78.907 E0.03562
G1 X137.790 Y82.790 E0.12174
G1 X133.197 Y82.790 E0.14400
G1 X133.130 Y81.720 E0.03361
G1 X132.890 Y80.461 E0.04020
G1 X132.493 Y79.241 E0.04020
G1 X131.947 Y78.081 E0.04021
G1 X131.256 Y76.994 E0.04040
G1 X130.443 Y76.010 E0.04000
G1 X129.508 Y75.133 E0.04020
G1 X128.471 Y74.379 E0.04020
G1 X127.347 Y73.761 E0.04021
G1 X126.155 Y73.289 E0.04020
G1 X124.913 Y72.970 E0.04020
G1 X123.641 Y72.810 E0.04020
G1 X77.997 Y72.790 E1.43115
G1 X77.359 Y72.810 E0.02001
G1 X76.720 Y72.870 E0.02011
G1 X76.087 Y72.971 E0.02011
G1 X75.461 Y73.111 E0.02011
G1 X74.845 Y73.290 E0.02011
G1 X74.241 Y73.507 E0.02011
G1 X73.653 Y73.762 E0.02011
G1 X73.081 Y74.053 E0.02011
G1 X72.529 Y74.379 E0.02011
G1 X71.999 Y74.740 E0.02011
G1 X71.492 Y75.133 E0.02011
G1 X71.011 Y75.557 E0.02011
G1 X70.557 Y76.011 E0.02011
G1 X70.133 Y76.492 E0.02011
G1 X69.742 Y76.996 E0.02001
G1 X69.379 Y77.529 E0.02021
G1 X69.053 Y78.081 E0.02011
G1 X68.762 Y78.653 E0.02011
G1 X68.507 Y79.241 E0.02011
G1 X68.290 Y79.845 E0.02011
G1 X68.111 Y80.461 E0.02011
G1 X67.971 Y81.087 E0.02011
G1 X67.870 Y81.720 E0.02011
G1 X67.810 Y82.359 E0.02011
G1 X67.790 Y83.000 E0.02011
G1 X67.810 Y83.638 E0.02001
G1 X67.870 Y84.280 E0.02021
G1 X67.971 Y84.913 E0.02011
G1 X68.111 Y85.539 E0.02011
G1 X68.289 Y86.152 E0.02001
G1 X68.507 Y86.759 E0.02021
G1 X68.762 Y87.347 E0.02011
G1 X69.053 Y87.919 E0.02011
G1 X69.379 Y88.471 E0.02011
G1 X69.738 Y88.999 E0.02001
G1 X70.133 Y89.508 E0.02021
G1 X70.557 Y89.989 E0.02011
G1 X71.011 Y90.443 E0.02011
G1 X71.492 Y90.867 E0.02011
G1 X71.999 Y91.260 E0.02011
G1 X72.529 Y91.621 E0.02011
G1 X73.081 Y91.947 E0.02011
G1 X73.653 Y92.238 E0.02011
G1 X74.241 Y92.493 E0.02011
G1 X74.845 Y92.710 E0.02011
G1 X75.461 Y92.889 E0.02011
G1 X76.087 Y93.029 E0.02011
G1 X76.720 Y93.130 E0.02011
G1 X77.359 Y93.190 E0.02011
G1 X77.997 Y93.210 E0.02001
G1 X127.890 Y93.210 E1.56437
G1 X127.890 Y93.230 E0.00062
G1 X128.615 Y93.230 E0.02272
G1 X129.834 Y93.384 E0.03855
G1 X131.025 Y93.690 E0.03855
G1 X132.168 Y94.142 E0.03855
G1 X133.246 Y94.734 E0.03855
G1 X134.240 Y95.457 E0.03855
G1 X135.136 Y96.299 E0.03855
G1 X135.916 Y97.241 E0.03835
G1 X136.579 Y98.284 E0.03874
G1 X137.102 Y99.396 E0.03854
G1 X137.482 Y100.565 E0.03854
G1 X137.712 Y101.774 E0.03857
G1 X137.790 Y102.907 E0.03562
G1 X137.790 Y131.093 E0.88374
G1 X137.712 Y132.226 E0.03562
G1 X137.482 Y133.435 E0.03856
G1 X137.102 Y134.604 E0.03855
G1 X136.579 Y135.716 E0.03855
G1 X135.920 Y136.754 E0.03855
G1 X135.136 Y137.701 E0.03855
G1 X134.240 Y138.543 E0.03855
G1 X133.246 Y139.266 E0.03854
G1 X132.168 Y139.858 E0.03855
G1 X131.025 Y140.310 E0.03855
G1 X129.834 Y140.616 E0.03855
G1 X128.615 Y140.770 E0.03855
G1 X127.890 Y140.770 E0.02272
G1 X127.890 Y140.790 E0.00062
G1 X64.010 Y140.790 E2.00292
G1 X63.661 Y140.757 E0.01097
G1 X63.447 Y140.702 E0.00694
G1 X63.238 Y140.619 E0.00705
G1 X63.042 Y140.512 E0.00701
G1 X62.859 Y140.379 E0.00709
G1 X62.695 Y140.225 E0.00704
G1 X62.552 Y140.052 E0.00705
G1 X62.432 Y139.863 E0.00701
G1 X62.336 Y139.659 E0.00709
G1 X62.267 Y139.445 E0.00704
G1 X62.225 Y139.224 E0.00705
G1 X62.210 Y139.000 E0.00705
G1 X62.225 Y138.776 E0.00705
G1 X62.267 Y138.555 E0.00705
G1 X62.336 Y138.341 E0.00705
G1 X62.432 Y138.138 E0.00705
G1 X62.552 Y137.948 E0.00705
G1 X62.695 Y137.775 E0.00705
G1 X62.859 Y137.621 E0.00705
G1 X63.041 Y137.489 E0.00705
G1 X63.238 Y137.381 E0.00705
G1 X63.447 Y137.298 E0.00705
G1 X63.665 Y137.242 E0.00705
G1 X63.888 Y137.214 E0.00705
G1 X64.112 Y137.214 E0.00705
G1 X64.335 Y137.242 E0.00705
G1 X64.553 Y137.298 E0.00705
G1 X64.762 Y137.381 E0.00705
G1 X64.959 Y137.489 E0.00704
G1 X65.142 Y137.622 E0.00709
G1 X65.305 Y137.775 E0.00701
G1 X65.448 Y137.948 E0.00705
G1 X65.568 Y138.138 E0.00705
G1 X65.664 Y138.341 E0.00705
G1 X65.733 Y138.555 E0.00705
G1 X65.775 Y138.776 E0.00705
G1 X65.799 Y139.150 E0.01176
G1 X65.817 Y139.610 F10800.000
G1 X65.313 Y139.234
G1 F1200
G1 X63.957 Y137.877 E0.06032
G1 X63.643 Y137.930 E0.01000
G1 X63.528 Y137.976 E0.00389
G1 X65.675 Y140.130 E0.09563
G1 X65.140 Y140.130 E0.01681
G1 X63.214 Y138.204 E0.08564
G1 X63.088 Y138.338 E0.00576
G1 X62.991 Y138.516 E0.00638
G1 X64.605 Y140.130 E0.07179
G1 X64.070 Y140.130 E0.01681
G1 X62.882 Y138.942 E0.05284
G1 X62.882 Y139.150 E0.00655
G1 X62.905 Y139.272 E0.00389
G1 X63.013 Y139.544 E0.00920
G1 X63.183 Y139.778 E0.00910
G1 X63.655 Y140.249 E0.02097
G1 F8640
G1 X63.183 Y139.778 E-0.15400
G1 X63.013 Y139.544 E-0.06681
G1 X62.905 Y139.272 E-0.06753
G1 X62.882 Y139.150 E-0.02857
G1 X62.882 Y138.942 E-0.04812
G1 X64.070 Y140.130 E-0.38804
G1 X64.100 Y140.130 E-0.00693
G1 E-0.04000 F2100.00000
G1 Z0.800 F10800.000
G1 X65.780 Y139.700
G1 Z0.200
G1 E0.80000 F2100.00000
G1 F1200
G1 X66.209 Y140.130 E0.01912
G1 X66.744 Y140.130 E0.01681
G1 X66.484 Y139.870 E0.01158
G1 X67.018 Y139.870 E0.01681
G1 X67.279 Y140.130 E0.01158
G1 X67.814 Y140.130 E0.01681
