; generated by Slic3r Prusa Edition 1.41.0+win64 on 2018-11-05 at 17:59:11

; 

; external perimeters extrusion width = 0.45mm
; perimeters extrusion width = 0.45mm
; infill extrusion width = 0.45mm
; solid infill extrusion width = 0.45mm
; top infill extrusion width = 0.40mm
; support material extrusion width = 0.35mm
; first layer extrusion width = 0.42mm

M201 X1000 Y1000 Z1000 E5000 ; sets maximum accelerations, mm/sec^2
M203 X200 Y200 Z12 E120 ; sets maximum feedrates, mm/sec
M204 P1250 R1250 T1250 ; sets acceleration (P, T) and retract acceleration (R), mm/sec^2
M205 X8.00 Y8.00 Z0.40 E1.50 ; sets the jerk limits, mm/sec
M205 S0 T0 ; sets the minimum extruding and travel feed rate, mm/sec
M107
M115 U3.4.1 ; tell printer latest fw version
M83  ; extruder relative mode
M104 S230 ; set extruder temp
M140 S85 ; set bed temp
M190 S85 ; wait for bed temp
M109 S230 ; wait for extruder temp
G28 W ; home all without mesh bed level
G80 ; mesh bed leveling
G1 Y-3.0 F1000.0 ; go outside print area
G92 E0.0
G1 X60.0 E9.0  F1000.0 ; intro line
M73 Q0 S148
M73 P0 R147
G1 X100.0 E12.5  F1000.0 ; intro line
G92 E0.0
M221 S95
M900 K45; Filament gcode
G21 ; set units to millimeters
G90 ; use absolute coordinates
M83 ; use relative distances for extrusion
;BEFORE_LAYER_CHANGE
G92 E0.0
;0.2


G1 E-0.80000 F2100.00000
G1 Z0.600 F10800.000
;AFTER_LAYER_CHANGE
;0.2
G1 X142.960 Y121.718
G1 Z0.200
G1 E0.80000 F2100.00000
M204 S1000
G1 F1800
G1 X143.598 Y121.097 E0.02793
G1 X144.219 Y120.678 E0.02348
G1 X144.900 Y120.367 E0.02348
G1 X145.622 Y120.171 E0.02348
G1 X146.373 Y120.096 E0.02364
G1 X200.362 Y120.095 E1.69279
G1 X201.459 Y120.230 E0.03467
G1 X202.492 Y120.626 E0.03467
G1 X203.400 Y121.257 E0.03467
G1 X204.132 Y122.093 E0.03484
G1 X204.487 Y122.716 E0.02249
G1 X208.256 Y130.855 E0.28123
G1 X208.516 Y131.598 E0.02468
G1 X208.649 Y132.297 E0.02232
G1 X209.480 Y151.688 E0.60853
G1 X209.461 Y158.247 E0.20566
G1 X209.281 Y159.146 E0.02875
G1 X208.927 Y159.987 E0.02859
G1 X206.435 Y164.544 E0.16284
G1 X205.967 Y165.174 E0.02463
G1 X205.398 Y165.716 E0.02463
G1 X204.827 Y166.105 E0.02166
G1 X204.199 Y166.405 E0.02183
G1 X203.533 Y166.607 E0.02183
G1 X202.843 Y166.704 E0.02183
G1 X147.730 Y169.418 E1.73013
G1 X144.233 Y169.237 E0.10981
G1 X143.350 Y169.080 E0.02809
G1 X142.682 Y168.835 E0.02232
G1 X142.060 Y168.489 E0.02232
G1 X141.503 Y168.054 E0.02216
G1 X141.017 Y167.534 E0.02232
G1 X140.625 Y166.959 E0.02183
G1 X140.323 Y166.325 E0.02199
G1 X140.122 Y165.653 E0.02199
G1 X140.027 Y164.964 E0.02183
G1 X140.025 Y151.410 E0.42496
G1 X141.917 Y124.125 E0.85756
G1 X142.106 Y123.260 E0.02776
G1 X142.458 Y122.448 E0.02776
G1 X142.926 Y121.768 E0.02588
G1 X143.236 Y121.982 F10800.000
G1 F1800
G1 X143.850 Y121.378 E0.02702
G1 X144.417 Y120.999 E0.02138
G1 X145.043 Y120.716 E0.02154
G1 X145.701 Y120.540 E0.02138
G1 X146.385 Y120.473 E0.02154
G1 X200.362 Y120.472 E1.69240
G1 X201.378 Y120.599 E0.03210
G1 X202.333 Y120.968 E0.03210
G1 X203.170 Y121.557 E0.03210
G1 X203.841 Y122.337 E0.03226
G1 X207.910 Y131.006 E0.30027
G1 X208.153 Y131.700 E0.02304
G1 X208.276 Y132.355 E0.02090
G1 X209.103 Y151.702 E0.60716
G1 X209.087 Y158.198 E0.20369
G1 X208.922 Y159.030 E0.02659
G1 X208.594 Y159.809 E0.02650
G1 X206.120 Y164.337 E0.16178
G1 X205.684 Y164.925 E0.02296
G1 X205.153 Y165.429 E0.02296
G1 X204.050 Y166.058 E0.03980
G1 X202.810 Y166.329 E0.03980
G1 X147.721 Y169.041 E1.72939
G1 X144.273 Y168.861 E0.10825
G1 X143.482 Y168.725 E0.02517
G1 X142.859 Y168.501 E0.02075
G1 X142.280 Y168.182 E0.02075
G1 X141.758 Y167.776 E0.02075
G1 X141.303 Y167.288 E0.02090
G1 X140.670 Y166.176 E0.04011
G1 X140.402 Y164.920 E0.04027
G1 X140.402 Y151.431 E0.42295
G1 X142.290 Y124.186 E0.85631
G1 X142.463 Y123.381 E0.02580
G1 X142.790 Y122.626 E0.02580
G1 X143.202 Y122.032 E0.02268
G1 F8640
G1 X143.850 Y121.378 E-0.21259
G1 X144.417 Y120.999 E-0.15744
G1 X145.043 Y120.716 E-0.15860
G1 X145.701 Y120.540 E-0.15744
G1 X146.020 Y120.509 E-0.07393
G1 E-0.04000 F2100.00000
G1 Z0.800 F10800.000
G1 X202.053 Y130.860
G1 Z0.200
G1 E0.80000 F2100.00000
G1 F1800
G1 X204.053 Y130.870 E0.06270
G1 X204.487 Y130.968 E0.01396
G1 X204.866 Y131.151 E0.01319
G1 X205.270 Y131.479 E0.01633
G1 X205.609 Y131.969 E0.01866
G1 X205.806 Y132.679 E0.02312
G1 X205.811 Y137.119 E0.13919
G1 X205.792 Y137.861 E0.02328
G1 X205.726 Y138.428 E0.01791
G1 X205.627 Y138.917 E0.01562
G1 X205.487 Y139.410 E0.01609
G1 X205.304 Y139.905 E0.01655
G1 X205.102 Y140.341 E0.01508
G1 X204.868 Y140.762 E0.01508
G1 X204.567 Y141.215 E0.01706
G1 X204.230 Y141.643 E0.01708
G1 X203.893 Y142.006 E0.01553
G1 X203.540 Y142.333 E0.01510
G1 X203.100 Y142.680 E0.01756
G1 X202.659 Y142.971 E0.01658
G1 X202.237 Y143.205 E0.01511
G1 X201.800 Y143.407 E0.01509
G1 X201.292 Y143.595 E0.01700
G1 X200.782 Y143.738 E0.01660
G1 X200.264 Y143.838 E0.01657
G1 X199.785 Y143.893 E0.01511
G1 X199.297 Y143.913 E0.01532
G1 X151.199 Y143.913 E1.50806
G1 X151.128 Y144.368 E0.01444
G1 X151.004 Y144.842 E0.01538
G1 X150.847 Y145.287 E0.01480
G1 X150.653 Y145.719 E0.01483
G1 X150.406 Y146.164 E0.01596
G1 X150.101 Y146.613 E0.01702
G1 X149.811 Y146.968 E0.01438
G1 X149.484 Y147.310 E0.01483
G1 X149.091 Y147.654 E0.01636
G1 X148.709 Y147.934 E0.01487
G1 X148.299 Y148.186 E0.01509
G1 X147.616 Y148.510 E0.02371
G1 X147.229 Y148.621 E0.01261
G1 X146.710 Y148.669 E0.01636
G1 X146.230 Y148.619 E0.01513
G1 X145.806 Y148.494 E0.01386
G1 X145.439 Y148.315 E0.01280
G1 X145.083 Y148.059 E0.01375
G1 X144.767 Y147.733 E0.01424
G1 X144.558 Y147.434 E0.01142
G1 X144.394 Y147.107 E0.01148
G1 X144.256 Y146.656 E0.01478
G1 X144.203 Y146.179 E0.01504
G1 X144.203 Y136.614 E0.29993
G1 X144.245 Y135.942 E0.02110
G1 X144.338 Y135.393 E0.01747
G1 X144.458 Y134.935 E0.01483
G1 X144.616 Y134.489 E0.01485
G1 X144.825 Y134.026 E0.01593
G1 X145.058 Y133.610 E0.01494
G1 X145.398 Y133.106 E0.01906
G1 X145.024 Y132.729 E0.01662
G1 X144.914 Y132.558 E0.00639
G1 X144.755 Y132.063 E0.01630
G1 X144.755 Y124.374 E0.24110
G1 X144.815 Y124.095 E0.00894
G1 X145.039 Y123.673 E0.01499
G1 X145.455 Y123.258 E0.01843
G1 X145.694 Y123.104 E0.00891
G1 X146.149 Y122.964 E0.01493
G1 X200.680 Y122.968 E1.70977
G1 X200.918 Y123.023 E0.00765
G1 X201.237 Y123.173 E0.01107
G1 X201.756 Y123.660 E0.02230
G1 X201.913 Y123.902 E0.00905
G1 X202.044 Y124.300 E0.01312
G1 X202.053 Y130.800 E0.20380
G1 X201.676 Y131.235 F10800.000
G1 F1800
G1 X204.029 Y131.247 E0.07377
G1 X204.378 Y131.330 E0.01125
G1 X204.678 Y131.478 E0.01050
G1 X205.008 Y131.751 E0.01342
G1 X205.278 Y132.153 E0.01518
G1 X205.429 Y132.705 E0.01794
G1 X205.434 Y137.117 E0.13834
G1 X205.417 Y137.826 E0.02224
G1 X205.352 Y138.377 E0.01739
G1 X205.259 Y138.834 E0.01465
G1 X205.127 Y139.300 E0.01517
G1 X204.953 Y139.766 E0.01561
G1 X204.763 Y140.176 E0.01418
G1 X204.542 Y140.572 E0.01420
G1 X204.258 Y141.000 E0.01612
G1 X203.939 Y141.403 E0.01611
G1 X203.631 Y141.734 E0.01418
G1 X203.300 Y142.042 E0.01418
G1 X202.885 Y142.370 E0.01659
G1 X202.469 Y142.646 E0.01565
G1 X202.073 Y142.866 E0.01421
G1 X201.649 Y143.062 E0.01463
G1 X201.183 Y143.234 E0.01559
G1 X200.702 Y143.369 E0.01564
G1 X200.213 Y143.465 E0.01563
G1 X199.749 Y143.518 E0.01465
G1 X199.293 Y143.536 E0.01431
G1 X150.875 Y143.536 E1.51812
G1 X150.761 Y144.282 E0.02367
G1 X150.641 Y144.739 E0.01481
G1 X150.499 Y145.141 E0.01335
G1 X150.319 Y145.543 E0.01382
G1 X150.081 Y145.974 E0.01543
G1 X149.804 Y146.381 E0.01545
G1 X149.524 Y146.724 E0.01387
G1 X149.218 Y147.042 E0.01386
G1 X148.862 Y147.355 E0.01485
G1 X148.493 Y147.626 E0.01436
G1 X148.111 Y147.859 E0.01401
G1 X147.469 Y148.162 E0.02228
G1 X147.174 Y148.247 E0.00962
G1 X146.727 Y148.292 E0.01409
G1 X146.317 Y148.252 E0.01292
G1 X145.954 Y148.148 E0.01182
G1 X145.643 Y147.997 E0.01083
G1 X145.340 Y147.782 E0.01168
G1 X145.065 Y147.502 E0.01228
G1 X144.889 Y147.252 E0.00960
G1 X144.739 Y146.953 E0.01049
G1 X144.622 Y146.565 E0.01269
G1 X144.580 Y146.170 E0.01247
G1 X144.580 Y136.620 E0.29944
G1 X144.621 Y135.976 E0.02023
G1 X144.705 Y135.480 E0.01576
G1 X144.817 Y135.053 E0.01383
G1 X144.969 Y134.622 E0.01435
G1 X145.158 Y134.203 E0.01442
G1 X145.383 Y133.801 E0.01444
G1 X145.640 Y133.420 E0.01440
G1 X145.945 Y133.041 E0.01526
G1 X145.718 Y132.894 E0.00848
G1 X145.308 Y132.480 E0.01826
G1 X145.246 Y132.380 E0.00371
G1 X145.132 Y132.033 E0.01146
G1 X145.132 Y124.392 E0.23955
G1 X145.164 Y124.241 E0.00485
G1 X145.328 Y123.917 E0.01138
G1 X145.708 Y123.538 E0.01685
G1 X145.837 Y123.454 E0.00483
G1 X146.181 Y123.341 E0.01134
G1 X200.658 Y123.345 E1.70808
G1 X200.775 Y123.372 E0.00376
G1 X201.047 Y123.501 E0.00945
G1 X201.479 Y123.916 E0.01877
G1 X201.562 Y124.044 E0.00480
G1 X201.676 Y124.389 E0.01138
G1 X201.676 Y131.175 E0.21277
G1 X201.299 Y131.610 F10800.000
G1 F1800
G1 X204.005 Y131.624 E0.08485
G1 X204.234 Y131.679 E0.00739
G1 X204.461 Y131.787 E0.00790
G1 X204.717 Y131.992 E0.01025
G1 X204.925 Y132.290 E0.01140
G1 X205.052 Y132.732 E0.01444
G1 X205.056 Y137.115 E0.13741
G1 X205.040 Y137.808 E0.02174
G1 X204.981 Y138.310 E0.01584
G1 X204.895 Y138.739 E0.01373
G1 X204.771 Y139.176 E0.01423
G1 X204.608 Y139.615 E0.01469
G1 X204.430 Y139.999 E0.01328
G1 X204.217 Y140.382 E0.01374
G1 X203.957 Y140.772 E0.01469
G1 X203.657 Y141.152 E0.01517
G1 X203.369 Y141.463 E0.01329
G1 X203.049 Y141.760 E0.01372
G1 X202.669 Y142.060 E0.01515
G1 X202.279 Y142.320 E0.01470
G1 X201.896 Y142.533 E0.01375
G1 X201.498 Y142.716 E0.01373
G1 X201.059 Y142.878 E0.01466
G1 X200.622 Y143.001 E0.01423
G1 X200.162 Y143.091 E0.01470
G1 X199.727 Y143.141 E0.01374
G1 X199.289 Y143.159 E0.01373
G1 X150.516 Y143.159 E1.52926
G1 X150.464 Y143.789 E0.01981
G1 X150.391 Y144.208 E0.01335
G1 X150.283 Y144.621 E0.01338
G1 X150.146 Y145.008 E0.01286
G1 X149.979 Y145.382 E0.01285
G1 X149.764 Y145.769 E0.01389
G1 X149.506 Y146.150 E0.01442
G1 X149.247 Y146.468 E0.01287
G1 X148.951 Y146.775 E0.01336
G1 X148.631 Y147.056 E0.01335
G1 X148.288 Y147.309 E0.01338
G1 X147.941 Y147.523 E0.01277
G1 X147.323 Y147.814 E0.02143
G1 X147.090 Y147.879 E0.00759
G1 X146.710 Y147.915 E0.01195
G1 X146.402 Y147.885 E0.00970
G1 X146.103 Y147.800 E0.00975
G1 X145.823 Y147.665 E0.00975
G1 X145.574 Y147.486 E0.00963
G1 X145.365 Y147.273 E0.00936
G1 X145.206 Y147.047 E0.00865
G1 X145.084 Y146.800 E0.00863
G1 X144.995 Y146.506 E0.00964
G1 X144.957 Y146.159 E0.01095
G1 X144.957 Y136.626 E0.29892
G1 X144.996 Y136.010 E0.01935
G1 X145.072 Y135.567 E0.01407
G1 X145.175 Y135.171 E0.01285
G1 X145.316 Y134.769 E0.01335
G1 X145.492 Y134.380 E0.01340
G1 X145.708 Y133.992 E0.01391
G1 X145.948 Y133.639 E0.01338
G1 X146.205 Y133.320 E0.01285
G1 X146.769 Y132.728 E0.02563
G1 X146.158 Y132.692 E0.01919
G1 X145.952 Y132.594 E0.00714
G1 X145.609 Y132.252 E0.01520
G1 X145.509 Y131.997 E0.00858
G1 X145.509 Y124.410 E0.23790
G1 X145.619 Y124.159 E0.00858
G1 X145.962 Y123.817 E0.01520
G1 X146.216 Y123.718 E0.00855
G1 X200.606 Y123.718 E1.70536
G1 X200.856 Y123.827 E0.00855
G1 X201.199 Y124.169 E0.01520
G1 X201.299 Y124.424 E0.00858
G1 X201.299 Y131.550 E0.22343
G1 X200.922 Y131.985 F10800.000
G1 F1800
G1 X203.977 Y132.001 E0.09580
G1 X204.120 Y132.038 E0.00463
G1 X204.249 Y132.099 E0.00448
G1 X204.432 Y132.240 E0.00724
G1 X204.576 Y132.434 E0.00756
G1 X204.675 Y132.762 E0.01075
G1 X204.679 Y137.113 E0.13642
G1 X204.663 Y137.790 E0.02124
G1 X204.610 Y138.243 E0.01430
G1 X204.530 Y138.644 E0.01281
G1 X204.414 Y139.052 E0.01330
G1 X204.262 Y139.463 E0.01375
G1 X204.091 Y139.834 E0.01282
G1 X203.891 Y140.192 E0.01283
G1 X203.648 Y140.557 E0.01376
G1 X203.376 Y140.901 E0.01376
G1 X203.098 Y141.201 E0.01283
G1 X202.798 Y141.479 E0.01281
G1 X202.454 Y141.751 E0.01374
G1 X202.089 Y141.994 E0.01376
G1 X201.719 Y142.200 E0.01328
G1 X201.347 Y142.370 E0.01281
G1 X200.950 Y142.517 E0.01329
G1 X200.542 Y142.632 E0.01330
G1 X200.111 Y142.717 E0.01376
G1 X199.704 Y142.765 E0.01283
G1 X199.286 Y142.782 E0.01315
G1 X150.136 Y142.782 E1.54105
G1 X150.124 Y143.357 E0.01805
G1 X150.091 Y143.732 E0.01181
G1 X150.024 Y144.121 E0.01235
G1 X149.920 Y144.517 E0.01286
G1 X149.794 Y144.874 E0.01186
G1 X149.638 Y145.219 E0.01188
G1 X149.439 Y145.578 E0.01288
G1 X149.208 Y145.918 E0.01287
G1 X148.959 Y146.224 E0.01236
G1 X148.686 Y146.508 E0.01236
G1 X148.401 Y146.757 E0.01187
G1 X148.071 Y147.001 E0.01287
G1 X147.748 Y147.198 E0.01186
G1 X147.194 Y147.460 E0.01923
G1 X147.007 Y147.511 E0.00605
G1 X146.696 Y147.538 E0.00980
G1 X146.485 Y147.517 E0.00664
G1 X146.250 Y147.453 E0.00763
G1 X146.003 Y147.334 E0.00860
G1 X145.810 Y147.192 E0.00752
G1 X145.664 Y147.043 E0.00652
G1 X145.523 Y146.843 E0.00766
G1 X145.431 Y146.652 E0.00667
G1 X145.362 Y146.417 E0.00766
G1 X145.334 Y146.150 E0.00844
G1 X145.334 Y136.632 E0.29843
G1 X145.372 Y136.044 E0.01846
G1 X145.442 Y135.640 E0.01287
G1 X145.538 Y135.274 E0.01186
G1 X145.663 Y134.917 E0.01188
G1 X145.832 Y134.542 E0.01288
G1 X146.033 Y134.184 E0.01287
G1 X146.255 Y133.858 E0.01237
G1 X146.493 Y133.564 E0.01188
G1 X146.754 Y133.290 E0.01186
G1 X147.073 Y133.010 E0.01329
G1 X147.677 Y132.591 E0.02305
G1 X147.594 Y132.326 E0.00869
G1 X146.258 Y132.326 E0.04189
G1 X146.189 Y132.298 E0.00235
G1 X145.915 Y132.025 E0.01212
G1 X145.886 Y131.955 E0.00236
G1 X145.886 Y124.466 E0.23482
G1 X145.915 Y124.397 E0.00236
G1 X146.189 Y124.124 E0.01212
G1 X146.258 Y124.095 E0.00235
G1 X200.550 Y124.095 E1.70229
G1 X200.619 Y124.124 E0.00235
G1 X200.893 Y124.397 E0.01212
G1 X200.922 Y124.466 E0.00236
G1 X200.922 Y131.925 E0.23388
G1 X200.545 Y131.840 F10800.000
G1 F1800
G1 X200.435 Y131.949 E0.00488
G1 X146.373 Y131.949 E1.69506
G1 X146.263 Y131.840 E0.00488
G1 X146.263 Y124.582 E0.22755
G1 X146.373 Y124.472 E0.00488
G1 X200.435 Y124.472 E1.69506
G1 X200.545 Y124.582 E0.00488
G1 X200.545 Y131.780 E0.22567
G1 F8640
G1 X200.435 Y131.949 E-0.04673
G1 X197.345 Y131.949 E-0.71327
G1 E-0.04000 F2100.00000
G1 Z0.800 F10800.000
G1 X149.839 Y142.571
G1 Z0.200
G1 E0.80000 F2100.00000
G1 F1800
G1 X149.760 Y142.736 E0.00575
G1 X149.747 Y143.331 E0.01865
G1 X149.716 Y143.692 E0.01136
G1 X149.657 Y144.033 E0.01087
G1 X149.562 Y144.400 E0.01187
G1 X149.446 Y144.727 E0.01087
G1 X149.298 Y145.057 E0.01136
G1 X149.113 Y145.387 E0.01186
G1 X148.910 Y145.687 E0.01136
G1 X148.682 Y145.969 E0.01136
G1 X148.430 Y146.230 E0.01137
G1 X148.170 Y146.459 E0.01087
G1 X147.866 Y146.684 E0.01187
G1 X147.571 Y146.866 E0.01087
G1 X147.081 Y147.100 E0.01701
G1 X146.924 Y147.143 E0.00511
G1 X146.716 Y147.161 E0.00654
G1 X146.541 Y147.143 E0.00553
G1 X146.370 Y147.095 E0.00557
G1 X146.210 Y147.018 E0.00557
G1 X146.064 Y146.913 E0.00561
G1 X145.960 Y146.809 E0.00462
G1 X145.855 Y146.663 E0.00561
G1 X145.778 Y146.503 E0.00557
G1 X145.730 Y146.333 E0.00556
G1 X145.711 Y146.141 E0.00603
G1 X145.711 Y136.638 E0.29798
G1 X145.745 Y136.098 E0.01696
G1 X145.809 Y135.727 E0.01180
G1 X145.896 Y135.391 E0.01087
G1 X146.016 Y135.049 E0.01136
G1 X146.172 Y134.705 E0.01186
G1 X146.349 Y134.389 E0.01136
G1 X146.553 Y134.089 E0.01136
G1 X146.781 Y133.807 E0.01137
G1 X147.021 Y133.557 E0.01087
G1 X147.305 Y133.307 E0.01186
G1 X147.597 Y133.092 E0.01136
G1 X147.892 Y132.910 E0.01087
G1 X148.230 Y132.740 E0.01186
G1 X148.566 Y132.606 E0.01136
G1 X148.913 Y132.500 E0.01137
G1 X149.252 Y132.427 E0.01087
G1 X149.612 Y132.380 E0.01137
G1 X149.981 Y132.364 E0.01159
G1 X203.458 Y132.363 E1.67674
G1 X203.902 Y132.371 E0.01393
G1 X204.064 Y132.428 E0.00537
G1 X204.157 Y132.498 E0.00364
G1 X204.231 Y132.590 E0.00371
G1 X204.298 Y132.795 E0.00676
G1 X204.302 Y137.111 E0.13533
G1 X204.286 Y137.772 E0.02074
G1 X204.239 Y138.177 E0.01278
G1 X204.165 Y138.549 E0.01190
G1 X204.058 Y138.929 E0.01236
G1 X203.917 Y139.312 E0.01282
G1 X203.758 Y139.657 E0.01190
G1 X203.566 Y140.001 E0.01236
G1 X203.338 Y140.341 E0.01281
G1 X203.094 Y140.650 E0.01236
G1 X202.826 Y140.939 E0.01236
G1 X202.547 Y141.197 E0.01190
G1 X202.238 Y141.441 E0.01236
G1 X201.898 Y141.668 E0.01281
G1 X201.554 Y141.861 E0.01236
G1 X201.209 Y142.019 E0.01190
G1 X200.839 Y142.157 E0.01236
G1 X200.460 Y142.264 E0.01235
G1 X200.060 Y142.344 E0.01281
G1 X199.668 Y142.390 E0.01236
G1 X199.282 Y142.405 E0.01212
