; generated by Slic3r Prusa Edition 1.41.1-rc+linux64 on 2018-10-30 at 16:00:01

; 

; external perimeters extrusion width = 0.45mm
; perimeters extrusion width = 0.45mm
; infill extrusion width = 0.45mm
; solid infill extrusion width = 0.45mm
; top infill extrusion width = 0.40mm
; first layer extrusion width = 0.42mm

M73 P0 R6
M73 Q0 S6
M201 X1000 Y1000 Z1000 E5000 ; sets maximum accelerations, mm/sec^2
M203 X200 Y200 Z12 E120 ; sets maximum feedrates, mm/sec
M204 P1250 R1250 T1250 ; sets acceleration (P, T) and retract acceleration (R), mm/sec^2
M205 X8.00 Y8.00 Z0.40 E1.50 ; sets the jerk limits, mm/sec
M205 S0 T0 ; sets the minimum extruding and travel feed rate, mm/sec
M107
M115 U3.4.1 ; tell printer latest fw version
M83  ; extruder relative mode
M117 Print Starting
M104 S215 ; set extruder temp
M140 S60 ; set bed temp
G28 W ; home all without mesh bed level
G1 Z20 F500; lift nozzle
M190 S60 ; wait for bed temp
M109 S215 ; wait for extruder temp
G80 ; mesh bed leveling
G1 Y-3.0 F1000.0 ; go outside print area
G92 E0.0
G1 X60.0 E9.0  F1000.0 ; intro line
M73 Q1 S6
M73 P1 R6
G1 X100.0 E12.5  F1000.0 ; intro line
G92 E0.0
M221 S95
M900 K30; Filament gcode
G21 ; set units to millimeters
G90 ; use absolute coordinates
M83 ; use relative distances for extrusion
;BEFORE_LAYER_CHANGE
G92 E0.0
;0.2


G1 E-0.80000 F2100.00000
G1 Z0.600 F10800.000
;AFTER_LAYER_CHANGE
;0.2
G1 X113.873 Y50.083
G1 Z0.200
G1 E0.80000 F2100.00000
M204 S1000
G1 F1200
G1 X114.768 Y48.358 E0.06093
G1 X115.440 Y47.438 E0.03572
G1 X116.040 Y46.768 E0.02819
G1 X117.535 Y45.509 E0.06128
G1 X118.506 Y44.914 E0.03570
G1 X119.549 Y44.430 E0.03607
G1 X121.495 Y43.869 E0.06350
G1 X123.409 Y43.704 E0.06024
G1 X125.385 Y43.914 E0.06230
G1 X127.252 Y44.491 E0.06127
G1 X128.975 Y45.413 E0.06127
G1 X130.513 Y46.671 E0.06230
G1 X131.739 Y48.143 E0.06007
G1 X132.697 Y49.890 E0.06247
G1 X133.287 Y51.742 E0.06092
G1 X133.465 Y52.867 E0.03572
G1 X133.518 Y53.896 E0.03231
G1 X133.466 Y54.916 E0.03201
G1 X133.289 Y56.040 E0.03566
G1 X132.701 Y57.892 E0.06093
G1 X131.745 Y59.640 E0.06247
G1 X130.522 Y61.114 E0.06007
G1 X128.989 Y62.370 E0.06213
G1 X127.268 Y63.295 E0.06127
G1 X125.402 Y63.875 E0.06127
G1 X123.415 Y64.088 E0.06264
G1 X121.506 Y63.925 E0.06007
G1 X119.560 Y63.367 E0.06349
G1 X118.521 Y62.886 E0.03590
G1 X117.544 Y62.289 E0.03589
G1 X116.048 Y61.032 E0.06127
G1 X114.777 Y59.448 E0.06367
G1 X113.877 Y57.720 E0.06110
G1 X113.319 Y55.836 E0.06161
G1 X113.132 Y53.895 E0.06114
G1 X113.316 Y51.967 E0.06072
G1 X113.856 Y50.140 E0.05973
G1 X114.216 Y50.246 F10800.000
G1 F1200
G1 X115.085 Y48.563 E0.05942
G1 X116.306 Y47.036 E0.06131
G1 X117.128 Y46.284 E0.03491
G1 X118.021 Y45.638 E0.03458
G1 X119.695 Y44.778 E0.05900
G1 X121.569 Y44.239 E0.06114
G1 X123.407 Y44.081 E0.05785
G1 X125.310 Y44.283 E0.05999
G1 X127.108 Y44.839 E0.05900
G1 X128.767 Y45.727 E0.05900
G1 X130.244 Y46.935 E0.05983
G1 X131.425 Y48.352 E0.05785
G1 X132.348 Y50.034 E0.06016
G1 X132.917 Y51.817 E0.05867
G1 X133.090 Y52.906 E0.03458
G1 X133.140 Y53.894 E0.03103
G1 X133.091 Y54.873 E0.03074
G1 X132.920 Y55.961 E0.03452
G1 X132.354 Y57.745 E0.05867
G1 X131.433 Y59.428 E0.06015
G1 X130.255 Y60.847 E0.05785
G1 X128.779 Y62.057 E0.05983
G1 X127.122 Y62.948 E0.05900
G1 X125.324 Y63.506 E0.05900
G1 X123.412 Y63.711 E0.06032
G1 X121.578 Y63.555 E0.05768
G1 X119.704 Y63.018 E0.06114
G1 X118.698 Y62.553 E0.03474
G1 X117.757 Y61.978 E0.03457
G1 X116.313 Y60.764 E0.05916
G1 X115.093 Y59.242 E0.06114
G1 X114.226 Y57.578 E0.05884
G1 X113.689 Y55.764 E0.05933
G1 X113.509 Y53.894 E0.05888
G1 X113.687 Y52.038 E0.05847
G1 X114.199 Y50.304 E0.05669
G1 X114.558 Y50.410 F10800.000
G1 F1200
G1 X115.399 Y48.771 E0.05776
G1 X116.573 Y47.303 E0.05894
G1 X117.366 Y46.576 E0.03374
G1 X118.231 Y45.952 E0.03342
G1 X119.840 Y45.126 E0.05673
G1 X121.637 Y44.610 E0.05863
G1 X123.410 Y44.458 E0.05579
G1 X125.239 Y44.654 E0.05768
G1 X126.963 Y45.187 E0.05658
G1 X128.558 Y46.041 E0.05674
G1 X129.979 Y47.202 E0.05752
G1 X131.111 Y48.562 E0.05547
G1 X132.000 Y50.178 E0.05784
G1 X132.548 Y51.892 E0.05642
G1 X132.715 Y52.945 E0.03342
G1 X132.763 Y53.897 E0.02990
G1 X132.716 Y54.836 E0.02948
G1 X132.550 Y55.888 E0.03337
G1 X132.003 Y57.607 E0.05657
G1 X131.118 Y59.220 E0.05768
G1 X129.984 Y60.584 E0.05563
G1 X128.569 Y61.744 E0.05737
G1 X126.975 Y62.600 E0.05673
G1 X125.247 Y63.137 E0.05673
G1 X123.413 Y63.334 E0.05784
G1 X121.650 Y63.185 E0.05547
G1 X119.852 Y62.671 E0.05862
G1 X118.875 Y62.220 E0.03374
G1 X117.966 Y61.664 E0.03342
G1 X116.582 Y60.499 E0.05673
G1 X115.406 Y59.032 E0.05894
G1 X114.575 Y57.436 E0.05642
G1 X114.060 Y55.696 E0.05689
G1 X113.886 Y53.893 E0.05678
G1 X114.057 Y52.109 E0.05621
G1 X114.541 Y50.468 E0.05365
G1 F8640
G1 X115.399 Y48.771 E-0.43895
G1 X116.267 Y47.685 E-0.32105
G1 E-0.04000 F2100.00000
G1 Z0.800 F10800.000
G1 X116.878 Y51.317
G1 Z0.200
G1 E0.80000 F2100.00000
G1 F1200
G1 X117.221 Y50.580 E0.02550
G1 X117.521 Y50.080 E0.01828
G1 X118.008 Y49.426 E0.02557
G1 X118.559 Y48.843 E0.02515
G1 X119.001 Y48.460 E0.01834
G1 X119.672 Y47.987 E0.02574
G1 X120.109 Y47.740 E0.01573
G1 X120.856 Y47.403 E0.02572
G1 X121.332 Y47.242 E0.01573
G1 X122.130 Y47.053 E0.02572
G1 X122.627 Y46.985 E0.01573
G1 X123.447 Y46.950 E0.02572
G1 X123.948 Y46.978 E0.01573
G1 X124.759 Y47.099 E0.02572
G1 X125.248 Y47.222 E0.01580
G1 X126.060 Y47.511 E0.02702
G1 X126.736 Y47.845 E0.02367
G1 X127.163 Y48.106 E0.01569
G1 X127.819 Y48.600 E0.02573
G1 X128.242 Y48.990 E0.01807
G1 X128.741 Y49.547 E0.02342
G1 X129.040 Y49.947 E0.01569
G1 X129.465 Y50.650 E0.02574
G1 X129.716 Y51.176 E0.01827
G1 X129.970 Y51.872 E0.02324
G1 X130.115 Y52.434 E0.01822
G1 X130.236 Y53.197 E0.02420
G1 X130.271 Y53.933 E0.02312
G1 X130.234 Y54.616 E0.02144
G1 X130.108 Y55.393 E0.02468
G1 X129.969 Y55.921 E0.01711
G1 X129.694 Y56.668 E0.02496
G1 X129.465 Y57.143 E0.01654
G1 X129.040 Y57.845 E0.02573
G1 X128.740 Y58.247 E0.01573
G1 X128.190 Y58.855 E0.02572
G1 X127.818 Y59.193 E0.01573
G1 X127.163 Y59.686 E0.02572
G1 X126.733 Y59.949 E0.01580
G1 X125.957 Y60.325 E0.02702
G1 X125.244 Y60.572 E0.02367
G1 X124.759 Y60.693 E0.01569
G1 X123.947 Y60.814 E0.02574
G1 X123.365 Y60.842 E0.01827
G1 X122.625 Y60.807 E0.02323
G1 X122.130 Y60.740 E0.01567
G1 X121.331 Y60.550 E0.02574
G1 X120.781 Y60.360 E0.01827
G1 X120.106 Y60.052 E0.02325
G1 X119.602 Y59.760 E0.01828
G1 X118.945 Y59.288 E0.02536
G1 X118.348 Y58.742 E0.02537
G1 X117.958 Y58.306 E0.01834
G1 X117.474 Y57.642 E0.02574
G1 X117.220 Y57.210 E0.01573
G1 X116.871 Y56.467 E0.02572
G1 X116.703 Y55.994 E0.01573
G1 X116.501 Y55.199 E0.02572
G1 X116.426 Y54.701 E0.01580
G1 X116.378 Y53.841 E0.02702
G1 X116.426 Y53.087 E0.02367
G1 X116.501 Y52.593 E0.01569
G1 X116.704 Y51.797 E0.02574
G1 X116.858 Y51.374 E0.01413
G1 X117.211 Y51.502 F10800.000
G1 F1200
G1 X117.558 Y50.750 E0.02596
G1 X117.829 Y50.297 E0.01657
G1 X118.290 Y49.677 E0.02423
G1 X118.827 Y49.109 E0.02450
G1 X119.226 Y48.763 E0.01658
G1 X119.867 Y48.310 E0.02458
G1 X120.272 Y48.080 E0.01462
G1 X120.986 Y47.757 E0.02458
G1 X121.428 Y47.607 E0.01462
G1 X122.191 Y47.425 E0.02458
G1 X122.653 Y47.362 E0.01462
G1 X123.436 Y47.327 E0.02458
G1 X123.901 Y47.352 E0.01462
G1 X124.677 Y47.467 E0.02458
G1 X125.131 Y47.580 E0.01467
G1 X125.903 Y47.854 E0.02568
G1 X126.561 Y48.180 E0.02304
G1 X126.958 Y48.423 E0.01460
G1 X127.584 Y48.895 E0.02458
G1 X127.967 Y49.249 E0.01635
G1 X128.454 Y49.792 E0.02287
G1 X128.732 Y50.165 E0.01460
G1 X129.138 Y50.836 E0.02458
G1 X129.365 Y51.313 E0.01655
G1 X129.612 Y51.993 E0.02268
G1 X129.744 Y52.503 E0.01653
G1 X129.860 Y53.226 E0.02296
G1 X129.894 Y53.923 E0.02188
G1 X129.860 Y54.566 E0.02020
G1 X129.741 Y55.307 E0.02352
G1 X129.612 Y55.800 E0.01598
G1 X129.351 Y56.513 E0.02382
G1 X129.138 Y56.956 E0.01540
G1 X128.732 Y57.627 E0.02458
G1 X128.454 Y58.001 E0.01462
G1 X127.929 Y58.583 E0.02458
G1 X127.584 Y58.897 E0.01462
G1 X126.958 Y59.370 E0.02458
G1 X126.559 Y59.614 E0.01467
G1 X125.823 Y59.972 E0.02567
G1 X125.129 Y60.213 E0.02304
G1 X124.677 Y60.325 E0.01460
G1 X123.901 Y60.440 E0.02458
G1 X123.374 Y60.465 E0.01655
G1 X122.652 Y60.431 E0.02268
G1 X122.191 Y60.367 E0.01459
G1 X121.428 Y60.185 E0.02458
G1 X120.929 Y60.013 E0.01655
G1 X120.271 Y59.712 E0.02268
G1 X119.814 Y59.448 E0.01655
G1 X119.174 Y58.988 E0.02471
G1 X118.610 Y58.470 E0.02402
G1 X118.257 Y58.076 E0.01660
G1 X117.794 Y57.442 E0.02458
G1 X117.557 Y57.041 E0.01462
G1 X117.223 Y56.332 E0.02458
G1 X117.066 Y55.892 E0.01462
G1 X116.873 Y55.133 E0.02458
G1 X116.802 Y54.671 E0.01467
G1 X116.756 Y53.853 E0.02568
G1 X116.802 Y53.120 E0.02304
G1 X116.873 Y52.659 E0.01460
G1 X117.067 Y51.900 E0.02458
G1 X117.191 Y51.559 E0.01137
G1 X117.544 Y51.687 F10800.000
G1 F1200
G1 X117.895 Y50.921 E0.02643
G1 X118.138 Y50.514 E0.01485
G1 X118.586 Y49.911 E0.02357
G1 X119.094 Y49.375 E0.02314
G1 X119.452 Y49.065 E0.01486
G1 X120.062 Y48.633 E0.02344
G1 X120.436 Y48.419 E0.01351
G1 X121.117 Y48.111 E0.02344
G1 X121.525 Y47.971 E0.01351
G1 X122.252 Y47.797 E0.02344
G1 X122.679 Y47.738 E0.01351
G1 X123.425 Y47.704 E0.02344
G1 X123.856 Y47.727 E0.01351
G1 X124.595 Y47.835 E0.02344
G1 X125.014 Y47.939 E0.01353
G1 X125.746 Y48.197 E0.02431
G1 X126.386 Y48.514 E0.02240
G1 X126.753 Y48.739 E0.01351
G1 X127.349 Y49.190 E0.02343
G1 X127.693 Y49.507 E0.01465
G1 X128.167 Y50.037 E0.02231
G1 X128.424 Y50.383 E0.01351
G1 X128.810 Y51.023 E0.02344
G1 X129.013 Y51.450 E0.01484
G1 X129.255 Y52.113 E0.02212
G1 X129.374 Y52.571 E0.01484
G1 X129.486 Y53.275 E0.02235
G1 X129.517 Y53.913 E0.02002
G1 X129.486 Y54.517 E0.01896
G1 X129.374 Y55.221 E0.02236
G1 X129.255 Y55.679 E0.01484
G1 X129.006 Y56.359 E0.02268
G1 X128.810 Y56.769 E0.01427
G1 X128.424 Y57.410 E0.02344
G1 X128.167 Y57.755 E0.01351
G1 X127.667 Y58.311 E0.02344
G1 X127.349 Y58.602 E0.01351
G1 X126.753 Y59.053 E0.02344
G1 X126.385 Y59.279 E0.01353
G1 X125.689 Y59.620 E0.02431
G1 X125.014 Y59.854 E0.02241
G1 X124.595 Y59.957 E0.01350
G1 X123.856 Y60.065 E0.02344
G1 X123.383 Y60.088 E0.01484
G1 X122.678 Y60.054 E0.02212
G1 X122.252 Y59.995 E0.01350
G1 X121.525 Y59.821 E0.02344
G1 X121.078 Y59.666 E0.01484
G1 X120.436 Y59.373 E0.02212
G1 X120.026 Y59.136 E0.01484
G1 X119.421 Y58.703 E0.02335
G1 X118.872 Y58.199 E0.02337
G1 X118.556 Y57.845 E0.01487
G1 X118.114 Y57.242 E0.02344
G1 X117.894 Y56.871 E0.01351
G1 X117.575 Y56.196 E0.02344
G1 X117.429 Y55.790 E0.01351
G1 X117.244 Y55.066 E0.02344
G1 X117.178 Y54.639 E0.01353
G1 X117.133 Y53.865 E0.02431
G1 X117.178 Y53.152 E0.02241
G1 X117.244 Y52.726 E0.01351
G1 X117.429 Y52.002 E0.02344
G1 X117.524 Y51.744 E0.00863
G1 X117.877 Y51.872 F10800.000
G1 F1200
G1 X117.936 Y51.712 E0.00537
G1 X118.231 Y51.091 E0.02156
G1 X118.447 Y50.731 E0.01315
G1 X118.867 Y50.162 E0.02220
G1 X119.361 Y49.641 E0.02248
G1 X119.678 Y49.367 E0.01314
G1 X120.258 Y48.955 E0.02230
G1 X120.600 Y48.759 E0.01239
G1 X121.248 Y48.464 E0.02231
G1 X121.622 Y48.336 E0.01239
G1 X122.314 Y48.169 E0.02231
G1 X122.705 Y48.114 E0.01239
G1 X123.416 Y48.081 E0.02231
G1 X123.810 Y48.101 E0.01239
G1 X124.515 Y48.204 E0.02231
G1 X124.899 Y48.298 E0.01240
G1 X125.589 Y48.540 E0.02294
G1 X126.211 Y48.848 E0.02176
G1 X126.547 Y49.055 E0.01240
G1 X127.114 Y49.485 E0.02230
G1 X127.418 Y49.765 E0.01295
G1 X127.880 Y50.282 E0.02175
G1 X128.116 Y50.600 E0.01240
G1 X128.482 Y51.209 E0.02230
G1 X128.662 Y51.588 E0.01314
G1 X128.897 Y52.234 E0.02156
G1 X129.003 Y52.640 E0.01315
G1 X129.112 Y53.324 E0.02174
G1 X129.140 Y53.904 E0.01818
G1 X129.112 Y54.468 E0.01771
G1 X129.003 Y55.153 E0.02175
G1 X128.897 Y55.558 E0.01314
G1 X128.655 Y56.221 E0.02211
G1 X128.482 Y56.583 E0.01258
G1 X128.116 Y57.193 E0.02231
G1 X127.880 Y57.510 E0.01239
G1 X127.405 Y58.040 E0.02231
G1 X127.114 Y58.307 E0.01239
G1 X126.547 Y58.737 E0.02231
G1 X126.211 Y58.945 E0.01240
G1 X125.554 Y59.267 E0.02293
G1 X124.898 Y59.494 E0.02176
G1 X124.515 Y59.589 E0.01239
G1 X123.811 Y59.691 E0.02230
G1 X123.392 Y59.711 E0.01314
G1 X122.705 Y59.678 E0.02156
G1 X122.314 Y59.623 E0.01239
G1 X121.622 Y59.456 E0.02230
G1 X121.226 Y59.319 E0.01314
G1 X120.601 Y59.034 E0.02156
G1 X120.237 Y58.824 E0.01315
G1 X119.667 Y58.417 E0.02197
G1 X119.134 Y57.927 E0.02271
G1 X118.854 Y57.615 E0.01314
G1 X118.433 Y57.041 E0.02230
G1 X118.231 Y56.702 E0.01239
G1 X117.926 Y56.059 E0.02231
G1 X117.792 Y55.687 E0.01239
G1 X117.615 Y54.998 E0.02231
G1 X117.553 Y54.607 E0.01240
G1 X117.510 Y53.877 E0.02294
G1 X117.553 Y53.185 E0.02176
G1 X117.615 Y52.794 E0.01239
G1 X117.792 Y52.105 E0.02230
G1 X117.857 Y51.929 E0.00589
G1 X118.210 Y52.058 F10800.000
G1 F1200
G1 X118.280 Y51.866 E0.00641
G1 X118.568 Y51.261 E0.02099
G1 X118.755 Y50.948 E0.01145
G1 X119.163 Y50.395 E0.02154
G1 X119.628 Y49.908 E0.02109
G1 X119.904 Y49.669 E0.01145
G1 X120.454 Y49.277 E0.02118
G1 X120.765 Y49.098 E0.01127
G1 X121.380 Y48.818 E0.02118
G1 X121.720 Y48.700 E0.01127
G1 X122.376 Y48.541 E0.02118
G1 X122.732 Y48.490 E0.01127
G1 X123.407 Y48.458 E0.02118
G1 X123.766 Y48.476 E0.01127
G1 X124.434 Y48.572 E0.02118
G1 X124.784 Y48.657 E0.01126
G1 X125.432 Y48.883 E0.02154
G1 X126.035 Y49.182 E0.02109
G1 X126.341 Y49.371 E0.01127
G1 X126.879 Y49.780 E0.02118
G1 X127.143 Y50.023 E0.01127
G1 X127.593 Y50.527 E0.02118
G1 X127.807 Y50.816 E0.01127
G1 X128.154 Y51.395 E0.02118
G1 X128.311 Y51.725 E0.01145
G1 X128.540 Y52.354 E0.02099
G1 X128.632 Y52.708 E0.01146
G1 X128.738 Y53.374 E0.02114
G1 X128.763 Y53.895 E0.01636
G1 X128.738 Y54.419 E0.01645
G1 X128.632 Y55.084 E0.02114
G1 X128.540 Y55.438 E0.01146
G1 X128.311 Y56.067 E0.02099
G1 X128.154 Y56.397 E0.01145
G1 X127.807 Y56.976 E0.02118
G1 X127.593 Y57.266 E0.01127
G1 X127.143 Y57.769 E0.02118
G1 X126.879 Y58.013 E0.01127
G1 X126.341 Y58.422 E0.02118
G1 X126.035 Y58.611 E0.01127
G1 X125.419 Y58.915 E0.02154
G1 X124.784 Y59.135 E0.02110
G1 X124.434 Y59.220 E0.01127
G1 X123.766 Y59.316 E0.02118
G1 X123.401 Y59.334 E0.01145
G1 X122.732 Y59.302 E0.02100
G1 X122.376 Y59.251 E0.01127
G1 X121.720 Y59.092 E0.02118
G1 X121.375 Y58.973 E0.01145
G1 X120.765 Y58.694 E0.02099
G1 X120.449 Y58.512 E0.01145
G1 X119.896 Y58.117 E0.02131
G1 X119.396 Y57.656 E0.02132
G1 X119.152 Y57.384 E0.01145
G1 X118.752 Y56.840 E0.02118
G1 X118.568 Y56.531 E0.01127
G1 X118.278 Y55.921 E0.02118
G1 X118.155 Y55.584 E0.01127
G1 X117.986 Y54.930 E0.02118
G1 X117.929 Y54.575 E0.01126
G1 X117.887 Y53.889 E0.02154
G1 X117.929 Y53.218 E0.02110
G1 X117.986 Y52.863 E0.01127
G1 X118.190 Y52.114 E0.02433
; PURGING FINISHED
G1 X118.564 Y52.250 F10800.000
G1 F1200
G1 X118.646 Y52.022 E0.00760
G1 X118.920 Y51.447 E0.01999
G1 X119.086 Y51.171 E0.01008
G1 X119.467 Y50.654 E0.02015
G1 X119.905 Y50.195 E0.01989
G1 X120.148 Y49.984 E0.01008
G1 X120.667 Y49.614 E0.01999
G1 X120.945 Y49.453 E0.01008
G1 X121.525 Y49.189 E0.01999
G1 X121.829 Y49.083 E0.01008
G1 X122.449 Y48.933 E0.01999
G1 X122.767 Y48.887 E0.01008
G1 X123.405 Y48.857 E0.02002
G1 X124.041 Y48.908 E0.02002
G1 X124.358 Y48.963 E0.01008
G1 X124.972 Y49.133 E0.01999
G1 X125.273 Y49.248 E0.01008
G1 X125.844 Y49.531 E0.01999
G1 X126.117 Y49.701 E0.01008
G1 X126.625 Y50.087 E0.01999
G1 X126.861 Y50.305 E0.01008
G1 X127.286 Y50.780 E0.01999
G1 X127.476 Y51.039 E0.01008
G1 X127.804 Y51.586 E0.01999
G1 X127.942 Y51.876 E0.01008
G1 X128.160 Y52.476 E0.01999
G1 X128.241 Y52.787 E0.01008
G1 X128.341 Y53.415 E0.01994
G1 X128.365 Y53.896 E0.01511
G1 X128.341 Y54.378 E0.01511
G1 X128.241 Y55.006 E0.01994
G1 X128.160 Y55.317 E0.01008
G1 X127.942 Y55.916 E0.01999
G1 X127.804 Y56.206 E0.01008
G1 X127.476 Y56.753 E0.01999
G1 X127.286 Y57.012 E0.01008
G1 X126.861 Y57.487 E0.01999
G1 X126.625 Y57.705 E0.01008
G1 X126.117 Y58.092 E0.01999
G1 X125.844 Y58.261 E0.01008
G1 X125.268 Y58.546 E0.02015
G1 X124.669 Y58.753 E0.01989
G1 X124.356 Y58.829 E0.01008
G1 X123.725 Y58.920 E0.01999
G1 X123.404 Y58.935 E0.01008
G1 X122.767 Y58.905 E0.01999
G1 X122.449 Y58.859 E0.01008
G1 X121.829 Y58.709 E0.01999
G1 X121.525 Y58.604 E0.01008
G1 X120.948 Y58.340 E0.01989
G1 X120.402 Y58.002 E0.02015
G1 X120.146 Y57.807 E0.01008
G1 X119.678 Y57.375 E0.01999
G1 X119.464 Y57.135 E0.01008
