; generated by Slic3r Prusa Edition 1.41.1-rc+linux64 on 2018-10-30 at 15:49:30

; 

; external perimeters extrusion width = 0.45mm
; perimeters extrusion width = 0.45mm
; infill extrusion width = 0.45mm
; solid infill extrusion width = 0.45mm
; top infill extrusion width = 0.40mm
; support material extrusion width = 0.35mm
; first layer extrusion width = 0.42mm

M73 P0 R64
M73 Q0 S64
M201 X1000 Y1000 Z1000 E5000 ; sets maximum accelerations, mm/sec^2
M203 X200 Y200 Z12 E120 ; sets maximum feedrates, mm/sec
M204 P1250 R1250 T1250 ; sets acceleration (P, T) and retract acceleration (R), mm/sec^2
M205 X8.00 Y8.00 Z0.40 E1.50 ; sets the jerk limits, mm/sec
M205 S0 T0 ; sets the minimum extruding and travel feed rate, mm/sec
M107
M115 U3.4.1 ; tell printer latest fw version
M83  ; extruder relative mode
M117 Print Starting
M104 S215 ; set extruder temp
M140 S60 ; set bed temp
G28 W ; home all without mesh bed level
G1 Z20 F500; lift nozzle
M190 S60 ; wait for bed temp
M109 S215 ; wait for extruder temp
G80 ; mesh bed leveling
G1 Y-3.0 F1000.0 ; go outside print area
G92 E0.0
G1 X60.0 E9.0  F1000.0 ; intro line
M73 Q0 S64
M73 P0 R64
G1 X100.0 E12.5  F1000.0 ; intro line
G92 E0.0
M221 S95
M900 K30; Filament gcode
G21 ; set units to millimeters
G90 ; use absolute coordinates
M83 ; use relative distances for extrusion
;BEFORE_LAYER_CHANGE
G92 E0.0
;0.2


G1 E-0.80000 F2100.00000
G1 Z0.600 F10800.000
;AFTER_LAYER_CHANGE
;0.2
G1 X153.337 Y37.636
G1 Z0.200
G1 E0.80000 F2100.00000
M204 S1000
G1 F1500
G1 X153.789 Y38.370 E0.02703
G1 X153.981 Y38.947 E0.01906
G1 X154.060 Y39.550 E0.01906
G1 X154.054 Y46.249 E0.21003
G1 X150.371 Y94.588 E1.52004
G1 X150.144 Y96.257 E0.05280
G1 X149.889 Y97.309 E0.03397
G1 X149.296 Y98.962 E0.05505
G1 X148.457 Y100.579 E0.05712
G1 X147.411 Y102.060 E0.05685
G1 X146.157 Y103.400 E0.05754
G1 X144.754 Y104.541 E0.05671
G1 X143.193 Y105.489 E0.05726
G1 X141.522 Y106.214 E0.05712
G1 X139.732 Y106.712 E0.05823
G1 X138.072 Y106.943 E0.05257
G1 X137.060 Y106.983 E0.03175
G1 X102.749 Y106.983 E1.07579
G1 X101.994 Y106.930 E0.02373
G1 X101.187 Y106.759 E0.02587
G1 X100.514 Y106.520 E0.02239
G1 X99.753 Y106.122 E0.02693
G1 X98.881 Y105.459 E0.03436
G1 X98.330 Y104.875 E0.02515
G1 X97.847 Y104.188 E0.02633
G1 X97.496 Y103.495 E0.02436
G1 X97.235 Y102.741 E0.02502
G1 X97.084 Y101.964 E0.02482
G1 X97.038 Y74.059 E0.87494
G1 X97.092 Y73.304 E0.02373
G1 X97.263 Y72.497 E0.02587
G1 X97.502 Y71.824 E0.02238
G1 X97.901 Y71.058 E0.02709
G1 X120.245 Y37.496 E1.26419
G1 X120.754 Y36.930 E0.02387
G1 X121.384 Y36.502 E0.02387
G1 X122.097 Y36.234 E0.02387
G1 X122.857 Y36.144 E0.02401
G1 X151.100 Y36.479 E0.88560
G1 X151.939 Y36.655 E0.02689
G1 X152.705 Y37.050 E0.02703
G1 X153.293 Y37.596 E0.02515
; PURGING FINISHED
G1 F8640
G1 X153.789 Y38.370 E-0.21242
G1 X153.981 Y38.947 E-0.14036
G1 X154.060 Y39.550 E-0.14036
G1 X154.059 Y40.706 E-0.26687
G1 E-0.04000 F2100.00000
G1 Z0.800 F10800.000
G1 X122.852 Y39.332
G1 Z0.200
G1 E0.80000 F2100.00000
G1 F1500
G1 X122.852 Y71.123 E0.99678
G1 X123.606 Y71.123 E0.02365
G1 X123.606 Y39.502 E0.99146
G1 X124.360 Y39.502 E0.02365
G1 X124.360 Y71.123 E0.99145
G1 X125.114 Y71.091 E0.02367
G1 X125.114 Y39.502 E0.99045
G1 X125.868 Y39.502 E0.02365
G1 X125.868 Y71.000 E0.98761
G1 X126.622 Y70.850 E0.02411
G1 X126.622 Y39.502 E0.98291
G1 X126.637 Y39.502 E0.00047
G1 X126.637 Y44.276 E0.14969
G1 X126.880 Y44.518 E0.01074
G1 X127.377 Y44.518 E0.01558
G1 X127.377 Y70.638 E0.81896
G1 X128.131 Y70.359 E0.02521
G1 X128.131 Y44.518 E0.81022
G1 X128.885 Y44.518 E0.02365
G1 X128.885 Y70.005 E0.79913
G1 X129.421 Y69.704 E0.01928
G1 X129.639 Y69.561 E0.00818
G1 X129.639 Y44.518 E0.78520
G1 X130.393 Y44.518 E0.02365
G1 X130.393 Y69.024 E0.76835
G1 X131.009 Y68.500 E0.02536
G1 X131.147 Y68.361 E0.00613
G1 X131.147 Y44.518 E0.74758
G1 X131.902 Y44.518 E0.02365
G1 X131.902 Y67.545 E0.72200
G1 X132.319 Y66.997 E0.02161
G1 X132.656 Y66.484 E0.01924
G1 X132.656 Y44.518 E0.68873
G1 X133.231 Y44.518 E0.01804
G1 X133.410 Y44.537 E0.00564
G1 X133.410 Y65.416 E0.65464
G1 F8640
G1 X133.410 Y62.124 E-0.76000
G1 E-0.04000 F2100.00000
G1 Z0.800 F10800.000
G1 X120.001 Y83.234
G1 Z0.200
G1 E0.80000 F2100.00000
G1 F1500
G1 X120.425 Y83.608 E0.01772
G1 X120.809 Y84.023 E0.01772
G1 X121.150 Y84.473 E0.01772
G1 X121.445 Y84.955 E0.01772
G1 X121.690 Y85.464 E0.01772
G1 X121.883 Y85.995 E0.01772
G1 X122.022 Y86.543 E0.01772
G1 X122.107 Y87.101 E0.01772
G1 X122.135 Y87.666 E0.01772
G1 X122.107 Y88.230 E0.01772
G1 X122.022 Y88.789 E0.01772
G1 X121.883 Y89.336 E0.01772
G1 X121.690 Y89.867 E0.01772
G1 X121.445 Y90.376 E0.01772
G1 X121.150 Y90.859 E0.01772
G1 X120.809 Y91.309 E0.01772
G1 X120.425 Y91.723 E0.01772
G1 X120.001 Y92.097 E0.01772
G1 X119.542 Y92.427 E0.01772
G1 X119.053 Y92.709 E0.01772
G1 X118.538 Y92.942 E0.01772
G1 X118.002 Y93.122 E0.01772
G1 X117.451 Y93.247 E0.01772
G1 X116.891 Y93.318 E0.01772
G1 X116.326 Y93.332 E0.01772
G1 X115.762 Y93.290 E0.01772
G1 X115.206 Y93.191 E0.01772
G1 X114.662 Y93.038 E0.01772
G1 X114.136 Y92.832 E0.01772
G1 X113.633 Y92.574 E0.01772
G1 X113.158 Y92.268 E0.01772
G1 X112.717 Y91.915 E0.01772
G1 X112.312 Y91.521 E0.01772
G1 X111.949 Y91.088 E0.01772
G1 X111.631 Y90.621 E0.01772
G1 X111.361 Y90.125 E0.01772
G1 X111.141 Y89.604 E0.01772
G1 X110.974 Y89.064 E0.01772
G1 X110.863 Y88.510 E0.01772
G1 X110.806 Y87.948 E0.01772
G1 X110.806 Y87.383 E0.01772
G1 X110.863 Y86.821 E0.01772
G1 X110.974 Y86.267 E0.01772
G1 X111.141 Y85.727 E0.01772
G1 X111.361 Y85.207 E0.01772
G1 X111.631 Y84.710 E0.01772
G1 X111.949 Y84.243 E0.01772
G1 X112.312 Y83.811 E0.01772
G1 X112.717 Y83.416 E0.01772
G1 X113.158 Y83.064 E0.01772
G1 X113.633 Y82.757 E0.01772
G1 X114.136 Y82.500 E0.01772
G1 X114.662 Y82.293 E0.01772
G1 X115.206 Y82.140 E0.01772
G1 X115.762 Y82.042 E0.01772
G1 X116.305 Y82.001 E0.01706
G1 X116.889 Y82.014 E0.01834
G1 X117.451 Y82.084 E0.01775
G1 X118.002 Y82.210 E0.01772
G1 X118.538 Y82.390 E0.01772
G1 X119.053 Y82.622 E0.01772
G1 X119.542 Y82.905 E0.01772
G1 X119.952 Y83.199 E0.01583
G1 X119.732 Y83.506 F10800.000
G1 F1500
G1 X120.161 Y83.879 E0.01782
G1 X120.520 Y84.265 E0.01654
G1 X120.838 Y84.686 E0.01654
G1 X121.113 Y85.136 E0.01654
G1 X121.342 Y85.611 E0.01654
G1 X121.522 Y86.106 E0.01654
G1 X121.652 Y86.617 E0.01654
G1 X121.731 Y87.139 E0.01654
G1 X121.757 Y87.666 E0.01654
G1 X121.731 Y88.192 E0.01654
G1 X121.652 Y88.714 E0.01654
G1 X121.522 Y89.225 E0.01654
G1 X121.342 Y89.721 E0.01654
G1 X121.113 Y90.196 E0.01654
G1 X120.838 Y90.646 E0.01654
G1 X120.520 Y91.066 E0.01654
G1 X120.161 Y91.453 E0.01654
G1 X119.765 Y91.802 E0.01654
G1 X119.337 Y92.110 E0.01654
G1 X118.881 Y92.373 E0.01654
G1 X118.400 Y92.590 E0.01654
G1 X117.900 Y92.758 E0.01654
G1 X117.386 Y92.876 E0.01654
G1 X116.862 Y92.941 E0.01654
G1 X116.335 Y92.954 E0.01654
G1 X115.809 Y92.915 E0.01654
G1 X115.290 Y92.823 E0.01654
G1 X114.782 Y92.681 E0.01654
G1 X114.291 Y92.488 E0.01654
G1 X113.822 Y92.247 E0.01654
G1 X113.379 Y91.961 E0.01654
G1 X112.967 Y91.632 E0.01654
G1 X112.589 Y91.264 E0.01654
G1 X112.250 Y90.860 E0.01654
G1 X111.953 Y90.424 E0.01654
G1 X111.701 Y89.961 E0.01654
G1 X111.496 Y89.475 E0.01654
G1 X111.340 Y88.971 E0.01654
G1 X111.236 Y88.454 E0.01654
G1 X111.183 Y87.929 E0.01654
G1 X111.183 Y87.402 E0.01654
G1 X111.236 Y86.877 E0.01654
G1 X111.340 Y86.360 E0.01654
G1 X111.496 Y85.856 E0.01654
G1 X111.701 Y85.370 E0.01654
G1 X111.953 Y84.907 E0.01654
G1 X112.250 Y84.471 E0.01654
G1 X112.589 Y84.067 E0.01654
G1 X112.967 Y83.699 E0.01654
G1 X113.379 Y83.370 E0.01654
G1 X113.822 Y83.084 E0.01654
G1 X114.291 Y82.844 E0.01654
G1 X114.782 Y82.651 E0.01654
G1 X115.290 Y82.508 E0.01654
G1 X115.809 Y82.417 E0.01654
G1 X116.315 Y82.379 E0.01590
G1 X116.862 Y82.390 E0.01716
G1 X117.386 Y82.456 E0.01655
G1 X117.900 Y82.573 E0.01654
G1 X118.400 Y82.741 E0.01654
G1 X118.881 Y82.958 E0.01654
G1 X119.337 Y83.222 E0.01654
G1 X119.683 Y83.471 E0.01336
G1 X120.104 Y83.357 F10800.000
G1 F8640
G1 X120.161 Y83.879 E-0.14504
G1 X120.520 Y84.265 E-0.12178
G1 X120.838 Y84.686 E-0.12178
G1 X121.113 Y85.136 E-0.12178
G1 X121.342 Y85.611 E-0.12178
G1 X121.522 Y86.106 E-0.12178
G1 X121.529 Y86.132 E-0.00607
G1 E-0.04000 F2100.00000
G1 Z0.800 F10800.000
G1 X127.638 Y43.518
G1 Z0.200
G1 E0.80000 F2100.00000
G1 F1500
G1 X127.638 Y40.247 E0.10255
G1 X150.286 Y40.247 E0.71011
G1 X150.286 Y45.806 E0.17429
G1 X149.951 Y46.164 E0.01536
G1 X149.441 Y46.779 E0.02507
G1 X148.968 Y47.425 E0.02510
G1 X148.528 Y48.109 E0.02550
G1 X148.140 Y48.800 E0.02484
G1 X147.793 Y49.515 E0.02492
G1 X147.488 Y50.255 E0.02509
G1 X147.228 Y51.011 E0.02509
G1 X147.013 Y51.782 E0.02509
G1 X146.846 Y52.565 E0.02509
G1 X146.726 Y53.356 E0.02509
G1 X146.654 Y54.153 E0.02509
G1 X146.630 Y54.944 E0.02481
G1 X146.630 Y93.625 E1.21281
G1 X146.607 Y94.288 E0.02081
G1 X146.540 Y94.938 E0.02049
G1 X146.429 Y95.582 E0.02049
G1 X146.275 Y96.217 E0.02049
G1 X146.077 Y96.840 E0.02049
G1 X145.837 Y97.448 E0.02049
G1 X145.556 Y98.039 E0.02049
G1 X145.249 Y98.585 E0.01966
G1 X144.877 Y99.156 E0.02135
G1 X144.482 Y99.676 E0.02047
G1 X144.053 Y100.169 E0.02049
G1 X143.591 Y100.631 E0.02049
G1 X143.098 Y101.060 E0.02049
G1 X142.577 Y101.455 E0.02049
G1 X142.031 Y101.814 E0.02049
G1 X141.461 Y102.134 E0.02049
G1 X140.871 Y102.415 E0.02049
G1 X140.263 Y102.655 E0.02049
G1 X139.640 Y102.852 E0.02049
G1 X139.005 Y103.007 E0.02049
G1 X138.387 Y103.114 E0.01966
G1 X137.709 Y103.185 E0.02135
G1 X137.047 Y103.208 E0.02079
G1 X102.786 Y103.208 E1.07422
G1 X102.512 Y103.190 E0.00861
G1 X102.262 Y103.140 E0.00800
G1 X102.020 Y103.058 E0.00800
G1 X101.791 Y102.945 E0.00800
G1 X101.579 Y102.803 E0.00800
G1 X101.387 Y102.635 E0.00800
G1 X101.219 Y102.443 E0.00800
G1 X101.077 Y102.231 E0.00800
G1 X100.964 Y102.002 E0.00800
G1 X100.882 Y101.760 E0.00800
G1 X100.832 Y101.509 E0.00800
G1 X100.814 Y101.236 E0.00861
G1 X100.814 Y74.096 E0.85094
G1 X100.832 Y73.822 E0.00861
G1 X100.882 Y73.572 E0.00800
G1 X100.964 Y73.330 E0.00800
G1 X101.072 Y73.111 E0.00764
G1 X101.220 Y72.888 E0.00841
G1 X101.387 Y72.697 E0.00796
G1 X101.570 Y72.536 E0.00764
G1 X101.792 Y72.386 E0.00841
G1 X102.020 Y72.274 E0.00796
G1 X102.262 Y72.192 E0.00800
G1 X102.512 Y72.142 E0.00800
G1 X102.786 Y72.124 E0.00861
G1 X124.367 Y72.124 E0.67665
G1 X125.090 Y72.099 E0.02270
G1 X125.820 Y72.024 E0.02301
G1 X126.544 Y71.899 E0.02301
G1 X127.257 Y71.726 E0.02301
G1 X127.956 Y71.504 E0.02301
G1 X128.639 Y71.234 E0.02301
G1 X129.301 Y70.919 E0.02301
G1 X129.941 Y70.560 E0.02301
G1 X130.555 Y70.157 E0.02301
G1 X131.139 Y69.714 E0.02301
G1 X131.693 Y69.231 E0.02301
G1 X132.212 Y68.712 E0.02301
G1 X132.694 Y68.159 E0.02301
G1 X133.137 Y67.575 E0.02301
G1 X133.540 Y66.961 E0.02301
G1 X133.899 Y66.321 E0.02301
G1 X134.215 Y65.659 E0.02301
G1 X134.484 Y64.976 E0.02301
G1 X134.706 Y64.276 E0.02301
G1 X134.880 Y63.563 E0.02301
G1 X135.004 Y62.840 E0.02301
G1 X135.079 Y62.110 E0.02301
G1 X135.104 Y61.387 E0.02270
G1 X135.104 Y45.352 E0.50276
G1 X135.083 Y45.084 E0.00841
G1 X135.015 Y44.800 E0.00915
G1 X134.903 Y44.530 E0.00916
G1 X134.751 Y44.282 E0.00913
G1 X134.562 Y44.061 E0.00914
G1 X134.339 Y43.871 E0.00916
G1 X134.091 Y43.718 E0.00914
G1 X133.821 Y43.607 E0.00916
G1 X133.538 Y43.539 E0.00913
G1 X133.270 Y43.518 E0.00842
G1 X127.698 Y43.518 E0.17472
G1 X127.261 Y43.895 F10800.000
G1 F1500
G1 X127.261 Y39.870 E0.12620
G1 X150.663 Y39.870 E0.73375
G1 X150.663 Y45.954 E0.19078
G1 X150.235 Y46.413 E0.01968
G1 X149.738 Y47.011 E0.02437
G1 X149.279 Y47.638 E0.02438
G1 X148.851 Y48.303 E0.02478
G1 X148.474 Y48.974 E0.02413
G1 X148.137 Y49.669 E0.02421
G1 X147.841 Y50.388 E0.02438
G1 X147.588 Y51.123 E0.02438
G1 X147.380 Y51.872 E0.02438
G1 X147.217 Y52.633 E0.02438
G1 X147.100 Y53.401 E0.02438
G1 X147.030 Y54.176 E0.02438
G1 X147.007 Y54.949 E0.02428
G1 X147.007 Y93.631 E1.21284
G1 X146.984 Y94.314 E0.02141
G1 X146.914 Y94.990 E0.02130
G1 X146.799 Y95.659 E0.02130
G1 X146.638 Y96.319 E0.02130
G1 X146.432 Y96.967 E0.02130
G1 X146.183 Y97.599 E0.02130
G1 X145.891 Y98.212 E0.02130
G1 X145.572 Y98.781 E0.02045
G1 X145.186 Y99.373 E0.02216
G1 X144.775 Y99.914 E0.02129
G1 X144.329 Y100.426 E0.02130
G1 X143.848 Y100.906 E0.02130
G1 X143.336 Y101.353 E0.02130
G1 X142.795 Y101.763 E0.02130
G1 X142.227 Y102.136 E0.02130
G1 X141.635 Y102.469 E0.02130
G1 X141.021 Y102.761 E0.02130
G1 X140.389 Y103.010 E0.02130
G1 X139.741 Y103.216 E0.02130
G1 X139.081 Y103.377 E0.02130
G1 X138.438 Y103.487 E0.02045
G1 X137.736 Y103.561 E0.02216
G1 X137.053 Y103.585 E0.02141
G1 X102.774 Y103.585 E1.07481
G1 X102.463 Y103.564 E0.00977
G1 X102.164 Y103.505 E0.00955
G1 X101.875 Y103.407 E0.00955
G1 X101.602 Y103.272 E0.00955
G1 X101.349 Y103.103 E0.00955
G1 X101.120 Y102.902 E0.00955
G1 X100.919 Y102.673 E0.00955
G1 X100.749 Y102.420 E0.00955
G1 X100.615 Y102.146 E0.00955
G1 X100.517 Y101.858 E0.00955
G1 X100.457 Y101.559 E0.00955
G1 X100.437 Y101.248 E0.00977
G1 X100.437 Y74.084 E0.85172
G1 X100.457 Y73.773 E0.00977
G1 X100.517 Y73.474 E0.00955
G1 X100.615 Y73.185 E0.00955
G1 X100.744 Y72.923 E0.00916
G1 X100.919 Y72.658 E0.00996
G1 X101.120 Y72.430 E0.00954
G1 X101.339 Y72.237 E0.00916
G1 X101.603 Y72.059 E0.00996
G1 X101.875 Y71.925 E0.00954
G1 X102.164 Y71.827 E0.00955
G1 X102.463 Y71.767 E0.00955
G1 X102.774 Y71.747 E0.00977
G1 X124.361 Y71.747 E0.67684
G1 X125.065 Y71.723 E0.02209
G1 X125.769 Y71.650 E0.02220
G1 X126.467 Y71.530 E0.02220
G1 X127.155 Y71.362 E0.02220
G1 X127.830 Y71.148 E0.02220
G1 X128.488 Y70.888 E0.02220
G1 X129.128 Y70.584 E0.02220
G1 X129.745 Y70.237 E0.02220
G1 X130.337 Y69.849 E0.02220
G1 X130.901 Y69.421 E0.02220
G1 X131.435 Y68.956 E0.02220
G1 X131.936 Y68.455 E0.02220
G1 X132.401 Y67.921 E0.02220
G1 X132.829 Y67.357 E0.02220
G1 X133.217 Y66.765 E0.02220
G1 X133.564 Y66.148 E0.02220
G1 X133.869 Y65.508 E0.02220
G1 X134.128 Y64.849 E0.02220
G1 X134.342 Y64.175 E0.02220
G1 X134.510 Y63.487 E0.02220
G1 X134.630 Y62.789 E0.02220
G1 X134.703 Y62.084 E0.02220
G1 X134.727 Y61.380 E0.02209
G1 X134.727 Y45.367 E0.50210
G1 X134.709 Y45.143 E0.00702
G1 X134.655 Y44.917 E0.00729
G1 X134.566 Y44.702 E0.00730
G1 X134.445 Y44.505 E0.00727
G1 X134.294 Y44.328 E0.00728
G1 X134.117 Y44.177 E0.00730
G1 X133.919 Y44.056 E0.00727
G1 X133.704 Y43.966 E0.00730
G1 X133.479 Y43.912 E0.00727
G1 X133.255 Y43.895 E0.00702
G1 X127.321 Y43.895 E0.18607
G1 X127.461 Y43.549 F10800.000
G1 F8640
G1 X127.272 Y40.604 E-0.76000
G1 E-0.04000 F2100.00000
G1 Z0.800 F10800.000
G1 X128.448 Y43.405
G1 Z0.200
G1 E0.80000 F2100.00000
G1 F1500
G1 X127.921 Y42.877 E0.02339
G1 X127.921 Y42.344 E0.01673
G1 X128.812 Y43.235 E0.03953
G1 X129.345 Y43.235 E0.01673
G1 X127.921 Y41.810 E0.06319
G1 X127.921 Y41.277 E0.01673
G1 X129.879 Y43.235 E0.08686
G1 X130.412 Y43.235 E0.01673
G1 X127.921 Y40.743 E0.11052
G1 X127.921 Y40.530 E0.00671
G1 X128.240 Y40.530 E0.01003
G1 X130.946 Y43.235 E0.12000
G1 X131.479 Y43.235 E0.01673
G1 X128.774 Y40.530 E0.12000
G1 X129.307 Y40.530 E0.01673
G1 X132.013 Y43.235 E0.12000
G1 X132.546 Y43.235 E0.01673
G1 X129.841 Y40.530 E0.12000
G1 X130.374 Y40.530 E0.01673
G1 X133.080 Y43.235 E0.12000
G1 X133.281 Y43.235 E0.00633
G1 X133.654 Y43.276 E0.01176
G1 X130.908 Y40.530 E0.12182
G1 X131.441 Y40.530 E0.01673
G1 X146.347 Y55.435 E0.66121
G1 X146.348 Y54.903 E0.01670
G1 X131.975 Y40.530 E0.63759
G1 X132.508 Y40.530 E0.01673
G1 X146.364 Y54.385 E0.61462
G1 X146.394 Y53.882 E0.01581
G1 X133.042 Y40.530 E0.59231
G1 X133.575 Y40.530 E0.01673
G1 X146.439 Y53.393 E0.57061
M73 Q1 S63
M73 P1 R63
G1 X146.505 Y52.926 E0.01480
G1 X134.109 Y40.530 E0.54989
G1 X134.642 Y40.530 E0.01673
G1 X146.578 Y52.465 E0.52946
G1 X146.672 Y52.026 E0.01410
G1 X135.176 Y40.530 E0.50997
G1 X135.709 Y40.530 E0.01673
G1 X146.772 Y51.593 E0.49076
G1 X146.888 Y51.175 E0.01359
G1 X136.243 Y40.530 E0.47224
G1 X136.776 Y40.530 E0.01673
G1 X147.013 Y50.766 E0.45409
G1 X147.149 Y50.369 E0.01317
G1 X137.310 Y40.530 E0.43648
G1 X137.843 Y40.530 E0.01673
G1 X147.295 Y49.981 E0.41927
G1 X147.451 Y49.604 E0.01281
G1 X138.377 Y40.530 E0.40252
G1 X138.910 Y40.530 E0.01673
G1 X147.615 Y49.234 E0.38614
