; generated by Slic3r Prusa Edition 1.41.0+win64 on 2018-10-18 at 17:58:11

; 

; external perimeters extrusion width = 0.45mm
; perimeters extrusion width = 0.45mm
; infill extrusion width = 0.45mm
; solid infill extrusion width = 0.45mm
; top infill extrusion width = 0.40mm
; first layer extrusion width = 0.42mm

M201 X1000 Y1000 Z1000 E5000 ; sets maximum accelerations, mm/sec^2
M203 X200 Y200 Z12 E120 ; sets maximum feedrates, mm/sec
M204 P1250 R1250 T1250 ; sets acceleration (P, T) and retract acceleration (R), mm/sec^2
M205 X8.00 Y8.00 Z0.40 E1.50 ; sets the jerk limits, mm/sec
M205 S0 T0 ; sets the minimum extruding and travel feed rate, mm/sec
M107
M115 U3.4.0 ; tell printer latest fw version
M83  ; extruder relative mode
M104 S215 ; set extruder temp
M140 S60 ; set bed temp
M190 S60 ; wait for bed temp
M109 S215 ; wait for extruder temp
G28 W ; home all without mesh bed level
G80 ; mesh bed leveling
G1 Y-3.0 F1000.0 ; go outside print area
G92 E0.0
G1 X60.0 E9.0  F1000.0 ; intro line
M73 Q0 S12
M73 P0 R12
G1 X100.0 E12.5  F1000.0 ; intro line
G92 E0.0
M221 S95
M900 K30; Filament gcode
G21 ; set units to millimeters
G90 ; use absolute coordinates
M83 ; use relative distances for extrusion
;BEFORE_LAYER_CHANGE
G92 E0.0
;0.2


G1 E-0.80000 F2100.00000
G1 Z0.600 F10800.000
;AFTER_LAYER_CHANGE
;0.2
G1 X74.032 Y54.661
G1 Z0.200
G1 E0.80000 F2100.00000
M204 S1000
G1 F1200
G1 X74.534 Y54.035 E0.02516
G1 X75.157 Y53.524 E0.02525
G1 X75.896 Y53.143 E0.02609
G1 X76.540 Y52.956 E0.02101
G1 X97.626 Y49.897 E0.66806
G1 X100.903 Y49.879 E0.10276
G1 X101.478 Y49.957 E0.01817
G1 X102.014 Y50.185 E0.01828
G1 X102.470 Y50.543 E0.01817
G1 X102.816 Y51.012 E0.01828
G1 X104.585 Y56.005 E0.16610
G1 X104.768 Y56.881 E0.02804
G1 X104.788 Y85.108 E0.88506
G1 X104.693 Y85.720 E0.01942
G1 X104.429 Y86.284 E0.01953
G1 X99.394 Y91.622 E0.23006
G1 X98.986 Y91.940 E0.01623
G1 X98.514 Y92.154 E0.01623
G1 X74.154 Y98.166 E0.78672
G1 X73.151 Y98.255 E0.03157
G1 X71.861 Y98.131 E0.04063
G1 X70.626 Y97.740 E0.04062
G1 X69.732 Y97.260 E0.03180
G1 X69.025 Y96.725 E0.02780
G1 X68.418 Y96.114 E0.02700
G1 X67.576 Y94.855 E0.04750
G1 X67.245 Y94.073 E0.02662
G1 X67.014 Y93.191 E0.02860
G1 X66.915 Y92.295 E0.02826
G1 X66.947 Y91.402 E0.02803
G1 X73.493 Y55.977 E1.12953
G1 X73.732 Y55.228 E0.02463
G1 X74.004 Y54.714 E0.01824
; PURGING FINISHED
G1 F8640
G1 X74.534 Y54.035 E-0.19894
G1 X75.157 Y53.524 E-0.18593
G1 X75.896 Y53.143 E-0.19216
G1 X76.540 Y52.956 E-0.15474
G1 X76.661 Y52.938 E-0.02824
G1 E-0.04000 F2100.00000
G1 Z0.800 F10800.000
G1 X73.202 Y89.786
G1 Z0.200
G1 E0.80000 F2100.00000
G1 F1200
G1 X73.311 Y89.788 E0.00341
G1 X73.808 Y89.889 E0.01590
G1 X74.267 Y90.099 E0.01585
G1 X74.510 Y90.265 E0.00923
G1 X74.853 Y90.597 E0.01494
G1 X75.034 Y90.843 E0.00958
G1 X75.257 Y91.298 E0.01590
G1 X75.376 Y91.807 E0.01638
G1 X75.376 Y92.312 E0.01585
G1 X75.325 Y92.603 E0.00925
G1 X75.156 Y93.079 E0.01585
G1 X74.873 Y93.518 E0.01636
G1 X74.520 Y93.862 E0.01547
G1 X74.269 Y94.036 E0.00958
G1 X73.808 Y94.247 E0.01590
G1 X73.296 Y94.350 E0.01638
G1 X72.774 Y94.336 E0.01638
G1 X72.285 Y94.207 E0.01584
G1 X72.017 Y94.085 E0.00925
G1 X71.599 Y93.799 E0.01585
G1 X71.246 Y93.415 E0.01638
G1 X70.990 Y92.960 E0.01636
G1 X70.850 Y92.487 E0.01547
G1 X70.813 Y92.184 E0.00958
G1 X70.842 Y91.678 E0.01588
G1 X70.981 Y91.204 E0.01547
G1 X71.114 Y90.929 E0.00958
G1 X71.412 Y90.519 E0.01590
G1 X71.794 Y90.188 E0.01585
G1 X72.046 Y90.036 E0.00925
G1 X72.517 Y89.852 E0.01583
G1 X73.005 Y89.781 E0.01547
G1 X73.142 Y89.785 E0.00429
G1 X73.133 Y90.162 F10800.000
G1 F1200
G1 X73.269 Y90.165 E0.00424
G1 X73.690 Y90.250 E0.01349
G1 X74.081 Y90.429 E0.01347
G1 X74.271 Y90.558 E0.00721
G1 X74.568 Y90.846 E0.01294
G1 X74.710 Y91.039 E0.00754
G1 X74.900 Y91.426 E0.01349
G1 X74.999 Y91.850 E0.01366
G1 X74.999 Y92.280 E0.01347
G1 X74.959 Y92.507 E0.00722
G1 X74.815 Y92.911 E0.01347
G1 X74.579 Y93.278 E0.01366
G1 X74.280 Y93.570 E0.01313
G1 X74.082 Y93.707 E0.00754
G1 X73.690 Y93.886 E0.01349
G1 X73.263 Y93.972 E0.01366
G1 X72.828 Y93.960 E0.01366
G1 X72.412 Y93.851 E0.01347
G1 X72.203 Y93.755 E0.00722
G1 X71.848 Y93.512 E0.01347
G1 X71.553 Y93.191 E0.01366
G1 X71.339 Y92.812 E0.01366
G1 X71.221 Y92.410 E0.01313
G1 X71.192 Y92.172 E0.00754
G1 X71.216 Y91.742 E0.01349
G1 X71.334 Y91.340 E0.01313
G1 X71.439 Y91.124 E0.00754
G1 X71.692 Y90.776 E0.01349
G1 X72.016 Y90.494 E0.01347
G1 X72.213 Y90.375 E0.00722
G1 X72.614 Y90.219 E0.01347
G1 X73.073 Y90.160 E0.01453
G1 X73.194 Y90.040 F10800.000
G1 F8640
G1 X73.269 Y90.165 E-0.04511
G1 X73.690 Y90.250 E-0.09936
G1 X74.081 Y90.429 E-0.09922
G1 X74.271 Y90.558 E-0.05311
G1 X74.568 Y90.846 E-0.09533
G1 X74.710 Y91.039 E-0.05553
G1 X74.900 Y91.426 E-0.09936
G1 X74.999 Y91.850 E-0.10062
G1 X74.999 Y92.280 E-0.09922
G1 X74.989 Y92.336 E-0.01315
G1 E-0.04000 F2100.00000
G1 Z0.800 F10800.000
G1 X83.939 Y84.270
G1 Z0.200
G1 E0.80000 F2100.00000
G1 F1200
G1 X83.939 Y73.146 E0.34880
G1 X95.114 Y73.146 E0.35036
G1 X95.114 Y84.270 E0.34880
G1 X83.999 Y84.270 E0.34848
G1 X84.317 Y83.893 F10800.000
G1 F1200
G1 X84.317 Y73.523 E0.32515
G1 X94.737 Y73.523 E0.32671
G1 X94.737 Y83.893 E0.32515
G1 X84.377 Y83.893 E0.32483
G1 X83.930 Y83.996 F10800.000
G1 F8640
G1 X84.357 Y80.602 E-0.76000
G1 E-0.04000 F2100.00000
G1 Z0.800 F10800.000
G1 X87.842 Y72.050
G1 Z0.200
G1 E0.80000 F2100.00000
G1 F1200
G1 X86.760 Y70.750 E0.05303
G1 X83.939 Y70.750 E0.08845
G1 X83.939 Y59.626 E0.34879
G1 X95.114 Y59.626 E0.35036
G1 X95.114 Y72.050 E0.38955
G1 X87.902 Y72.050 E0.22610
G1 X88.019 Y71.673 F10800.000
G1 F1200
G1 X86.937 Y70.373 E0.05303
G1 X84.317 Y70.373 E0.08217
G1 X84.317 Y60.003 E0.32514
G1 X94.737 Y60.003 E0.32671
G1 X94.737 Y71.673 E0.36590
G1 X88.079 Y71.673 E0.20874
G1 X87.744 Y71.963 F10800.000
G1 F8640
G1 X86.937 Y70.373 E-0.39955
G1 X85.376 Y70.373 E-0.36045
G1 E-0.04000 F2100.00000
G1 Z0.800 F10800.000
G1 X100.313 Y55.797
G1 Z0.200
G1 E0.80000 F2100.00000
G1 F1200
G1 X100.937 Y55.925 E0.01999
G1 X101.233 Y56.034 E0.00989
G1 X101.332 Y56.089 E0.00355
G1 X101.570 Y56.273 E0.00942
G1 X101.765 Y56.499 E0.00938
G1 X101.830 Y56.605 E0.00387
G1 X101.945 Y56.872 E0.00914
G1 X102.002 Y57.153 E0.00897
G1 X102.013 Y84.848 E0.86837
G1 X97.601 Y89.481 E0.20059
G1 X75.629 Y89.481 E0.68892
G1 X76.278 Y90.827 E0.04686
G1 X76.355 Y91.045 E0.00725
G1 X76.468 Y91.533 E0.01571
G1 X76.511 Y92.051 E0.01631
G1 X76.476 Y92.554 E0.01580
G1 X76.365 Y93.058 E0.01617
G1 X76.291 Y93.276 E0.00724
G1 X76.071 Y93.743 E0.01617
G1 X75.786 Y94.172 E0.01617
G1 X75.637 Y94.350 E0.00725
G1 X75.274 Y94.695 E0.01571
G1 X74.850 Y94.996 E0.01631
G1 X74.390 Y95.227 E0.01615
G1 X74.173 Y95.307 E0.00725
G1 X73.687 Y95.428 E0.01571
G1 X73.169 Y95.478 E0.01631
G1 X72.655 Y95.451 E0.01615
G1 X72.427 Y95.413 E0.00725
G1 X71.945 Y95.277 E0.01571
G1 X71.470 Y95.065 E0.01631
G1 X71.046 Y94.792 E0.01580
G1 X70.667 Y94.459 E0.01583
G1 X70.340 Y94.074 E0.01583
G1 X70.069 Y93.635 E0.01617
G1 X69.970 Y93.426 E0.00725
G1 X69.806 Y92.953 E0.01571
G1 X69.709 Y92.442 E0.01631
G1 X69.691 Y91.938 E0.01580
G1 X69.747 Y91.436 E0.01583
G1 X69.877 Y90.949 E0.01583
G1 X70.078 Y90.485 E0.01583
G1 X70.344 Y90.057 E0.01583
G1 X70.679 Y89.664 E0.01617
G1 X71.696 Y88.706 E0.04381
G1 X72.473 Y87.858 E0.03606
G1 X72.846 Y87.402 E0.01846
G1 X73.524 Y86.473 E0.03606
G1 X74.134 Y85.492 E0.03623
G1 X74.667 Y84.472 E0.03606
G1 X74.911 Y83.936 E0.01846
G1 X75.325 Y82.869 E0.03589
G1 X75.508 Y82.310 E0.01846
G1 X75.796 Y81.227 E0.03513
G1 X76.016 Y80.063 E0.03715
G1 X76.144 Y78.914 E0.03625
G1 X76.187 Y77.770 E0.03589
G1 X76.187 Y56.801 E0.65746
G1 X76.246 Y56.417 E0.01219
G1 X76.421 Y56.088 E0.01167
G1 X76.608 Y55.901 E0.00831
G1 X76.818 Y55.769 E0.00779
G1 X77.053 Y55.687 E0.00779
G1 X77.333 Y55.655 E0.00883
G1 X98.487 Y55.655 E0.66327
G1 X98.487 Y52.655 E0.09406
G1 X100.313 Y52.655 E0.05725
G1 X100.313 Y55.737 E0.09664
G1 X100.690 Y55.489 F10800.000
G1 F1200
G1 X101.041 Y55.561 E0.01123
G1 X101.391 Y55.690 E0.01170
G1 X101.540 Y55.773 E0.00535
G1 X101.831 Y55.998 E0.01153
G1 X102.071 Y56.276 E0.01151
G1 X102.166 Y56.430 E0.00568
G1 X102.306 Y56.759 E0.01121
G1 X102.379 Y57.114 E0.01137
G1 X102.390 Y84.999 E0.87430
G1 X97.762 Y89.858 E0.21039
G1 X76.229 Y89.858 E0.67515
G1 X76.627 Y90.682 E0.02868
G1 X76.717 Y90.939 E0.00856
G1 X76.842 Y91.474 E0.01723
G1 X76.889 Y92.049 E0.01807
G1 X76.850 Y92.608 E0.01757
G1 X76.729 Y93.159 E0.01771
G1 X76.641 Y93.418 E0.00855
G1 X76.401 Y93.929 E0.01771
G1 X76.088 Y94.399 E0.01771
G1 X75.912 Y94.608 E0.00856
G1 X75.515 Y94.987 E0.01723
G1 X75.045 Y95.320 E0.01807
G1 X74.540 Y95.573 E0.01770
G1 X74.284 Y95.668 E0.00856
G1 X73.751 Y95.800 E0.01723
G1 X73.177 Y95.857 E0.01807
G1 X72.614 Y95.826 E0.01770
G1 X72.345 Y95.782 E0.00856
G1 X71.816 Y95.633 E0.01723
G1 X71.290 Y95.397 E0.01807
G1 X70.818 Y95.094 E0.01757
G1 X70.397 Y94.724 E0.01758
G1 X70.034 Y94.296 E0.01758
G1 X69.737 Y93.816 E0.01771
G1 X69.620 Y93.569 E0.00856
G1 X69.440 Y93.050 E0.01723
G1 X69.333 Y92.484 E0.01807
G1 X69.313 Y91.924 E0.01757
G1 X69.376 Y91.366 E0.01758
G1 X69.520 Y90.825 E0.01758
G1 X69.743 Y90.310 E0.01758
G1 X70.039 Y89.834 E0.01758
G1 X70.405 Y89.403 E0.01771
G1 X71.428 Y88.441 E0.04403
G1 X72.188 Y87.611 E0.03530
G1 X72.548 Y87.171 E0.01780
G1 X73.211 Y86.262 E0.03530
G1 X73.806 Y85.304 E0.03536
G1 X74.328 Y84.307 E0.03530
G1 X74.563 Y83.790 E0.01780
G1 X74.970 Y82.743 E0.03523
G1 X75.146 Y82.203 E0.01780
G1 X75.428 Y81.143 E0.03437
G1 X75.643 Y80.007 E0.03627
G1 X75.768 Y78.886 E0.03536
G1 X75.810 Y77.763 E0.03523
G1 X75.810 Y56.780 E0.65791
G1 X75.849 Y56.431 E0.01101
G1 X75.892 Y56.282 E0.00487
G1 X76.042 Y55.971 E0.01083
G1 X76.132 Y55.844 E0.00487
G1 X76.372 Y55.604 E0.01064
G1 X76.654 Y55.427 E0.01045
G1 X76.968 Y55.317 E0.01045
G1 X77.312 Y55.278 E0.01082
G1 X98.110 Y55.278 E0.65211
G1 X98.110 Y52.278 E0.09406
G1 X100.690 Y52.278 E0.08089
G1 X100.690 Y55.429 E0.09881
G1 X100.722 Y55.846 F10800.000
G1 X100.473 Y55.946
G1 F1200
G1 X101.720 Y57.192 E0.05543
G1 X101.720 Y57.727 E0.01682
G1 X98.770 Y54.777 E0.13119
G1 X98.770 Y54.242 E0.01682
G1 X100.030 Y55.502 E0.05604
G1 X100.030 Y54.967 E0.01682
G1 X98.770 Y53.707 E0.05604
G1 X98.770 Y53.172 E0.01682
G1 X100.030 Y54.433 E0.05604
G1 X100.030 Y53.898 E0.01682
G1 X99.070 Y52.938 E0.04269
G1 X99.605 Y52.938 E0.01682
G1 X100.200 Y53.533 E0.02645
G1 F8640
G1 X99.605 Y52.938 E-0.19425
G1 X99.070 Y52.938 E-0.12349
G1 X100.030 Y53.898 E-0.31348
G1 X100.030 Y54.433 E-0.12349
G1 X100.014 Y54.416 E-0.00530
G1 E-0.04000 F2100.00000
G1 Z0.800 F10800.000
G1 X101.890 Y58.432
G1 Z0.200
G1 E0.80000 F2100.00000
G1 F1200
G1 X98.770 Y55.312 E0.13875
G1 X98.770 Y55.846 E0.01682
G1 X101.720 Y58.797 E0.13121
G1 X101.720 Y59.332 E0.01682
G1 X98.326 Y55.938 E0.15093
G1 X97.792 Y55.938 E0.01682
G1 X101.721 Y59.867 E0.17472
G1 X101.721 Y60.402 E0.01682
G1 X97.257 Y55.938 E0.19851
G1 X96.722 Y55.938 E0.01682
G1 X101.721 Y60.937 E0.22230
G1 X101.721 Y61.472 E0.01682
G1 X96.187 Y55.938 E0.24609
G1 X95.652 Y55.938 E0.01682
G1 X101.721 Y62.007 E0.26988
G1 X101.722 Y62.542 E0.01682
G1 X95.118 Y55.938 E0.29367
G1 X94.583 Y55.938 E0.01682
G1 X101.722 Y63.077 E0.31746
G1 X101.722 Y63.612 E0.01682
G1 X94.048 Y55.938 E0.34125
G1 X93.513 Y55.938 E0.01682
G1 X101.722 Y64.147 E0.36504
G1 X101.722 Y64.682 E0.01682
G1 X92.978 Y55.938 E0.38883
G1 X92.444 Y55.938 E0.01682
G1 X101.723 Y65.217 E0.41262
G1 X101.723 Y65.752 E0.01682
G1 X91.909 Y55.938 E0.43641
G1 X91.374 Y55.938 E0.01682
G1 X94.779 Y59.343 E0.15141
G1 X94.244 Y59.343 E0.01682
G1 X90.839 Y55.938 E0.15141
G1 X90.304 Y55.938 E0.01682
G1 X93.709 Y59.343 E0.15141
G1 X93.175 Y59.343 E0.01682
G1 X89.770 Y55.938 E0.15141
G1 X89.235 Y55.938 E0.01682
G1 X92.640 Y59.343 E0.15141
G1 X92.105 Y59.343 E0.01682
G1 X88.700 Y55.938 E0.15141
G1 X88.165 Y55.938 E0.01682
G1 X91.570 Y59.343 E0.15141
G1 X91.035 Y59.343 E0.01682
G1 X87.630 Y55.938 E0.15141
G1 X87.096 Y55.938 E0.01682
G1 X90.501 Y59.343 E0.15141
G1 X89.966 Y59.343 E0.01682
G1 X86.561 Y55.938 E0.15141
G1 X86.026 Y55.938 E0.01682
G1 X89.431 Y59.343 E0.15141
G1 X88.896 Y59.343 E0.01682
G1 X85.491 Y55.938 E0.15141
G1 X84.956 Y55.938 E0.01682
G1 X88.361 Y59.343 E0.15141
G1 X87.827 Y59.343 E0.01682
G1 X84.422 Y55.938 E0.15141
G1 X83.887 Y55.938 E0.01682
G1 X87.292 Y59.343 E0.15141
G1 X86.757 Y59.343 E0.01682
G1 X83.352 Y55.938 E0.15141
G1 X82.817 Y55.938 E0.01682
G1 X86.222 Y59.343 E0.15141
G1 X85.687 Y59.343 E0.01682
G1 X82.282 Y55.938 E0.15141
G1 X81.748 Y55.938 E0.01682
G1 X85.153 Y59.343 E0.15141
G1 X84.618 Y59.343 E0.01682
G1 X81.213 Y55.938 E0.15141
G1 X80.678 Y55.938 E0.01682
G1 X84.083 Y59.343 E0.15141
G1 X83.657 Y59.343 E0.01341
G1 X83.657 Y59.451 E0.00341
G1 X80.143 Y55.938 E0.15623
G1 X79.608 Y55.938 E0.01682
G1 X83.657 Y59.986 E0.18002
G1 X83.657 Y60.521 E0.01682
G1 X79.074 Y55.938 E0.20380
G1 X78.539 Y55.938 E0.01682
G1 X83.657 Y61.056 E0.22758
G1 X83.657 Y61.590 E0.01682
G1 X78.004 Y55.938 E0.25136
G1 X77.469 Y55.938 E0.01682
G1 X83.657 Y62.125 E0.27514
G1 X83.657 Y62.660 E0.01682
G1 X77.001 Y56.004 E0.29597
G1 X76.786 Y56.123 E0.00774
G1 X76.685 Y56.223 E0.00446
G1 X83.657 Y63.195 E0.31000
G1 X83.657 Y63.730 E0.01682
G1 X76.507 Y56.580 E0.31795
G1 X76.470 Y56.822 E0.00772
G1 X76.470 Y57.077 E0.00801
G1 X83.657 Y64.264 E0.31960
G1 X83.657 Y64.799 E0.01682
G1 X76.470 Y57.612 E0.31960
G1 X76.470 Y58.147 E0.01682
G1 X83.657 Y65.334 E0.31960
G1 X83.657 Y65.869 E0.01682
G1 X76.470 Y58.682 E0.31960
G1 X76.470 Y59.216 E0.01682
G1 X83.657 Y66.404 E0.31960
G1 X83.657 Y66.938 E0.01682
G1 X76.470 Y59.751 E0.31960
G1 X76.470 Y60.286 E0.01682
G1 X83.657 Y67.473 E0.31960
G1 X83.657 Y68.008 E0.01682
G1 X76.470 Y60.821 E0.31960
M73 Q9 S11
G1 X76.470 Y61.356 E0.01682
G1 X83.657 Y68.543 E0.31960
M73 P9 R11
G1 X83.657 Y69.078 E0.01682
G1 X76.470 Y61.890 E0.31960
G1 X76.470 Y62.425 E0.01682
G1 X83.657 Y69.612 E0.31960
G1 X83.657 Y70.147 E0.01682
G1 X76.470 Y62.960 E0.31960
G1 X76.470 Y63.495 E0.01682
G1 X83.657 Y70.682 E0.31960
G1 X83.657 Y71.033 E0.01103
G1 X84.007 Y71.033 E0.01103
G1 X85.838 Y72.863 E0.08139
G1 X86.372 Y72.863 E0.01682
G1 X84.542 Y71.033 E0.08139
G1 X85.077 Y71.033 E0.01682
G1 X86.907 Y72.863 E0.08139
G1 X87.442 Y72.863 E0.01682
G1 X85.612 Y71.033 E0.08139
G1 X86.146 Y71.033 E0.01682
G1 X87.977 Y72.863 E0.08139
G1 X88.512 Y72.863 E0.01682
G1 X87.981 Y72.333 E0.02358
G1 X88.516 Y72.333 E0.01682
G1 X89.046 Y72.863 E0.02358
G1 X89.581 Y72.863 E0.01682
G1 X89.051 Y72.333 E0.02358
G1 X89.586 Y72.333 E0.01682
G1 X90.116 Y72.863 E0.02358
G1 X90.651 Y72.863 E0.01682
G1 X90.120 Y72.333 E0.02358
G1 X90.655 Y72.333 E0.01682
G1 X91.186 Y72.863 E0.02358
G1 X91.720 Y72.863 E0.01682
G1 X91.190 Y72.333 E0.02358
G1 X91.725 Y72.333 E0.01682
G1 X92.255 Y72.863 E0.02358
G1 X92.790 Y72.863 E0.01682
G1 X92.260 Y72.333 E0.02358
G1 X92.794 Y72.333 E0.01682
G1 X93.325 Y72.863 E0.02358
G1 X93.859 Y72.863 E0.01682
G1 X93.329 Y72.333 E0.02358
G1 X93.864 Y72.333 E0.01682
G1 X94.394 Y72.863 E0.02358
G1 X94.929 Y72.863 E0.01682
G1 X94.399 Y72.333 E0.02358
G1 X94.934 Y72.333 E0.01682
G1 X101.728 Y79.127 E0.30212
G1 X101.727 Y78.592 E0.01682
G1 X95.396 Y72.261 E0.28153
G1 X95.396 Y71.726 E0.01682
G1 X101.727 Y78.057 E0.28152
G1 X101.727 Y77.522 E0.01682
G1 X95.396 Y71.191 E0.28151
G1 X95.396 Y70.656 E0.01682
G1 X101.727 Y76.987 E0.28151
G1 X101.727 Y76.452 E0.01682
G1 X95.396 Y70.121 E0.28150
G1 X95.396 Y69.587 E0.01682
G1 X101.726 Y75.917 E0.28149
G1 X101.726 Y75.382 E0.01682
G1 X95.396 Y69.052 E0.28148
G1 X95.396 Y68.517 E0.01682
G1 X101.726 Y74.847 E0.28147
G1 X101.726 Y74.312 E0.01682
G1 X95.396 Y67.982 E0.28146
G1 X95.396 Y67.447 E0.01682
G1 X101.726 Y73.777 E0.28145
G1 X101.725 Y73.242 E0.01682
G1 X95.396 Y66.913 E0.28144
G1 X95.396 Y66.378 E0.01682
G1 X101.725 Y72.707 E0.28144
G1 X101.725 Y72.172 E0.01682
G1 X95.396 Y65.843 E0.28143
G1 X95.396 Y65.308 E0.01682
G1 X101.725 Y71.637 E0.28142
G1 X101.725 Y71.102 E0.01682
G1 X95.396 Y64.773 E0.28141
G1 X95.396 Y64.239 E0.01682
G1 X101.725 Y70.567 E0.28140
G1 X101.724 Y70.032 E0.01682
G1 X95.396 Y63.704 E0.28139
G1 X95.396 Y63.169 E0.01682
