; generated by Slic3r Prusa Edition 1.41.0+win64 on 2018-10-18 at 17:49:52

; 

; external perimeters extrusion width = 0.45mm
; perimeters extrusion width = 0.45mm
; infill extrusion width = 0.45mm
; solid infill extrusion width = 0.45mm
; top infill extrusion width = 0.40mm
; support material extrusion width = 0.35mm
; first layer extrusion width = 0.42mm

M201 X1000 Y1000 Z1000 E5000 ; sets maximum accelerations, mm/sec^2
M203 X200 Y200 Z12 E120 ; sets maximum feedrates, mm/sec
M204 P1250 R1250 T1250 ; sets acceleration (P, T) and retract acceleration (R), mm/sec^2
M205 X8.00 Y8.00 Z0.40 E1.50 ; sets the jerk limits, mm/sec
M205 S0 T0 ; sets the minimum extruding and travel feed rate, mm/sec
M107
M115 U3.4.0 ; tell printer latest fw version
M83  ; extruder relative mode
M104 S215 ; set extruder temp
M140 S60 ; set bed temp
M190 S60 ; wait for bed temp
M109 S215 ; wait for extruder temp
G28 W ; home all without mesh bed level
G80 ; mesh bed leveling
G1 Y-3.0 F1000.0 ; go outside print area
G92 E0.0
G1 X60.0 E9.0  F1000.0 ; intro line
M73 Q0 S71
M73 P0 R71
G1 X100.0 E12.5  F1000.0 ; intro line
G92 E0.0
M221 S95
M900 K30; Filament gcode
G21 ; set units to millimeters
G90 ; use absolute coordinates
M83 ; use relative distances for extrusion
;BEFORE_LAYER_CHANGE
G92 E0.0
;0.2


G1 E-0.80000 F2100.00000
G1 Z0.600 F10800.000
;AFTER_LAYER_CHANGE
;0.2
G1 X139.635 Y51.971
G1 Z0.200
G1 E0.80000 F2100.00000
M204 S1000
G1 F1620
G1 X139.937 Y51.494 E0.01771
G1 X140.351 Y51.109 E0.01771
G1 X140.846 Y50.845 E0.01760
G1 X141.396 Y50.715 E0.01771
G1 X153.690 Y50.534 E0.38549
G1 X185.521 Y53.681 E1.00292
G1 X186.060 Y53.809 E0.01737
G1 X186.549 Y54.069 E0.01737
G1 X186.927 Y54.408 E0.01589
G1 X187.216 Y54.824 E0.01589
G1 X187.403 Y55.299 E0.01601
G1 X187.474 Y55.801 E0.01589
G1 X187.475 Y72.906 E0.53634
G1 X187.365 Y73.541 E0.02021
G1 X187.074 Y74.120 E0.02032
G1 X186.448 Y74.712 E0.02698
G1 X185.644 Y75.016 E0.02698
G1 X153.926 Y79.624 E1.00492
G1 X141.559 Y79.636 E0.38777
G1 X140.931 Y79.525 E0.01998
G1 X140.359 Y79.236 E0.02010
G1 X139.981 Y78.898 E0.01589
G1 X139.690 Y78.479 E0.01601
G1 X139.505 Y78.007 E0.01589
G1 X139.433 Y77.505 E0.01589
G1 X139.432 Y52.874 E0.77230
G1 X139.622 Y52.030 E0.02712
; PURGING FINISHED
G1 F8640
G1 X139.937 Y51.494 E-0.14357
G1 X140.351 Y51.109 E-0.13044
G1 X140.846 Y50.845 E-0.12960
G1 X141.396 Y50.715 E-0.13044
G1 X142.375 Y50.701 E-0.22595
G1 E-0.04000 F2100.00000
G1 Z0.800 F10800.000
G1 X153.687 Y52.722
G1 Z0.200
G1 E0.80000 F2100.00000
G1 F1620
G1 X153.687 Y61.129 E0.26358
G1 X152.933 Y61.129 E0.02365
G1 X152.933 Y52.892 E0.25826
G1 X152.179 Y52.892 E0.02365
G1 X152.179 Y61.129 E0.25826
G1 X151.462 Y61.129 E0.02247
G1 X151.462 Y66.734 E0.17576
G1 X152.179 Y66.734 E0.02247
G1 X152.179 Y77.278 E0.33060
G1 X152.933 Y77.278 E0.02365
G1 X152.933 Y66.734 E0.33060
G1 X153.687 Y66.734 E0.02365
G1 X153.687 Y77.448 E0.33592
G1 X151.425 Y77.448 F10800.000
G1 F1620
G1 X151.425 Y52.892 E0.76994
G1 X150.671 Y52.892 E0.02365
G1 X150.671 Y77.278 E0.76462
G1 X149.917 Y77.278 E0.02365
G1 X149.917 Y52.892 E0.76462
G1 X149.162 Y52.892 E0.02365
G1 X149.162 Y77.278 E0.76462
G1 X148.408 Y77.278 E0.02365
G1 X148.408 Y52.892 E0.76462
G1 X147.654 Y52.892 E0.02365
G1 X147.654 Y77.278 E0.76462
G1 X146.900 Y77.278 E0.02365
G1 X146.900 Y52.892 E0.76462
G1 X146.146 Y52.892 E0.02365
G1 X146.146 Y77.278 E0.76462
G1 X145.392 Y77.278 E0.02365
G1 X145.392 Y52.892 E0.76462
G1 X144.637 Y52.892 E0.02365
G1 X144.637 Y77.278 E0.76462
G1 X143.883 Y77.278 E0.02365
G1 X143.883 Y52.892 E0.76462
G1 X143.129 Y52.892 E0.02365
G1 X143.129 Y77.278 E0.76462
G1 X142.375 Y77.278 E0.02365
G1 X142.375 Y52.892 E0.76462
G1 X141.621 Y52.892 E0.02365
G1 X141.621 Y77.448 E0.76994
G1 F8640
G1 X141.621 Y74.157 E-0.76000
G1 E-0.04000 F2100.00000
G1 Z0.800 F10800.000
G1 X155.890 Y72.270
G1 Z0.200
G1 E0.80000 F2100.00000
G1 F1620
G1 X155.890 Y56.444 E0.49621
G1 X184.069 Y56.444 E0.88354
G1 X184.068 Y72.270 E0.49621
G1 X155.950 Y72.270 E0.88163
G1 X155.513 Y72.647 F10800.000
G1 F1620
G1 X155.513 Y56.067 E0.51985
G1 X184.446 Y56.067 E0.90717
G1 X184.445 Y72.647 E0.51985
G1 X155.573 Y72.647 E0.90527
G1 X155.650 Y72.271 F10800.000
G1 F8640
G1 X155.561 Y69.355 E-0.76000
G1 E-0.04000 F2100.00000
G1 Z0.800 F10800.000
G1 X156.003 Y71.387
G1 Z0.200
G1 E0.80000 F2100.00000
G1 F1620
G1 X156.604 Y71.987 E0.02689
G1 X157.142 Y71.987 E0.01706
G1 X156.173 Y71.018 E0.04342
G1 X156.173 Y70.479 E0.01706
G1 X157.681 Y71.987 E0.06754
G1 X158.219 Y71.987 E0.01706
G1 X156.173 Y69.940 E0.09166
G1 X156.173 Y69.402 E0.01706
G1 X158.758 Y71.987 E0.11579
G1 X159.297 Y71.987 E0.01706
G1 X156.173 Y68.863 E0.13991
G1 X156.173 Y68.324 E0.01706
G1 X159.835 Y71.987 E0.16403
G1 X160.374 Y71.987 E0.01706
G1 X156.173 Y67.786 E0.18815
G1 X156.173 Y67.247 E0.01706
G1 X160.913 Y71.987 E0.21228
G1 X161.451 Y71.987 E0.01706
G1 X156.173 Y66.709 E0.23640
G1 X156.173 Y66.170 E0.01706
G1 X161.990 Y71.987 E0.26052
G1 X162.528 Y71.987 E0.01706
G1 X156.173 Y65.631 E0.28464
G1 X156.173 Y65.093 E0.01706
G1 X163.067 Y71.987 E0.30877
G1 X163.606 Y71.987 E0.01706
G1 X156.173 Y64.554 E0.33289
G1 X156.173 Y64.016 E0.01706
G1 X164.144 Y71.987 E0.35701
G1 X164.683 Y71.987 E0.01706
G1 X156.173 Y63.477 E0.38114
G1 X156.173 Y62.938 E0.01706
G1 X165.221 Y71.987 E0.40526
G1 X165.760 Y71.987 E0.01706
G1 X156.173 Y62.400 E0.42938
G1 X156.173 Y61.861 E0.01706
G1 X166.299 Y71.987 E0.45350
G1 X166.837 Y71.987 E0.01706
G1 X156.173 Y61.322 E0.47763
G1 X156.173 Y60.784 E0.01706
G1 X167.376 Y71.987 E0.50175
G1 X167.915 Y71.987 E0.01706
G1 X156.173 Y60.245 E0.52587
G1 X156.173 Y59.707 E0.01706
G1 X168.453 Y71.987 E0.55000
G1 X168.992 Y71.987 E0.01706
G1 X156.173 Y59.168 E0.57412
G1 X156.173 Y58.629 E0.01706
G1 X169.530 Y71.987 E0.59824
G1 X170.069 Y71.987 E0.01706
G1 X156.173 Y58.091 E0.62236
G1 X156.173 Y57.552 E0.01706
G1 X170.608 Y71.987 E0.64649
G1 X171.146 Y71.987 E0.01706
G1 X156.173 Y57.013 E0.67061
G1 X156.173 Y56.727 E0.00908
G1 X156.425 Y56.727 E0.00798
G1 X171.685 Y71.987 E0.68345
G1 X172.224 Y71.987 E0.01706
G1 X156.963 Y56.727 E0.68345
G1 X157.502 Y56.727 E0.01706
G1 X172.762 Y71.987 E0.68345
G1 X173.301 Y71.987 E0.01706
G1 X158.040 Y56.727 E0.68345
G1 X158.579 Y56.727 E0.01706
G1 X173.839 Y71.987 E0.68345
G1 X174.378 Y71.987 E0.01706
G1 X159.118 Y56.727 E0.68345
G1 X159.656 Y56.727 E0.01706
G1 X174.917 Y71.987 E0.68345
G1 X175.455 Y71.987 E0.01706
G1 X160.195 Y56.727 E0.68345
G1 X160.734 Y56.727 E0.01706
G1 X175.994 Y71.987 E0.68345
G1 X176.532 Y71.987 E0.01706
G1 X161.272 Y56.727 E0.68345
G1 X161.811 Y56.727 E0.01706
G1 X177.071 Y71.987 E0.68345
G1 X177.610 Y71.987 E0.01706
G1 X162.349 Y56.727 E0.68345
G1 X162.888 Y56.727 E0.01706
G1 X178.148 Y71.987 E0.68345
G1 X178.687 Y71.987 E0.01706
G1 X163.427 Y56.727 E0.68345
G1 X163.965 Y56.727 E0.01706
G1 X179.226 Y71.987 E0.68345
G1 X179.764 Y71.987 E0.01706
G1 X164.504 Y56.727 E0.68345
G1 X165.043 Y56.727 E0.01706
G1 X180.303 Y71.987 E0.68345
G1 X180.841 Y71.987 E0.01706
G1 X165.581 Y56.727 E0.68345
M73 Q1 S70
M73 P1 R70
G1 X166.120 Y56.727 E0.01706
G1 X181.380 Y71.987 E0.68345
G1 X181.919 Y71.987 E0.01706
G1 X166.658 Y56.727 E0.68345
G1 X167.197 Y56.727 E0.01706
G1 X182.457 Y71.987 E0.68345
G1 X182.996 Y71.987 E0.01706
G1 X167.736 Y56.727 E0.68345
G1 X168.274 Y56.727 E0.01706
G1 X183.535 Y71.987 E0.68345
G1 X183.785 Y71.987 E0.00795
G1 X183.785 Y71.699 E0.00911
G1 X168.813 Y56.727 E0.67057
G1 X169.351 Y56.727 E0.01706
G1 X183.786 Y71.161 E0.64645
G1 X183.786 Y70.622 E0.01706
G1 X169.890 Y56.727 E0.62233
G1 X170.429 Y56.727 E0.01706
G1 X183.786 Y70.084 E0.59821
G1 X183.786 Y69.545 E0.01706
G1 X170.967 Y56.727 E0.57408
G1 X171.506 Y56.727 E0.01706
G1 X183.786 Y69.006 E0.54996
G1 X183.786 Y68.468 E0.01706
G1 X172.045 Y56.727 E0.52584
G1 X172.583 Y56.727 E0.01706
G1 X183.786 Y67.929 E0.50172
G1 X183.786 Y67.391 E0.01706
G1 X173.122 Y56.727 E0.47760
G1 X173.660 Y56.727 E0.01706
G1 X183.786 Y66.852 E0.45348
G1 X183.786 Y66.314 E0.01706
G1 X174.199 Y56.727 E0.42936
G1 X174.738 Y56.727 E0.01706
G1 X183.786 Y65.775 E0.40524
G1 X183.786 Y65.236 E0.01706
G1 X175.276 Y56.727 E0.38112
G1 X175.815 Y56.727 E0.01706
G1 X183.786 Y64.698 E0.35699
G1 X183.786 Y64.159 E0.01706
G1 X176.354 Y56.727 E0.33287
G1 X176.892 Y56.727 E0.01706
G1 X183.786 Y63.621 E0.30875
G1 X183.786 Y63.082 E0.01706
G1 X177.431 Y56.727 E0.28463
G1 X177.969 Y56.727 E0.01706
G1 X183.786 Y62.543 E0.26051
G1 X183.786 Y62.005 E0.01706
G1 X178.508 Y56.727 E0.23639
G1 X179.047 Y56.727 E0.01706
G1 X183.786 Y61.466 E0.21227
G1 X183.786 Y60.928 E0.01706
G1 X179.585 Y56.727 E0.18815
G1 X180.124 Y56.727 E0.01706
G1 X183.786 Y60.389 E0.16402
G1 X183.786 Y59.851 E0.01706
G1 X180.662 Y56.727 E0.13990
G1 X181.201 Y56.727 E0.01706
G1 X183.786 Y59.312 E0.11578
G1 X183.786 Y58.773 E0.01706
G1 X181.740 Y56.727 E0.09166
G1 X182.278 Y56.727 E0.01706
G1 X183.786 Y58.235 E0.06754
G1 X183.786 Y57.696 E0.01706
G1 X182.817 Y56.727 E0.04342
G1 X183.356 Y56.727 E0.01706
G1 X183.956 Y57.327 E0.02690
M106 S255
;BEFORE_LAYER_CHANGE
G92 E0.0
;0.4


G1 F8640
G1 X183.356 Y56.727 E-0.19611
G1 X182.817 Y56.727 E-0.12437
G1 X183.786 Y57.696 E-0.31657
G1 X183.786 Y58.229 E-0.12295
G1 E-0.04000 F2100.00000
G1 Z0.800 F10800.000
;AFTER_LAYER_CHANGE
;0.4
M104 S210 ; set temperature
G1 X186.448 Y74.712
G1 Z0.400
G1 E0.80000 F2100.00000
G1 F3000
G1 X185.644 Y75.016 E0.02698
G1 X153.926 Y79.624 E1.00492
G1 X141.559 Y79.636 E0.38777
G1 X140.931 Y79.525 E0.01998
G1 X140.359 Y79.236 E0.02010
G1 X139.981 Y78.898 E0.01589
G1 X139.690 Y78.479 E0.01601
G1 X139.505 Y78.007 E0.01589
G1 X139.433 Y77.505 E0.01589
G1 X139.432 Y52.874 E0.77230
G1 X139.635 Y51.971 E0.02900
G1 X139.937 Y51.494 E0.01771
G1 X140.351 Y51.109 E0.01771
G1 X140.846 Y50.845 E0.01760
G1 X141.396 Y50.715 E0.01771
G1 X153.690 Y50.534 E0.38549
G1 X185.521 Y53.681 E1.00292
G1 X186.060 Y53.809 E0.01737
G1 X186.549 Y54.069 E0.01737
G1 X186.927 Y54.408 E0.01589
G1 X187.216 Y54.824 E0.01589
G1 X187.403 Y55.299 E0.01601
G1 X187.474 Y55.801 E0.01589
G1 X187.475 Y72.906 E0.53634
G1 X187.365 Y73.541 E0.02021
G1 X187.074 Y74.120 E0.02032
G1 X186.492 Y74.670 E0.02510
; PURGING FINISHED
G1 F8640
G1 X185.644 Y75.016 E-0.21155
G1 X183.293 Y75.358 E-0.54845
G1 E-0.04000 F2100.00000
G1 Z1.000 F10800.000
G1 X184.411 Y72.225
G1 Z0.400
G1 E0.80000 F2100.00000
M204 S800
G1 F2700
G1 X155.725 Y72.225 E0.97098
G1 X155.725 Y56.489 E0.53264
G1 X184.411 Y56.489 E0.97100
G1 X184.411 Y72.165 E0.53061
M204 S1000
G1 F8640
G1 X181.119 Y72.172 E-0.76000
G1 E-0.04000 F2100.00000
G1 Z1.000 F10800.000
G1 X155.318 Y72.632
G1 Z0.400
G1 E0.80000 F2100.00000
M204 S800
G1 X155.318 Y56.082 E0.56020
G1 X184.818 Y56.082 E0.99854
G1 X184.818 Y72.632 E0.56020
G1 X155.378 Y72.632 E0.99651
M204 S1000
G1 X155.456 Y72.257 F10800.000
G1 F8640
G1 X155.366 Y69.340 E-0.76000
G1 E-0.04000 F2100.00000
G1 Z1.000 F10800.000
G1 X155.847 Y57.439
G1 Z0.400
G1 E0.80000 F2100.00000
M204 S1250
G1 F7912
G1 X156.492 Y56.794 E0.03105
G1 X157.071 Y56.794 E0.01972
G1 X156.030 Y57.835 E0.05012
G1 X156.030 Y58.414 E0.01972
G1 X157.650 Y56.794 E0.07801
G1 X158.229 Y56.794 E0.01972
G1 X156.030 Y58.993 E0.10590
G1 X156.030 Y59.572 E0.01972
G1 X158.808 Y56.794 E0.13378
G1 X159.388 Y56.794 E0.01972
G1 X156.030 Y60.152 E0.16167
G1 X156.030 Y60.731 E0.01972
G1 X159.967 Y56.794 E0.18956
G1 X160.546 Y56.794 E0.01972
G1 X156.030 Y61.310 E0.21745
G1 X156.030 Y61.889 E0.01972
G1 X161.125 Y56.794 E0.24534
G1 X161.704 Y56.794 E0.01972
G1 X156.030 Y62.468 E0.27323
G1 X156.030 Y63.047 E0.01972
G1 X162.283 Y56.794 E0.30112
G1 X162.862 Y56.794 E0.01972
G1 X156.030 Y63.626 E0.32901
G1 X156.030 Y64.206 E0.01972
G1 X163.442 Y56.794 E0.35690
G1 X164.021 Y56.794 E0.01972
G1 X156.030 Y64.785 E0.38478
G1 X156.030 Y65.364 E0.01972
G1 X164.600 Y56.794 E0.41267
G1 X165.179 Y56.794 E0.01972
G1 X156.030 Y65.943 E0.44056
G1 X156.030 Y66.522 E0.01972
G1 X165.758 Y56.794 E0.46845
G1 X166.337 Y56.794 E0.01972
G1 X156.030 Y67.101 E0.49634
G1 X156.030 Y67.680 E0.01972
G1 X166.916 Y56.794 E0.52423
G1 X167.496 Y56.794 E0.01972
G1 X156.030 Y68.260 E0.55212
G1 X156.030 Y68.839 E0.01972
G1 X168.075 Y56.794 E0.58001
G1 X168.654 Y56.794 E0.01972
G1 X156.030 Y69.418 E0.60790
G1 X156.030 Y69.997 E0.01972
G1 X169.233 Y56.794 E0.63578
G1 X169.812 Y56.794 E0.01972
G1 X156.030 Y70.576 E0.66367
G1 X156.030 Y71.155 E0.01972
G1 X170.391 Y56.794 E0.69156
G1 X170.970 Y56.794 E0.01972
G1 X156.030 Y71.734 E0.71945
G1 X156.030 Y71.919 E0.00630
G1 X156.424 Y71.919 E0.01342
G1 X171.549 Y56.794 E0.72837
G1 X172.129 Y56.794 E0.01972
G1 X157.003 Y71.919 E0.72837
G1 X157.583 Y71.919 E0.01972
G1 X172.708 Y56.794 E0.72837
G1 X173.287 Y56.794 E0.01972
G1 X158.162 Y71.919 E0.72837
G1 X158.741 Y71.919 E0.01972
G1 X173.866 Y56.794 E0.72837
G1 X174.445 Y56.794 E0.01972
G1 X159.320 Y71.919 E0.72837
G1 X159.899 Y71.919 E0.01972
G1 X175.024 Y56.794 E0.72837
G1 X175.603 Y56.794 E0.01972
G1 X160.478 Y71.919 E0.72837
G1 X161.057 Y71.919 E0.01972
G1 X176.183 Y56.794 E0.72837
G1 X176.762 Y56.794 E0.01972
G1 X161.637 Y71.919 E0.72837
G1 X162.216 Y71.919 E0.01972
G1 X177.341 Y56.794 E0.72837
G1 X177.920 Y56.794 E0.01972
G1 X162.795 Y71.919 E0.72837
G1 X163.374 Y71.919 E0.01972
G1 X178.499 Y56.794 E0.72837
G1 X179.078 Y56.794 E0.01972
G1 X163.953 Y71.919 E0.72837
G1 X164.532 Y71.919 E0.01972
G1 X179.657 Y56.794 E0.72837
G1 X180.237 Y56.794 E0.01972
G1 X165.111 Y71.919 E0.72837
G1 X165.690 Y71.919 E0.01972
G1 X180.816 Y56.794 E0.72837
G1 X181.395 Y56.794 E0.01972
G1 X166.270 Y71.919 E0.72837
G1 X166.849 Y71.919 E0.01972
G1 X181.974 Y56.794 E0.72837
G1 X182.553 Y56.794 E0.01972
G1 X167.428 Y71.919 E0.72837
G1 X168.007 Y71.919 E0.01972
G1 X183.132 Y56.794 E0.72837
G1 X183.711 Y56.794 E0.01972
G1 X168.586 Y71.919 E0.72837
G1 X169.165 Y71.919 E0.01972
G1 X184.107 Y56.978 E0.71951
G1 X184.107 Y57.557 E0.01970
G1 X169.744 Y71.919 E0.69165
G1 X170.324 Y71.919 E0.01972
G1 X184.108 Y58.135 E0.66379
G1 X184.108 Y58.714 E0.01970
G1 X170.903 Y71.919 E0.63593
G1 X171.482 Y71.919 E0.01972
G1 X184.109 Y59.292 E0.60807
G1 X184.109 Y59.872 E0.01973
G1 X172.061 Y71.919 E0.58017
G1 X172.640 Y71.919 E0.01972
G1 X184.109 Y60.451 E0.55227
G1 X184.108 Y61.030 E0.01973
G1 X173.219 Y71.919 E0.52438
G1 X173.798 Y71.919 E0.01972
G1 X184.108 Y61.610 E0.49648
G1 X184.108 Y62.189 E0.01973
G1 X174.378 Y71.919 E0.46858
G1 X174.957 Y71.919 E0.01972
G1 X184.108 Y62.768 E0.44069
G1 X184.108 Y63.347 E0.01973
G1 X175.536 Y71.919 E0.41279
G1 X176.115 Y71.919 E0.01972
G1 X184.108 Y63.927 E0.38489
G1 X184.108 Y64.506 E0.01973
G1 X176.694 Y71.919 E0.35700
G1 X177.273 Y71.919 E0.01972
G1 X184.107 Y65.085 E0.32910
G1 X184.107 Y65.665 E0.01973
G1 X177.852 Y71.919 E0.30121
G1 X178.432 Y71.919 E0.01972
G1 X184.107 Y66.244 E0.27331
G1 X184.107 Y66.823 E0.01973
G1 X179.011 Y71.919 E0.24541
G1 X179.590 Y71.919 E0.01972
G1 X184.107 Y67.403 E0.21752
G1 X184.107 Y67.982 E0.01973
G1 X180.169 Y71.919 E0.18962
G1 X180.748 Y71.919 E0.01972
G1 X184.106 Y68.561 E0.16172
G1 X184.106 Y69.140 E0.01973
G1 X181.327 Y71.919 E0.13383
G1 X181.906 Y71.919 E0.01972
G1 X184.106 Y69.720 E0.10593
G1 X184.106 Y70.299 E0.01973
G1 X182.486 Y71.919 E0.07803
G1 X183.065 Y71.919 E0.01972
G1 X184.106 Y70.878 E0.05014
G1 X184.106 Y71.458 E0.01973
G1 X183.461 Y72.103 E0.03106
M204 S1000
;BEFORE_LAYER_CHANGE
G92 E0.0
;0.448515


G1 F8640
G1 X184.106 Y71.458 E-0.21064
G1 X184.106 Y70.878 E-0.13376
G1 X183.065 Y71.919 E-0.33999
G1 X182.737 Y71.919 E-0.07560
G1 E-0.04000 F2100.00000
G1 Z1.000 F10800.000
;AFTER_LAYER_CHANGE
;0.448515
; PURGING FINISHED
G1 X150.943 Y55.857
G1 Z0.449
G1 E0.80000 F2100.00000
G1 F900
G1 X143.883 Y55.857 E0.21639
G1 X143.883 Y58.164 E0.07072
G1 X150.805 Y58.164 E0.21215
G1 X148.497 Y58.164 E0.07072
G1 X148.497 Y60.471 E0.07072
G1 X143.883 Y60.471 E0.14143
G1 X143.883 Y62.778 E0.07072
G1 X148.497 Y62.778 E0.14143
G1 X148.497 Y65.085 E0.07072
G1 X143.883 Y65.085 E0.14143
G1 X143.883 Y67.392 E0.07072
G1 X148.497 Y67.392 E0.14143
G1 X148.497 Y69.699 E0.07072
G1 X150.805 Y69.699 E0.07072
G1 X143.883 Y69.699 E0.21215
G1 X143.883 Y72.006 E0.07072
G1 X150.805 Y72.006 E0.21215
