; generated by Slic3r Prusa Edition 1.41.0+win64 on 2018-10-18 at 17:58:55

; 

; external perimeters extrusion width = 0.45mm
; perimeters extrusion width = 0.45mm
; infill extrusion width = 0.45mm
; solid infill extrusion width = 0.45mm
; top infill extrusion width = 0.40mm
; first layer extrusion width = 0.42mm

M201 X1000 Y1000 Z1000 E5000 ; sets maximum accelerations, mm/sec^2
M203 X200 Y200 Z12 E120 ; sets maximum feedrates, mm/sec
M204 P1250 R1250 T1250 ; sets acceleration (P, T) and retract acceleration (R), mm/sec^2
M205 X8.00 Y8.00 Z0.40 E1.50 ; sets the jerk limits, mm/sec
M205 S0 T0 ; sets the minimum extruding and travel feed rate, mm/sec
M107
M115 U3.4.0 ; tell printer latest fw version
M83  ; extruder relative mode
M104 S215 ; set extruder temp
M140 S60 ; set bed temp
M190 S60 ; wait for bed temp
M109 S215 ; wait for extruder temp
G28 W ; home all without mesh bed level
G80 ; mesh bed leveling
G1 Y-3.0 F1000.0 ; go outside print area
G92 E0.0
G1 X60.0 E9.0  F1000.0 ; intro line
M73 Q0 S10
M73 P0 R10
G1 X100.0 E12.5  F1000.0 ; intro line
G92 E0.0
M221 S95
M900 K30; Filament gcode
G21 ; set units to millimeters
G90 ; use absolute coordinates
M83 ; use relative distances for extrusion
;BEFORE_LAYER_CHANGE
G92 E0.0
;0.2


G1 E-0.80000 F2100.00000
G1 Z0.600 F10800.000
;AFTER_LAYER_CHANGE
;0.2
G1 X44.461 Y53.143
G1 Z0.200
G1 E0.80000 F2100.00000
M204 S1000
G1 F1200
G1 X45.082 Y52.636 E0.02513
G1 X45.817 Y52.259 E0.02591
G1 X46.453 Y52.074 E0.02077
G1 X67.543 Y49.014 E0.66818
G1 X70.820 Y48.997 E0.10276
G1 X71.395 Y49.075 E0.01817
G1 X71.931 Y49.302 E0.01828
G1 X72.387 Y49.661 E0.01817
G1 X72.734 Y50.129 E0.01828
G1 X74.502 Y55.123 E0.16610
G1 X74.685 Y55.998 E0.02804
G1 X74.705 Y84.226 E0.88506
G1 X74.610 Y84.838 E0.01942
G1 X74.346 Y85.402 E0.01953
G1 X69.311 Y90.739 E0.23006
G1 X68.903 Y91.058 E0.01623
G1 X68.431 Y91.272 E0.01623
G1 X44.071 Y97.284 E0.78672
G1 X43.068 Y97.373 E0.03157
G1 X41.788 Y97.250 E0.04030
G1 X40.556 Y96.862 E0.04051
G1 X39.649 Y96.377 E0.03224
G1 X38.950 Y95.849 E0.02748
G1 X38.335 Y95.232 E0.02732
G1 X37.493 Y93.973 E0.04750
G1 X37.165 Y93.199 E0.02634
G1 X36.931 Y92.308 E0.02888
G1 X36.832 Y91.412 E0.02826
G1 X36.864 Y90.519 E0.02803
G1 X43.410 Y55.094 E1.12953
G1 X43.649 Y54.346 E0.02463
G1 X43.949 Y53.779 E0.02012
G1 X44.423 Y53.189 E0.02371
; PURGING FINISHED
G1 F8640
G1 X45.082 Y52.636 E-0.19866
G1 X45.817 Y52.259 E-0.19078
G1 X46.453 Y52.074 E-0.15298
G1 X47.386 Y51.938 E-0.21757
G1 E-0.04000 F2100.00000
G1 Z0.800 F10800.000
G1 X43.213 Y88.903
G1 Z0.200
G1 E0.80000 F2100.00000
G1 F1200
G1 X43.725 Y89.007 E0.01638
G1 X44.184 Y89.217 E0.01585
G1 X44.428 Y89.383 E0.00925
G1 X44.778 Y89.723 E0.01531
G1 X44.952 Y89.962 E0.00925
G1 X45.175 Y90.416 E0.01585
G1 X45.293 Y90.924 E0.01638
G1 X45.293 Y91.430 E0.01585
G1 X45.243 Y91.720 E0.00925
G1 X45.073 Y92.196 E0.01585
G1 X44.799 Y92.621 E0.01585
G1 X44.600 Y92.839 E0.00925
G1 X44.200 Y93.147 E0.01585
G1 X43.725 Y93.364 E0.01638
G1 X43.213 Y93.468 E0.01638
G1 X42.691 Y93.453 E0.01638
G1 X42.202 Y93.325 E0.01584
G1 X41.934 Y93.202 E0.00925
G1 X41.517 Y92.917 E0.01585
G1 X41.163 Y92.532 E0.01638
G1 X40.907 Y92.077 E0.01638
G1 X40.764 Y91.592 E0.01585
G1 X40.731 Y91.299 E0.00925
G1 X40.758 Y90.812 E0.01531
G1 X40.825 Y90.524 E0.00925
G1 X41.015 Y90.075 E0.01531
G1 X41.166 Y89.841 E0.00872
G1 X41.342 Y89.625 E0.00872
G1 X41.724 Y89.294 E0.01585
G1 X42.186 Y89.051 E0.01638
G1 X42.691 Y88.918 E0.01638
G1 X43.153 Y88.905 E0.01449
G1 X43.164 Y89.282 F10800.000
G1 F1200
G1 X43.607 Y89.368 E0.01417
G1 X43.998 Y89.546 E0.01347
G1 X44.188 Y89.676 E0.00722
G1 X44.492 Y89.971 E0.01328
G1 X44.627 Y90.158 E0.00722
G1 X44.817 Y90.543 E0.01347
G1 X44.916 Y90.968 E0.01366
G1 X44.916 Y91.397 E0.01347
G1 X44.876 Y91.624 E0.00722
G1 X44.732 Y92.029 E0.01347
G1 X44.500 Y92.390 E0.01347
G1 X44.344 Y92.560 E0.00722
G1 X44.004 Y92.822 E0.01347
G1 X43.607 Y93.003 E0.01366
G1 X43.180 Y93.090 E0.01366
G1 X42.745 Y93.077 E0.01366
G1 X42.329 Y92.968 E0.01347
G1 X42.120 Y92.873 E0.00722
G1 X41.765 Y92.630 E0.01347
G1 X41.470 Y92.309 E0.01366
G1 X41.256 Y91.930 E0.01366
G1 X41.135 Y91.517 E0.01347
G1 X41.109 Y91.289 E0.00722
G1 X41.133 Y90.866 E0.01328
G1 X41.185 Y90.641 E0.00722
G1 X41.350 Y90.251 E0.01328
G1 X41.471 Y90.063 E0.00703
G1 X41.613 Y89.889 E0.00703
G1 X41.938 Y89.608 E0.01347
G1 X42.323 Y89.404 E0.01366
G1 X42.745 Y89.294 E0.01366
G1 X43.104 Y89.283 E0.01126
G1 X43.390 Y88.952 F10800.000
G1 F8640
G1 X43.607 Y89.368 E-0.11794
G1 X43.998 Y89.546 E-0.09922
G1 X44.188 Y89.676 E-0.05315
G1 X44.492 Y89.971 E-0.09782
G1 X44.627 Y90.158 E-0.05315
G1 X44.817 Y90.543 E-0.09922
G1 X44.916 Y90.968 E-0.10062
G1 X44.916 Y91.397 E-0.09922
G1 X44.886 Y91.567 E-0.03966
G1 E-0.04000 F2100.00000
G1 Z0.800 F10800.000
G1 X53.857 Y88.338
G1 Z0.200
G1 E0.80000 F2100.00000
G1 F1200
G1 X53.857 Y55.063 E1.04329
G1 X65.031 Y55.063 E0.35036
G1 X65.031 Y88.338 E1.04329
G1 X53.917 Y88.338 E0.34848
G1 X54.234 Y87.960 F10800.000
G1 F1200
G1 X54.234 Y55.440 E1.01964
G1 X64.654 Y55.440 E0.32671
G1 X64.654 Y87.960 E1.01964
G1 X54.294 Y87.960 E0.32483
G1 X53.868 Y88.124 F10800.000
G1 F8640
G1 X54.288 Y84.669 E-0.76000
G1 E-0.04000 F2100.00000
G1 Z0.800 F10800.000
G1 X70.230 Y54.915
G1 Z0.200
G1 E0.80000 F2100.00000
G1 F1200
G1 X70.854 Y55.042 E0.01999
G1 X71.150 Y55.152 E0.00989
G1 X71.249 Y55.206 E0.00355
G1 X71.487 Y55.390 E0.00942
G1 X71.673 Y55.607 E0.00895
G1 X71.812 Y55.856 E0.00895
G1 X71.902 Y56.143 E0.00942
G1 X71.919 Y56.255 E0.00356
G1 X71.930 Y83.966 E0.86884
G1 X67.518 Y88.598 E0.20059
G1 X45.546 Y88.598 E0.68892
G1 X46.195 Y89.944 E0.04686
G1 X46.272 Y90.162 E0.00725
G1 X46.386 Y90.655 E0.01586
G1 X46.428 Y91.168 E0.01615
G1 X46.393 Y91.682 E0.01615
G1 X46.351 Y91.910 E0.00725
G1 X46.206 Y92.395 E0.01586
G1 X45.988 Y92.861 E0.01615
G1 X45.703 Y93.290 E0.01615
G1 X45.554 Y93.467 E0.00725
G1 X45.188 Y93.816 E0.01586
G1 X44.767 Y94.113 E0.01615
G1 X44.307 Y94.344 E0.01615
G1 X44.090 Y94.424 E0.00725
G1 X43.599 Y94.546 E0.01586
G1 X43.086 Y94.596 E0.01615
G1 X42.572 Y94.568 E0.01615
G1 X42.344 Y94.531 E0.00724
G1 X41.848 Y94.390 E0.01617
G1 X41.388 Y94.183 E0.01583
G1 X40.963 Y93.909 E0.01583
G1 X40.584 Y93.576 E0.01583
G1 X40.257 Y93.191 E0.01583
G1 X39.986 Y92.753 E0.01617
G1 X39.887 Y92.544 E0.00725
G1 X39.721 Y92.066 E0.01586
G1 X39.626 Y91.560 E0.01615
G1 X39.608 Y91.056 E0.01581
G1 X39.664 Y90.554 E0.01583
G1 X39.794 Y90.066 E0.01583
G1 X39.995 Y89.603 E0.01583
G1 X40.262 Y89.174 E0.01583
G1 X40.596 Y88.781 E0.01617
G1 X41.613 Y87.823 E0.04381
G1 X42.390 Y86.975 E0.03606
G1 X42.763 Y86.520 E0.01846
G1 X43.441 Y85.591 E0.03606
G1 X44.051 Y84.609 E0.03623
G1 X44.584 Y83.590 E0.03606
G1 X44.828 Y83.054 E0.01846
G1 X45.244 Y81.982 E0.03606
G1 X45.575 Y80.901 E0.03544
G1 X45.721 Y80.311 E0.01908
G1 X45.933 Y79.180 E0.03607
G1 X46.061 Y78.031 E0.03623
G1 X46.104 Y76.887 E0.03589
G1 X46.104 Y55.918 E0.65746
G1 X46.163 Y55.534 E0.01219
G1 X46.338 Y55.206 E0.01167
G1 X46.525 Y55.018 E0.00831
G1 X46.736 Y54.886 E0.00779
G1 X46.970 Y54.804 E0.00779
G1 X47.250 Y54.773 E0.00883
G1 X68.404 Y54.773 E0.66327
G1 X68.404 Y51.773 E0.09406
G1 X70.230 Y51.773 E0.05725
G1 X70.230 Y54.855 E0.09664
G1 X70.607 Y54.607 F10800.000
G1 F1200
G1 X70.958 Y54.679 E0.01123
G1 X71.308 Y54.808 E0.01170
G1 X71.457 Y54.890 E0.00535
G1 X71.748 Y55.115 E0.01153
G1 X71.984 Y55.390 E0.01136
G1 X72.160 Y55.707 E0.01136
G1 X72.271 Y56.058 E0.01153
G1 X72.297 Y56.226 E0.00536
G1 X72.307 Y84.116 E0.87447
G1 X67.679 Y88.975 E0.21039
G1 X46.146 Y88.975 E0.67515
G1 X46.544 Y89.799 E0.02868
G1 X46.635 Y90.057 E0.00856
G1 X46.760 Y90.597 E0.01739
G1 X46.806 Y91.166 E0.01791
G1 X46.767 Y91.729 E0.01770
G1 X46.718 Y91.998 E0.00856
G1 X46.560 Y92.529 E0.01739
G1 X46.318 Y93.047 E0.01791
G1 X46.005 Y93.516 E0.01770
G1 X45.829 Y93.725 E0.00856
G1 X45.428 Y94.108 E0.01739
G1 X44.962 Y94.438 E0.01791
G1 X44.457 Y94.691 E0.01770
G1 X44.201 Y94.785 E0.00856
G1 X43.663 Y94.919 E0.01739
G1 X43.095 Y94.974 E0.01791
G1 X42.531 Y94.944 E0.01770
G1 X42.262 Y94.899 E0.00855
G1 X41.718 Y94.745 E0.01771
G1 X41.207 Y94.515 E0.01758
G1 X40.736 Y94.211 E0.01758
G1 X40.314 Y93.841 E0.01758
G1 X39.952 Y93.413 E0.01758
G1 X39.654 Y92.933 E0.01771
G1 X39.537 Y92.687 E0.00856
G1 X39.356 Y92.163 E0.01739
G1 X39.250 Y91.602 E0.01791
G1 X39.230 Y91.041 E0.01758
G1 X39.293 Y90.484 E0.01758
G1 X39.437 Y89.942 E0.01758
G1 X39.660 Y89.427 E0.01758
G1 X39.956 Y88.951 E0.01758
G1 X40.322 Y88.521 E0.01771
G1 X41.345 Y87.558 E0.04403
G1 X42.105 Y86.728 E0.03530
G1 X42.465 Y86.289 E0.01780
G1 X43.128 Y85.380 E0.03530
G1 X43.723 Y84.422 E0.03536
G1 X44.245 Y83.424 E0.03530
G1 X44.480 Y82.907 E0.01780
G1 X44.888 Y81.858 E0.03529
G1 X45.212 Y80.801 E0.03468
G1 X45.352 Y80.230 E0.01842
G1 X45.560 Y79.124 E0.03530
G1 X45.685 Y78.003 E0.03536
G1 X45.727 Y76.880 E0.03523
G1 X45.727 Y55.897 E0.65791
G1 X45.766 Y55.548 E0.01101
G1 X45.809 Y55.399 E0.00487
G1 X45.959 Y55.088 E0.01083
G1 X46.049 Y54.962 E0.00487
G1 X46.289 Y54.722 E0.01064
G1 X46.571 Y54.544 E0.01045
G1 X46.886 Y54.434 E0.01045
G1 X47.229 Y54.395 E0.01082
G1 X68.027 Y54.395 E0.65211
G1 X68.027 Y51.395 E0.09406
G1 X70.607 Y51.395 E0.08089
G1 X70.607 Y54.547 E0.09881
G1 X70.640 Y54.964 F10800.000
G1 X70.396 Y55.064
G1 F1200
G1 X71.637 Y56.305 E0.05508
G1 X71.637 Y56.839 E0.01677
G1 X68.687 Y53.889 E0.13098
G1 X68.687 Y53.355 E0.01676
G1 X69.947 Y54.615 E0.05595
G1 X69.947 Y54.081 E0.01676
G1 X68.687 Y52.821 E0.05595
G1 X68.687 Y52.287 E0.01676
G1 X69.947 Y53.547 E0.05595
G1 X69.947 Y53.013 E0.01676
G1 X68.989 Y52.055 E0.04253
G1 X69.523 Y52.055 E0.01676
G1 X70.117 Y52.649 E0.02635
G1 F8640
G1 X69.523 Y52.055 E-0.19384
G1 X68.989 Y52.055 E-0.12329
G1 X69.947 Y53.013 E-0.31279
G1 X69.947 Y53.547 E-0.12329
G1 X69.926 Y53.526 E-0.00680
G1 E-0.04000 F2100.00000
G1 Z0.800 F10800.000
G1 X71.807 Y57.543
G1 Z0.200
G1 E0.80000 F2100.00000
G1 F1200
G1 X68.687 Y54.423 E0.13853
G1 X68.687 Y54.957 E0.01676
G1 X71.637 Y57.907 E0.13100
G1 X71.637 Y58.441 E0.01677
G1 X68.251 Y55.055 E0.15033
G1 X67.718 Y55.055 E0.01676
G1 X71.638 Y58.976 E0.17405
G1 X71.638 Y59.510 E0.01677
G1 X67.184 Y55.055 E0.19776
G1 X66.650 Y55.055 E0.01676
G1 X71.638 Y60.044 E0.22148
G1 X71.638 Y60.578 E0.01677
G1 X66.116 Y55.055 E0.24519
G1 X65.582 Y55.055 E0.01676
G1 X71.638 Y61.112 E0.26891
G1 X71.639 Y61.646 E0.01677
G1 X65.313 Y55.321 E0.28082
G1 X65.313 Y55.855 E0.01676
G1 X71.639 Y62.180 E0.28083
G1 X71.639 Y62.715 E0.01677
G1 X65.313 Y56.389 E0.28084
G1 X65.313 Y56.923 E0.01676
G1 X71.639 Y63.249 E0.28085
G1 X71.639 Y63.783 E0.01677
G1 X65.313 Y57.457 E0.28086
G1 X65.313 Y57.991 E0.01676
G1 X71.640 Y64.317 E0.28087
G1 X71.640 Y64.851 E0.01677
G1 X65.313 Y58.525 E0.28088
G1 X65.313 Y59.059 E0.01676
G1 X71.640 Y65.385 E0.28088
G1 X71.640 Y65.919 E0.01677
G1 X65.313 Y59.593 E0.28089
G1 X65.313 Y60.127 E0.01676
G1 X71.640 Y66.454 E0.28090
G1 X71.641 Y66.988 E0.01677
G1 X65.313 Y60.661 E0.28091
G1 X65.313 Y61.194 E0.01676
G1 X71.641 Y67.522 E0.28092
G1 X71.641 Y68.056 E0.01677
G1 X65.313 Y61.728 E0.28093
G1 X65.313 Y62.262 E0.01676
G1 X71.641 Y68.590 E0.28094
G1 X71.641 Y69.124 E0.01677
G1 X65.313 Y62.796 E0.28094
G1 X65.313 Y63.330 E0.01676
G1 X71.642 Y69.658 E0.28095
G1 X71.642 Y70.193 E0.01677
G1 X65.313 Y63.864 E0.28096
G1 X65.313 Y64.398 E0.01676
G1 X71.642 Y70.727 E0.28097
G1 X71.642 Y71.261 E0.01677
G1 X65.313 Y64.932 E0.28098
G1 X65.313 Y65.466 E0.01676
G1 X71.642 Y71.795 E0.28099
G1 X71.643 Y72.329 E0.01677
G1 X65.313 Y66.000 E0.28100
G1 X65.313 Y66.534 E0.01676
G1 X71.643 Y72.863 E0.28101
G1 X71.643 Y73.397 E0.01677
G1 X65.313 Y67.068 E0.28101
G1 X65.313 Y67.602 E0.01676
G1 X71.643 Y73.932 E0.28102
G1 X71.643 Y74.466 E0.01677
G1 X65.313 Y68.136 E0.28103
G1 X65.313 Y68.670 E0.01676
G1 X71.644 Y75.000 E0.28104
G1 X71.644 Y75.534 E0.01677
G1 X65.313 Y69.204 E0.28105
G1 X65.313 Y69.738 E0.01676
G1 X71.644 Y76.068 E0.28106
G1 X71.644 Y76.602 E0.01677
G1 X65.313 Y70.272 E0.28107
G1 X65.313 Y70.806 E0.01676
G1 X71.644 Y77.136 E0.28108
G1 X71.645 Y77.670 E0.01677
G1 X65.313 Y71.339 E0.28108
G1 X65.313 Y71.873 E0.01676
G1 X71.645 Y78.205 E0.28109
G1 X71.645 Y78.739 E0.01677
G1 X65.313 Y72.407 E0.28110
G1 X65.313 Y72.941 E0.01676
G1 X71.645 Y79.273 E0.28111
G1 X71.645 Y79.807 E0.01677
G1 X65.313 Y73.475 E0.28112
G1 X65.313 Y74.009 E0.01676
G1 X71.646 Y80.341 E0.28113
G1 X71.646 Y80.875 E0.01677
G1 X65.313 Y74.543 E0.28114
G1 X65.313 Y75.077 E0.01676
G1 X71.646 Y81.409 E0.28115
G1 X71.646 Y81.944 E0.01677
G1 X65.313 Y75.611 E0.28115
M73 Q10 S9
G1 X65.313 Y76.145 E0.01676
G1 X71.646 Y82.478 E0.28116
M73 P10 R9
G1 X71.647 Y83.012 E0.01677
G1 X65.313 Y76.679 E0.28117
G1 X65.313 Y77.213 E0.01676
G1 X71.647 Y83.546 E0.28118
G1 X71.647 Y83.853 E0.00962
G1 X71.536 Y83.969 E0.00505
G1 X65.313 Y77.747 E0.27626
G1 X65.313 Y78.281 E0.01676
G1 X71.275 Y84.243 E0.26469
G1 X71.015 Y84.516 E0.01186
G1 X65.313 Y78.815 E0.25313
G1 X65.313 Y79.349 E0.01676
G1 X70.754 Y84.790 E0.24157
G1 X70.494 Y85.063 E0.01186
G1 X65.313 Y79.883 E0.23000
G1 X65.313 Y80.417 E0.01676
G1 X70.234 Y85.337 E0.21844
G1 X69.973 Y85.610 E0.01186
G1 X65.313 Y80.950 E0.20688
G1 X65.313 Y81.484 E0.01676
G1 X69.713 Y85.884 E0.19531
G1 X69.452 Y86.157 E0.01186
G1 X65.313 Y82.018 E0.18375
G1 X65.313 Y82.552 E0.01676
G1 X69.192 Y86.431 E0.17219
G1 X68.931 Y86.704 E0.01186
G1 X65.313 Y83.086 E0.16062
G1 X65.313 Y83.620 E0.01676
G1 X68.671 Y86.978 E0.14906
G1 X68.410 Y87.251 E0.01186
G1 X65.313 Y84.154 E0.13750
G1 X65.313 Y84.688 E0.01676
G1 X68.150 Y87.525 E0.12593
G1 X67.890 Y87.798 E0.01186
G1 X65.313 Y85.222 E0.11437
G1 X65.313 Y85.756 E0.01676
G1 X67.629 Y88.072 E0.10281
G1 X67.397 Y88.316 E0.01058
G1 X67.339 Y88.316 E0.00180
G1 X65.313 Y86.290 E0.08994
G1 X65.313 Y86.824 E0.01676
G1 X66.805 Y88.316 E0.06623
G1 X66.271 Y88.316 E0.01676
G1 X65.313 Y87.358 E0.04252
G1 X65.313 Y87.892 E0.01676
G1 X65.907 Y88.485 E0.02635
G1 F8640
G1 X65.313 Y87.892 E-0.19381
G1 X65.313 Y87.358 E-0.12329
G1 X66.271 Y88.316 E-0.31276
G1 X66.805 Y88.316 E-0.12329
G1 X66.784 Y88.295 E-0.00685
G1 E-0.04000 F2100.00000
G1 Z0.800 F10800.000
G1 X46.297 Y91.420
G1 Z0.200
G1 E0.80000 F2100.00000
G1 F1200
G1 X45.517 Y90.640 E0.03462
G1 X45.576 Y90.892 E0.00812
G1 X45.576 Y91.232 E0.01066
G1 X46.093 Y91.749 E0.02295
G1 X45.979 Y92.169 E0.01363
G1 X45.530 Y91.719 E0.01992
G1 X45.399 Y92.123 E0.01329
G1 X45.823 Y92.546 E0.01881
G1 X45.741 Y92.722 E0.00608
G1 X45.631 Y92.888 E0.00624
G1 X45.225 Y92.482 E0.01799
G1 X45.015 Y92.805 E0.01210
G1 X45.409 Y93.200 E0.01750
G1 X45.144 Y93.468 E0.01184
G1 X44.753 Y93.078 E0.01731
G1 X44.452 Y93.310 E0.01193
G1 X44.851 Y93.708 E0.01768
G1 X44.527 Y93.918 E0.01211
G1 X44.109 Y93.500 E0.01854
G1 X43.813 Y93.635 E0.01021
G1 X43.728 Y93.652 E0.00272
G1 X44.169 Y94.094 E0.01959
G1 X43.757 Y94.216 E0.01347
G1 X43.284 Y93.742 E0.02101
G1 X42.746 Y93.738 E0.01688
G1 X43.300 Y94.291 E0.02457
G1 X43.080 Y94.313 E0.00691
G1 X42.771 Y94.296 E0.00973
G1 X42.033 Y93.558 E0.03273
G1 X42.358 Y94.417 F10800.000
G1 F1200
G1 X39.797 Y91.856 E0.11363
G1 X40.637 Y92.162 F10800.000
G1 F1200
G1 X39.904 Y91.430 E0.03249
G1 X39.891 Y91.066 E0.01140
G1 X39.910 Y90.902 E0.00520
G1 X40.464 Y91.456 E0.02458
G1 X40.447 Y91.307 E0.00468
G1 X40.469 Y90.927 E0.01196
G1 X39.986 Y90.444 E0.02140
G1 X40.062 Y90.159 E0.00926
G1 X40.114 Y90.039 E0.00411
G1 X40.547 Y90.472 E0.01921
G1 X40.701 Y90.092 E0.01285
G1 X40.283 Y89.674 E0.01853
G1 X40.488 Y89.346 E0.01215
G1 X40.890 Y89.747 E0.01782
G1 X41.123 Y89.447 E0.01193
G1 X40.733 Y89.057 E0.01730
G1 X40.999 Y88.790 E0.01184
G1 X41.405 Y89.196 E0.01802
G1 X41.563 Y89.059 E0.00654
G1 X41.720 Y88.977 E0.00556
G1 X41.274 Y88.531 E0.01977
G1 X41.549 Y88.272 E0.01184
G1 X42.069 Y88.792 E0.02307
G1 X42.489 Y88.679 E0.01364
G1 X41.823 Y88.013 E0.02953
G1 X42.078 Y87.734 E0.01185
G1 X42.971 Y88.627 E0.03960
G1 X43.237 Y88.619 E0.00836
G1 X43.563 Y88.685 E0.01041
G1 X42.333 Y87.456 E0.05454
G1 X42.588 Y87.178 E0.01185
G1 X46.105 Y90.694 E0.15602
G1 X46.000 Y90.241 E0.01458
G1 X45.874 Y89.930 E0.01054
G1 X42.829 Y86.885 E0.13508
G1 X43.064 Y86.586 E0.01192
